P3
# Generated DVP lab image: 128x96
128 96
255
95 190 235 95 190 235 95 190 235 95 190 235 95 190 235 95 190 235 95 190 235 95 190 235 95 190 235 95 190 235 95 190 235 95 190 235 95 190 235 95 190 235 95 190 235 95 190 235 95 190 235 95 190 235 95 190 235 95 190 235 95 190 235 95 190 235 95 190 235 95 190 235 95 190 235 95 190 235 95 190 235 95 190 235 95 190 235 95 190 235 95 190 235 95 190 235 95 190 235 95 190 235 95 190 235 95 190 235 95 190 235 95 190 235 95 190 235 95 190 235 95 190 235 95 190 235 95 190 235 95 190 235 95 190 235 95 190 235 95 190 235 95 190 235 95 190 235 95 190 235 95 190 235 95 190 235 95 190 235 95 190 235 95 190 235 95 190 235 95 190 235 95 190 235 95 190 235 95 190 235 95 190 235 95 190 235 95 190 235 95 190 235 95 190 235 95 190 235 95 190 235 95 190 235 95 190 235 95 190 235 95 190 235 95 190 235 95 190 235 95 190 235 95 190 235 95 190 235 95 190 235 95 190 235 95 190 235 95 190 235 95 190 235 95 190 235 95 190 235 95 190 235 95 190 235 95 190 235 95 190 235 95 190 235 95 190 235 95 190 235 95 190 235 95 190 235 95 190 235 95 190 235 95 190 235 95 190 235 95 190 235 95 190 235 95 190 235 95 190 235 95 190 235 95 190 235 95 190 235 95 190 235 95 190 235 95 190 235 95 190 235 95 190 235 95 190 235 95 190 235 95 190 235 95 190 235 95 190 235 95 190 235 95 190 235 95 190 235 95 190 235 95 190 235 95 190 235 95 190 235 95 190 235 95 190 235 95 190 235 95 190 235 95 190 235 95 190 235 95 190 235 95 190 235
95 190 235 95 190 235 95 190 235 95 190 235 95 190 235 95 190 235 95 190 235 95 190 235 95 190 235 95 190 235 95 190 235 95 190 235 95 190 235 95 190 235 95 190 235 95 190 235 95 190 235 95 190 235 95 190 235 95 190 235 95 190 235 95 190 235 95 190 235 95 190 235 95 190 235 95 190 235 95 190 235 95 190 235 95 190 235 95 190 235 95 190 235 95 190 235 95 190 235 95 190 235 95 190 235 95 190 235 95 190 235 95 190 235 95 190 235 95 190 235 95 190 235 95 190 235 95 190 235 95 190 235 95 190 235 95 190 235 95 190 235 95 190 235 95 190 235 95 190 235 95 190 235 95 190 235 95 190 235 95 190 235 95 190 235 95 190 235 95 190 235 95 190 235 95 190 235 95 190 235 95 190 235 95 190 235 95 190 235 95 190 235 95 190 235 95 190 235 95 190 235 95 190 235 95 190 235 95 190 235 95 190 235 95 190 235 95 190 235 95 190 235 95 190 235 95 190 235 95 190 235 95 190 235 95 190 235 95 190 235 95 190 235 95 190 235 95 190 235 95 190 235 95 190 235 95 190 235 95 190 235 95 190 235 95 190 235 95 190 235 95 190 235 95 190 235 95 190 235 95 190 235 95 190 235 95 190 235 95 190 235 95 190 235 95 190 235 95 190 235 95 190 235 95 190 235 95 190 235 95 190 235 95 190 235 95 190 235 95 190 235 95 190 235 95 190 235 95 190 235 95 190 235 95 190 235 95 190 235 95 190 235 95 190 235 95 190 235 95 190 235 95 190 235 95 190 235 95 190 235 95 190 235 95 190 235 95 190 235 95 190 235 95 190 235 95 190 235 95 190 235 95 190 235
95 190 235 95 190 235 95 190 235 95 190 235 95 190 235 95 190 235 95 190 235 95 190 235 95 190 235 95 190 235 95 190 235 95 190 235 95 190 235 95 190 235 95 190 235 95 190 235 95 190 235 95 190 235 95 190 235 95 190 235 95 190 235 95 190 235 95 190 235 95 190 235 95 190 235 95 190 235 95 190 235 95 190 235 95 190 235 95 190 235 95 190 235 95 190 235 95 190 235 95 190 235 95 190 235 95 190 235 95 190 235 95 190 235 95 190 235 95 190 235 95 190 235 95 190 235 95 190 235 95 190 235 95 190 235 95 190 235 95 190 235 95 190 235 95 190 235 95 190 235 95 190 235 95 190 235 95 190 235 95 190 235 95 190 235 95 190 235 95 190 235 95 190 235 95 190 235 95 190 235 95 190 235 95 190 235 95 190 235 95 190 235 95 190 235 95 190 235 95 190 235 95 190 235 95 190 235 95 190 235 95 190 235 95 190 235 95 190 235 95 190 235 95 190 235 95 190 235 95 190 235 95 190 235 95 190 235 95 190 235 95 190 235 95 190 235 95 190 235 95 190 235 95 190 235 95 190 235 95 190 235 95 190 235 95 190 235 95 190 235 95 190 235 95 190 235 95 190 235 95 190 235 95 190 235 95 190 235 95 190 235 95 190 235 95 190 235 95 190 235 95 190 235 95 190 235 95 190 235 95 190 235 95 190 235 95 190 235 95 190 235 95 190 235 95 190 235 95 190 235 95 190 235 95 190 235 95 190 235 95 190 235 95 190 235 95 190 235 95 190 235 95 190 235 95 190 235 95 190 235 95 190 235 95 190 235 95 190 235 95 190 235 95 190 235 95 190 235 95 190 235 95 190 235
95 191 235 95 191 235 95 191 235 95 191 235 95 191 235 95 191 235 95 191 235 95 191 235 95 191 235 95 191 235 95 191 235 95 191 235 95 191 235 95 191 235 95 191 235 95 191 235 95 191 235 95 191 235 95 191 235 95 191 235 95 191 235 95 191 235 95 191 235 95 191 235 95 191 235 95 191 235 95 191 235 95 191 235 95 191 235 95 191 235 95 191 235 95 191 235 95 191 235 95 191 235 95 191 235 95 191 235 95 191 235 95 191 235 95 191 235 95 191 235 95 191 235 95 191 235 95 191 235 95 191 235 95 191 235 95 191 235 95 191 235 95 191 235 95 191 235 95 191 235 95 191 235 95 191 235 95 191 235 95 191 235 95 191 235 95 191 235 95 191 235 95 191 235 95 191 235 95 191 235 95 191 235 95 191 235 95 191 235 95 191 235 95 191 235 95 191 235 95 191 235 95 191 235 95 191 235 95 191 235 95 191 235 95 191 235 95 191 235 95 191 235 95 191 235 95 191 235 95 191 235 95 191 235 95 191 235 95 191 235 95 191 235 95 191 235 95 191 235 95 191 235 95 191 235 95 191 235 95 191 235 95 191 235 95 191 235 95 191 235 95 191 235 95 191 235 95 191 235 95 191 235 95 191 235 95 191 235 95 191 235 95 191 235 95 191 235 95 191 235 95 191 235 95 191 235 95 191 235 95 191 235 95 191 235 95 191 235 95 191 235 95 191 235 95 191 235 95 191 235 95 191 235 95 191 235 95 191 235 95 191 235 95 191 235 95 191 235 95 191 235 95 191 235 95 191 235 95 191 235 95 191 235 95 191 235 95 191 235 95 191 235 95 191 235 95 191 235 95 191 235 95 191 235
95 191 235 95 191 235 95 191 235 95 191 235 95 191 235 95 191 235 95 191 235 95 191 235 95 191 235 95 191 235 95 191 235 95 191 235 95 191 235 95 191 235 95 191 235 95 191 235 95 191 235 95 191 235 95 191 235 95 191 235 95 191 235 95 191 235 95 191 235 95 191 235 95 191 235 95 191 235 95 191 235 95 191 235 95 191 235 95 191 235 95 191 235 95 191 235 95 191 235 95 191 235 95 191 235 95 191 235 95 191 235 95 191 235 95 191 235 95 191 235 95 191 235 95 191 235 95 191 235 95 191 235 95 191 235 95 191 235 95 191 235 95 191 235 95 191 235 95 191 235 95 191 235 95 191 235 95 191 235 95 191 235 95 191 235 95 191 235 95 191 235 95 191 235 95 191 235 95 191 235 95 191 235 95 191 235 95 191 235 95 191 235 95 191 235 95 191 235 95 191 235 95 191 235 95 191 235 95 191 235 95 191 235 95 191 235 95 191 235 95 191 235 95 191 235 95 191 235 95 191 235 95 191 235 95 191 235 95 191 235 95 191 235 95 191 235 95 191 235 95 191 235 95 191 235 95 191 235 95 191 235 95 191 235 95 191 235 95 191 235 95 191 235 95 191 235 95 191 235 95 191 235 95 191 235 95 191 235 95 191 235 95 191 235 95 191 235 95 191 235 95 191 235 95 191 235 95 191 235 95 191 235 95 191 235 95 191 235 95 191 235 95 191 235 95 191 235 95 191 235 95 191 235 95 191 235 95 191 235 95 191 235 95 191 235 95 191 235 95 191 235 95 191 235 95 191 235 95 191 235 95 191 235 95 191 235 95 191 235 95 191 235 95 191 235 95 191 235 95 191 235 95 191 235
95 191 235 95 191 235 95 191 235 95 191 235 95 191 235 95 191 235 95 191 235 95 191 235 95 191 235 95 191 235 95 191 235 95 191 235 95 191 235 95 191 235 95 191 235 95 191 235 95 191 235 95 191 235 95 191 235 95 191 235 95 191 235 95 191 235 95 191 235 95 191 235 95 191 235 95 191 235 95 191 235 95 191 235 95 191 235 95 191 235 95 191 235 95 191 235 95 191 235 95 191 235 95 191 235 95 191 235 95 191 235 95 191 235 95 191 235 95 191 235 95 191 235 95 191 235 95 191 235 95 191 235 95 191 235 95 191 235 95 191 235 95 191 235 95 191 235 95 191 235 95 191 235 95 191 235 95 191 235 95 191 235 95 191 235 95 191 235 95 191 235 95 191 235 95 191 235 95 191 235 95 191 235 95 191 235 95 191 235 95 191 235 95 191 235 95 191 235 95 191 235 95 191 235 95 191 235 95 191 235 95 191 235 95 191 235 95 191 235 95 191 235 95 191 235 95 191 235 95 191 235 95 191 235 95 191 235 95 191 235 95 191 235 95 191 235 95 191 235 95 191 235 95 191 235 95 191 235 95 191 235 95 191 235 95 191 235 95 191 235 95 191 235 95 191 235 95 191 235 95 191 235 95 191 235 95 191 235 95 191 235 95 191 235 95 191 235 95 191 235 95 191 235 95 191 235 95 191 235 95 191 235 95 191 235 95 191 235 95 191 235 95 191 235 95 191 235 95 191 235 95 191 235 95 191 235 95 191 235 95 191 235 95 191 235 95 191 235 95 191 235 95 191 235 95 191 235 95 191 235 95 191 235 95 191 235 95 191 235 95 191 235 95 191 235 95 191 235 95 191 235 95 191 235
95 192 235 95 192 235 95 192 235 95 192 235 95 192 235 95 192 235 95 192 235 95 192 235 95 192 235 95 192 235 95 192 235 95 192 235 95 192 235 95 192 235 95 192 235 95 192 235 95 192 235 95 192 235 95 192 235 95 192 235 95 192 235 95 192 235 95 192 235 95 192 235 95 192 235 95 192 235 95 192 235 95 192 235 95 192 235 95 192 235 95 192 235 95 192 235 95 192 235 95 192 235 95 192 235 95 192 235 95 192 235 95 192 235 95 192 235 95 192 235 95 192 235 95 192 235 95 192 235 95 192 235 95 192 235 95 192 235 95 192 235 95 192 235 95 192 235 95 192 235 95 192 235 95 192 235 95 192 235 95 192 235 95 192 235 95 192 235 95 192 235 95 192 235 95 192 235 95 192 235 95 192 235 95 192 235 95 192 235 95 192 235 95 192 235 95 192 235 95 192 235 95 192 235 95 192 235 95 192 235 95 192 235 95 192 235 95 192 235 95 192 235 95 192 235 95 192 235 95 192 235 95 192 235 95 192 235 95 192 235 95 192 235 95 192 235 95 192 235 95 192 235 95 192 235 95 192 235 95 192 235 95 192 235 95 192 235 95 192 235 95 192 235 95 192 235 95 192 235 95 192 235 95 192 235 95 192 235 95 192 235 95 192 235 95 192 235 95 192 235 95 192 235 95 192 235 95 192 235 95 192 235 95 192 235 95 192 235 95 192 235 95 192 235 95 192 235 95 192 235 95 192 235 95 192 235 95 192 235 95 192 235 95 192 235 95 192 235 95 192 235 95 192 235 95 192 235 95 192 235 95 192 235 95 192 235 95 192 235 95 192 235 95 192 235 95 192 235 95 192 235 95 192 235
95 192 235 95 192 235 95 192 235 95 192 235 95 192 235 95 192 235 95 192 235 95 192 235 95 192 235 95 192 235 95 192 235 95 192 235 95 192 235 95 192 235 95 192 235 95 192 235 95 192 235 95 192 235 95 192 235 95 192 235 95 192 235 95 192 235 95 192 235 95 192 235 95 192 235 95 192 235 95 192 235 95 192 235 95 192 235 95 192 235 95 192 235 95 192 235 95 192 235 95 192 235 95 192 235 95 192 235 95 192 235 95 192 235 95 192 235 95 192 235 95 192 235 95 192 235 95 192 235 95 192 235 95 192 235 95 192 235 95 192 235 95 192 235 95 192 235 95 192 235 95 192 235 95 192 235 95 192 235 95 192 235 95 192 235 95 192 235 95 192 235 95 192 235 95 192 235 95 192 235 95 192 235 95 192 235 95 192 235 95 192 235 95 192 235 95 192 235 95 192 235 95 192 235 95 192 235 95 192 235 95 192 235 95 192 235 95 192 235 95 192 235 95 192 235 95 192 235 95 192 235 95 192 235 95 192 235 95 192 235 95 192 235 95 192 235 95 192 235 95 192 235 95 192 235 95 192 235 95 192 235 95 192 235 95 192 235 95 192 235 95 192 235 95 192 235 95 192 235 95 192 235 95 192 235 95 192 235 95 192 235 95 192 235 95 192 235 95 192 235 95 192 235 95 192 235 95 192 235 95 192 235 95 192 235 95 192 235 95 192 235 95 192 235 95 192 235 95 192 235 95 192 235 95 192 235 95 192 235 95 192 235 95 192 235 95 192 235 95 192 235 95 192 235 95 192 235 95 192 235 95 192 235 95 192 235 95 192 235 95 192 235 95 192 235 95 192 235 95 192 235 95 192 235
96 192 235 96 192 235 96 192 235 96 192 235 96 192 235 96 192 235 96 192 235 96 192 235 96 192 235 96 192 235 96 192 235 96 192 235 96 192 235 96 192 235 96 192 235 96 192 235 96 192 235 96 192 235 96 192 235 96 192 235 96 192 235 96 192 235 96 192 235 96 192 235 96 192 235 96 192 235 96 192 235 96 192 235 96 192 235 96 192 235 96 192 235 96 192 235 96 192 235 96 192 235 96 192 235 96 192 235 96 192 235 96 192 235 96 192 235 96 192 235 96 192 235 96 192 235 96 192 235 245 150 35 96 192 235 96 192 235 96 192 235 96 192 235 96 192 235 96 192 235 96 192 235 96 192 235 96 192 235 96 192 235 96 192 235 96 192 235 96 192 235 96 192 235 96 192 235 96 192 235 96 192 235 96 192 235 96 192 235 96 192 235 96 192 235 96 192 235 96 192 235 96 192 235 96 192 235 96 192 235 96 192 235 96 192 235 96 192 235 96 192 235 96 192 235 96 192 235 96 192 235 96 192 235 96 192 235 96 192 235 96 192 235 96 192 235 96 192 235 96 192 235 96 192 235 96 192 235 96 192 235 96 192 235 96 192 235 96 192 235 96 192 235 96 192 235 96 192 235 96 192 235 96 192 235 96 192 235 96 192 235 96 192 235 96 192 235 96 192 235 96 192 235 96 192 235 96 192 235 96 192 235 96 192 235 96 192 235 96 192 235 96 192 235 96 192 235 96 192 235 96 192 235 96 192 235 96 192 235 96 192 235 96 192 235 96 192 235 96 192 235 96 192 235 96 192 235 96 192 235 96 192 235 96 192 235 96 192 235 96 192 235 96 192 235 96 192 235 96 192 235 96 192 235
96 193 235 96 193 235 96 193 235 96 193 235 96 193 235 96 193 235 96 193 235 96 193 235 96 193 235 96 193 235 96 193 235 96 193 235 96 193 235 96 193 235 96 193 235 96 193 235 96 193 235 96 193 235 96 193 235 96 193 235 96 193 235 96 193 235 96 193 235 96 193 235 96 193 235 96 193 235 96 193 235 96 193 235 96 193 235 96 193 235 96 193 235 96 193 235 96 193 235 96 193 235 96 193 235 96 193 235 236 69 74 239 70 75 241 71 76 244 72 77 237 145 34 240 147 34 242 148 35 245 150 35 242 148 35 240 147 34 237 145 34 234 144 33 232 213 43 229 210 42 227 208 42 96 193 235 96 193 235 96 193 235 96 193 235 96 193 235 96 193 235 96 193 235 96 193 235 96 193 235 96 193 235 96 193 235 96 193 235 96 193 235 96 193 235 96 193 235 96 193 235 96 193 235 96 193 235 96 193 235 96 193 235 96 193 235 96 193 235 96 193 235 96 193 235 96 193 235 96 193 235 96 193 235 96 193 235 96 193 235 96 193 235 96 193 235 96 193 235 96 193 235 96 193 235 96 193 235 96 193 235 96 193 235 96 193 235 96 193 235 96 193 235 96 193 235 96 193 235 96 193 235 96 193 235 96 193 235 96 193 235 96 193 235 96 193 235 96 193 235 96 193 235 96 193 235 96 193 235 96 193 235 96 193 235 96 193 235 96 193 235 96 193 235 96 193 235 96 193 235 96 193 235 96 193 235 96 193 235 96 193 235 96 193 235 96 193 235 96 193 235 96 193 235 96 193 235 96 193 235 96 193 235 96 193 235 96 193 235 96 193 235 96 193 235 96 193 235 96 193 235 96 193 235
96 193 235 96 193 235 96 193 235 96 193 235 96 193 235 96 193 235 96 193 235 96 193 235 96 193 235 96 193 235 96 193 235 96 193 235 96 193 235 96 193 235 96 193 235 96 193 235 96 193 235 96 193 235 96 193 235 96 193 235 96 193 235 96 193 235 96 193 235 96 193 235 96 193 235 96 193 235 96 193 235 96 193 235 96 193 235 96 193 235 96 193 235 96 193 235 96 193 235 96 193 235 230 68 72 233 69 73 236 69 74 239 70 75 241 71 76 244 72 77 237 145 34 240 147 34 242 148 35 245 150 35 242 148 35 240 147 34 237 145 34 234 144 33 232 213 43 229 210 42 227 208 42 224 206 41 221 203 41 96 193 235 96 193 235 96 193 235 96 193 235 96 193 235 96 193 235 96 193 235 96 193 235 96 193 235 96 193 235 96 193 235 96 193 235 96 193 235 96 193 235 96 193 235 96 193 235 96 193 235 96 193 235 96 193 235 96 193 235 96 193 235 96 193 235 96 193 235 96 193 235 96 193 235 96 193 235 96 193 235 96 193 235 96 193 235 96 193 235 96 193 235 96 193 235 96 193 235 96 193 235 96 193 235 96 193 235 96 193 235 96 193 235 96 193 235 96 193 235 96 193 235 96 193 235 96 193 235 96 193 235 96 193 235 96 193 235 96 193 235 96 193 235 96 193 235 96 193 235 96 193 235 96 193 235 96 193 235 96 193 235 96 193 235 96 193 235 96 193 235 96 193 235 96 193 235 96 193 235 96 193 235 96 193 235 96 193 235 96 193 235 96 193 235 96 193 235 96 193 235 96 193 235 96 193 235 96 193 235 96 193 235 96 193 235 96 193 235 96 193 235 96 193 235
96 194 235 96 194 235 96 194 235 96 194 235 96 194 235 96 194 235 96 194 235 96 194 235 96 194 235 96 194 235 96 194 235 96 194 235 96 194 235 96 194 235 96 194 235 96 194 235 96 194 235 96 194 235 96 194 235 96 194 235 96 194 235 96 194 235 96 194 235 96 194 235 96 194 235 96 194 235 96 194 235 96 194 235 96 194 235 96 194 235 96 194 235 96 194 235 66 159 185 228 67 71 230 68 72 233 69 73 236 69 74 239 70 75 241 71 76 244 72 77 237 145 34 240 147 34 242 148 35 245 150 35 242 148 35 240 147 34 237 145 34 234 144 33 232 213 43 229 210 42 227 208 42 224 206 41 221 203 41 219 201 40 216 198 40 96 194 235 96 194 235 96 194 235 96 194 235 96 194 235 96 194 235 96 194 235 96 194 235 96 194 235 96 194 235 96 194 235 96 194 235 96 194 235 96 194 235 96 194 235 96 194 235 96 194 235 96 194 235 96 194 235 96 194 235 96 194 235 96 194 235 96 194 235 96 194 235 96 194 235 96 194 235 96 194 235 96 194 235 96 194 235 96 194 235 96 194 235 96 194 235 96 194 235 96 194 235 96 194 235 96 194 235 96 194 235 96 194 235 96 194 235 96 194 235 96 194 235 96 194 235 96 194 235 96 194 235 96 194 235 96 194 235 96 194 235 96 194 235 96 194 235 96 194 235 96 194 235 96 194 235 96 194 235 96 194 235 96 194 235 96 194 235 96 194 235 96 194 235 96 194 235 96 194 235 96 194 235 96 194 235 96 194 235 96 194 235 96 194 235 96 194 235 96 194 235 96 194 235 96 194 235 96 194 235 96 194 235 96 194 235 96 194 235
96 194 235 96 194 235 96 194 235 96 194 235 96 194 235 96 194 235 96 194 235 96 194 235 96 194 235 96 194 235 96 194 235 96 194 235 96 194 235 96 194 235 96 194 235 96 194 235 96 194 235 96 194 235 96 194 235 96 194 235 96 194 235 96 194 235 96 194 235 96 194 235 96 194 235 96 194 235 96 194 235 96 194 235 96 194 235 96 194 235 64 155 181 65 157 183 66 159 185 228 67 71 230 68 72 233 69 73 236 69 74 239 70 75 241 71 76 244 72 77 237 145 34 240 147 34 242 148 35 245 150 35 242 148 35 240 147 34 237 145 34 234 144 33 232 213 43 229 210 42 227 208 42 224 206 41 221 203 41 219 201 40 216 198 40 30 109 131 30 108 129 96 194 235 96 194 235 96 194 235 96 194 235 96 194 235 96 194 235 96 194 235 96 194 235 96 194 235 96 194 235 96 194 235 96 194 235 96 194 235 96 194 235 96 194 235 96 194 235 96 194 235 96 194 235 96 194 235 96 194 235 96 194 235 96 194 235 96 194 235 96 194 235 96 194 235 96 194 235 96 194 235 96 194 235 96 194 235 96 194 235 96 194 235 96 194 235 96 194 235 96 194 235 96 194 235 96 194 235 96 194 235 96 194 235 96 194 235 96 194 235 96 194 235 96 194 235 96 194 235 96 194 235 96 194 235 96 194 235 96 194 235 96 194 235 96 194 235 96 194 235 96 194 235 96 194 235 96 194 235 96 194 235 96 194 235 96 194 235 96 194 235 96 194 235 96 194 235 96 194 235 96 194 235 96 194 235 96 194 235 96 194 235 96 194 235 96 194 235 96 194 235 96 194 235 96 194 235 96 194 235 96 194 235
96 194 235 96 194 235 96 194 235 96 194 235 96 194 235 96 194 235 96 194 235 96 194 235 96 194 235 96 194 235 96 194 235 96 194 235 96 194 235 96 194 235 96 194 235 96 194 235 96 194 235 96 194 235 96 194 235 96 194 235 96 194 235 96 194 235 96 194 235 96 194 235 96 194 235 96 194 235 96 194 235 96 194 235 63 151 176 64 153 178 64 155 181 65 157 183 66 159 185 228 67 71 230 68 72 233 69 73 236 69 74 239 70 75 241 71 76 244 72 77 237 145 34 240 147 34 242 148 35 245 150 35 242 148 35 240 147 34 237 145 34 234 144 33 232 213 43 229 210 42 227 208 42 224 206 41 221 203 41 219 201 40 216 198 40 30 109 131 30 108 129 30 106 127 29 105 126 96 194 235 96 194 235 96 194 235 96 194 235 96 194 235 96 194 235 96 194 235 96 194 235 96 194 235 96 194 235 96 194 235 96 194 235 96 194 235 96 194 235 96 194 235 96 194 235 96 194 235 96 194 235 96 194 235 96 194 235 96 194 235 96 194 235 96 194 235 96 194 235 96 194 235 96 194 235 96 194 235 96 194 235 96 194 235 96 194 235 96 194 235 96 194 235 96 194 235 96 194 235 96 194 235 96 194 235 96 194 235 96 194 235 96 194 235 96 194 235 96 194 235 96 194 235 96 194 235 96 194 235 96 194 235 96 194 235 96 194 235 96 194 235 96 194 235 96 194 235 96 194 235 96 194 235 96 194 235 96 194 235 96 194 235 96 194 235 96 194 235 96 194 235 96 194 235 96 194 235 96 194 235 96 194 235 96 194 235 96 194 235 96 194 235 96 194 235 96 194 235 96 194 235 96 194 235
96 195 235 96 195 235 96 195 235 96 195 235 96 195 235 96 195 235 96 195 235 96 195 235 96 195 235 96 195 235 96 195 235 96 195 235 96 195 235 96 195 235 96 195 235 96 195 235 96 195 235 96 195 235 96 195 235 96 195 235 96 195 235 96 195 235 96 195 235 96 195 235 96 195 235 96 195 235 96 195 235 62 149 174 63 151 176 64 153 178 64 155 181 65 157 183 66 159 185 228 67 71 230 68 72 233 69 73 236 69 74 239 70 75 241 71 76 244 72 77 237 145 34 240 147 34 242 148 35 245 150 35 242 148 35 240 147 34 237 145 34 234 144 33 232 213 43 229 210 42 227 208 42 224 206 41 221 203 41 219 201 40 216 198 40 30 109 131 30 108 129 30 106 127 29 105 126 29 103 124 96 195 235 96 195 235 96 195 235 96 195 235 96 195 235 96 195 235 96 195 235 96 195 235 96 195 235 96 195 235 96 195 235 96 195 235 96 195 235 96 195 235 96 195 235 96 195 235 96 195 235 96 195 235 96 195 235 96 195 235 96 195 235 96 195 235 96 195 235 96 195 235 96 195 235 96 195 235 96 195 235 96 195 235 96 195 235 96 195 235 96 195 235 96 195 235 96 195 235 96 195 235 96 195 235 96 195 235 96 195 235 96 195 235 96 195 235 96 195 235 96 195 235 96 195 235 96 195 235 96 195 235 96 195 235 96 195 235 96 195 235 96 195 235 96 195 235 96 195 235 96 195 235 96 195 235 96 195 235 96 195 235 96 195 235 96 195 235 96 195 235 96 195 235 96 195 235 96 195 235 96 195 235 96 195 235 96 195 235 96 195 235 96 195 235 96 195 235 96 195 235 96 195 235
96 195 235 96 195 235 96 195 235 96 195 235 96 195 235 96 195 235 96 195 235 96 195 235 96 195 235 96 195 235 96 195 235 96 195 235 96 195 235 96 195 235 96 195 235 96 195 235 96 195 235 96 195 235 96 195 235 96 195 235 96 195 235 96 195 235 96 195 235 96 195 235 96 195 235 96 195 235 61 147 172 62 149 174 63 151 176 64 153 178 64 155 181 65 157 183 66 159 185 228 67 71 230 68 72 233 69 73 236 69 74 239 70 75 241 71 76 244 72 77 237 145 34 240 147 34 242 148 35 245 150 35 242 148 35 240 147 34 237 145 34 234 144 33 232 213 43 229 210 42 227 208 42 224 206 41 221 203 41 219 201 40 216 198 40 30 109 131 30 108 129 30 106 127 29 105 126 29 103 124 29 102 123 96 195 235 96 195 235 96 195 235 96 195 235 96 195 235 96 195 235 96 195 235 96 195 235 96 195 235 96 195 235 96 195 235 96 195 235 96 195 235 96 195 235 96 195 235 96 195 235 96 195 235 96 195 235 96 195 235 96 195 235 96 195 235 96 195 235 96 195 235 96 195 235 96 195 235 96 195 235 96 195 235 96 195 235 96 195 235 96 195 235 96 195 235 96 195 235 96 195 235 96 195 235 96 195 235 96 195 235 96 195 235 96 195 235 96 195 235 96 195 235 96 195 235 96 195 235 96 195 235 96 195 235 96 195 235 96 195 235 96 195 235 96 195 235 96 195 235 96 195 235 96 195 235 96 195 235 96 195 235 96 195 235 96 195 235 96 195 235 96 195 235 96 195 235 96 195 235 96 195 235 96 195 235 96 195 235 96 195 235 96 195 235 96 195 235 96 195 235 96 195 235
97 195 235 97 195 235 97 195 235 97 195 235 97 195 235 97 195 235 97 195 235 97 195 235 97 195 235 97 195 235 97 195 235 97 195 235 97 195 235 97 195 235 97 195 235 97 195 235 97 195 235 97 195 235 97 195 235 97 195 235 97 195 235 97 195 235 97 195 235 97 195 235 97 195 235 60 145 169 61 147 172 62 149 174 63 151 176 64 153 178 64 155 181 65 157 183 66 159 185 228 67 71 230 68 72 233 69 73 236 69 74 239 70 75 241 71 76 244 72 77 237 145 34 240 147 34 242 148 35 245 150 35 242 148 35 240 147 34 237 145 34 234 144 33 232 213 43 229 210 42 227 208 42 224 206 41 221 203 41 219 201 40 216 198 40 30 109 131 30 108 129 30 106 127 29 105 126 29 103 124 29 102 123 28 101 121 97 195 235 97 195 235 97 195 235 97 195 235 97 195 235 97 195 235 97 195 235 97 195 235 97 195 235 97 195 235 97 195 235 97 195 235 97 195 235 97 195 235 97 195 235 97 195 235 97 195 235 97 195 235 97 195 235 97 195 235 97 195 235 97 195 235 97 195 235 97 195 235 97 195 235 97 195 235 97 195 235 97 195 235 97 195 235 97 195 235 97 195 235 97 195 235 97 195 235 97 195 235 97 195 235 97 195 235 97 195 235 97 195 235 97 195 235 97 195 235 97 195 235 97 195 235 97 195 235 97 195 235 97 195 235 97 195 235 97 195 235 97 195 235 97 195 235 97 195 235 97 195 235 97 195 235 97 195 235 97 195 235 97 195 235 97 195 235 97 195 235 97 195 235 97 195 235 97 195 235 97 195 235 97 195 235 97 195 235 97 195 235 97 195 235 97 195 235
97 196 235 97 196 235 97 196 235 97 196 235 97 196 235 97 196 235 97 196 235 97 196 235 97 196 235 97 196 235 97 196 235 97 196 235 97 196 235 97 196 235 97 196 235 97 196 235 97 196 235 97 196 235 97 196 235 97 196 235 97 196 235 97 196 235 97 196 235 97 196 235 203 179 28 60 145 169 61 147 172 62 149 174 63 151 176 64 153 178 64 155 181 65 157 183 66 159 185 228 67 71 230 68 72 233 69 73 236 69 74 239 70 75 241 71 76 244 72 77 237 145 34 240 147 34 242 148 35 245 150 35 242 148 35 240 147 34 237 145 34 234 144 33 232 213 43 229 210 42 227 208 42 224 206 41 221 203 41 219 201 40 216 198 40 30 109 131 30 108 129 30 106 127 29 105 126 29 103 124 29 102 123 28 101 121 28 99 119 97 196 235 97 196 235 97 196 235 97 196 235 97 196 235 97 196 235 97 196 235 97 196 235 97 196 235 97 196 235 97 196 235 97 196 235 97 196 235 97 196 235 97 196 235 97 196 235 97 196 235 97 196 235 97 196 235 97 196 235 97 196 235 97 196 235 97 196 235 97 196 235 97 196 235 97 196 235 97 196 235 97 196 235 230 30 135 97 196 235 97 196 235 97 196 235 97 196 235 97 196 235 97 196 235 97 196 235 97 196 235 97 196 235 97 196 235 97 196 235 97 196 235 97 196 235 97 196 235 97 196 235 97 196 235 97 196 235 97 196 235 97 196 235 97 196 235 97 196 235 97 196 235 97 196 235 97 196 235 97 196 235 97 196 235 97 196 235 97 196 235 97 196 235 97 196 235 97 196 235 97 196 235 97 196 235 97 196 235 97 196 235 97 196 235
97 196 235 97 196 235 97 196 235 97 196 235 97 196 235 97 196 235 97 196 235 97 196 235 97 196 235 97 196 235 97 196 235 97 196 235 97 196 235 97 196 235 97 196 235 97 196 235 97 196 235 97 196 235 97 196 235 97 196 235 97 196 235 97 196 235 97 196 235 200 177 27 203 179 28 60 145 169 61 147 172 62 149 174 63 151 176 64 153 178 64 155 181 65 157 183 66 159 185 228 67 71 230 68 72 233 69 73 236 69 74 239 70 75 241 71 76 244 72 77 237 145 34 240 147 34 242 148 35 245 150 35 242 148 35 240 147 34 237 145 34 234 144 33 232 213 43 229 210 42 227 208 42 224 206 41 221 203 41 219 201 40 216 198 40 30 109 131 30 108 129 30 106 127 29 105 126 29 103 124 29 102 123 28 101 121 28 99 119 173 16 35 97 196 235 97 196 235 97 196 235 97 196 235 97 196 235 97 196 235 97 196 235 97 196 235 97 196 235 97 196 235 97 196 235 97 196 235 97 196 235 97 196 235 97 196 235 97 196 235 97 196 235 97 196 235 97 196 235 97 196 235 97 196 235 236 42 148 239 42 150 219 29 128 222 29 130 224 29 132 227 30 133 230 30 135 227 30 133 224 29 132 222 29 130 219 29 128 216 28 127 181 19 107 97 196 235 97 196 235 97 196 235 97 196 235 97 196 235 97 196 235 97 196 235 97 196 235 97 196 235 97 196 235 97 196 235 97 196 235 97 196 235 97 196 235 97 196 235 97 196 235 97 196 235 97 196 235 97 196 235 97 196 235 97 196 235 97 196 235 97 196 235 97 196 235 97 196 235 97 196 235 97 196 235 97 196 235 97 196 235 97 196 235
97 197 235 97 197 235 97 197 235 97 197 235 97 197 235 97 197 235 97 197 235 97 197 235 97 197 235 97 197 235 97 197 235 97 197 235 97 197 235 97 197 235 97 197 235 97 197 235 97 197 235 97 197 235 97 197 235 97 197 235 97 197 235 97 197 235 97 197 235 200 177 27 203 179 28 60 145 169 61 147 172 62 149 174 63 151 176 64 153 178 64 155 181 65 157 183 66 159 185 228 67 71 230 68 72 233 69 73 236 69 74 239 70 75 241 71 76 244 72 77 237 145 34 240 147 34 242 148 35 245 150 35 242 148 35 240 147 34 237 145 34 234 144 33 232 213 43 229 210 42 227 208 42 224 206 41 221 203 41 219 201 40 216 198 40 30 109 131 30 108 129 30 106 127 29 105 126 29 103 124 29 102 123 28 101 121 28 99 119 173 16 35 97 197 235 97 197 235 97 197 235 97 197 235 97 197 235 97 197 235 97 197 235 97 197 235 97 197 235 97 197 235 97 197 235 97 197 235 97 197 235 97 197 235 97 197 235 97 197 235 97 197 235 97 197 235 97 197 235 230 41 144 233 41 146 236 42 148 239 42 150 219 29 128 222 29 130 224 29 132 227 30 133 230 30 135 227 30 133 224 29 132 222 29 130 219 29 128 216 28 127 181 19 107 178 18 105 176 18 104 97 197 235 97 197 235 97 197 235 97 197 235 97 197 235 97 197 235 97 197 235 97 197 235 97 197 235 97 197 235 97 197 235 97 197 235 97 197 235 97 197 235 97 197 235 97 197 235 97 197 235 97 197 235 97 197 235 97 197 235 97 197 235 97 197 235 97 197 235 97 197 235 97 197 235 97 197 235 97 197 235 97 197 235
97 197 235 97 197 235 97 197 235 97 197 235 97 197 235 97 197 235 97 197 235 97 197 235 97 197 235 97 197 235 97 197 235 97 197 235 97 197 235 97 197 235 97 197 235 97 197 235 97 197 235 97 197 235 97 197 235 97 197 235 97 197 235 97 197 235 197 174 27 200 177 27 203 179 28 60 145 169 61 147 172 62 149 174 63 151 176 64 153 178 64 155 181 65 157 183 66 159 185 228 67 71 230 68 72 233 69 73 236 69 74 239 70 75 241 71 76 244 72 77 237 145 34 240 147 34 242 148 35 245 150 35 242 148 35 240 147 34 237 145 34 234 144 33 232 213 43 229 210 42 227 208 42 224 206 41 221 203 41 219 201 40 216 198 40 30 109 131 30 108 129 30 106 127 29 105 126 29 103 124 29 102 123 28 101 121 28 99 119 173 16 35 170 15 35 97 197 235 97 197 235 97 197 235 97 197 235 97 197 235 97 197 235 97 197 235 97 197 235 97 197 235 97 197 235 97 197 235 97 197 235 97 197 235 97 197 235 97 197 235 97 197 235 224 40 141 227 40 142 230 41 144 233 41 146 236 42 148 239 42 150 219 29 128 222 29 130 224 29 132 227 30 133 230 30 135 227 30 133 224 29 132 222 29 130 219 29 128 216 28 127 181 19 107 178 18 105 176 18 104 174 18 102 171 18 101 97 197 235 97 197 235 97 197 235 97 197 235 97 197 235 97 197 235 97 197 235 97 197 235 97 197 235 97 197 235 97 197 235 97 197 235 97 197 235 97 197 235 97 197 235 97 197 235 97 197 235 97 197 235 97 197 235 97 197 235 97 197 235 97 197 235 97 197 235 97 197 235 97 197 235 97 197 235
97 197 235 97 197 235 97 197 235 97 197 235 97 197 235 97 197 235 97 197 235 97 197 235 97 197 235 97 197 235 97 197 235 97 197 235 97 197 235 97 197 235 97 197 235 97 197 235 97 197 235 97 197 235 97 197 235 97 197 235 97 197 235 195 172 27 197 174 27 200 177 27 203 179 28 60 145 169 61 147 172 62 149 174 63 151 176 64 153 178 64 155 181 65 157 183 66 159 185 228 67 71 230 68 72 233 69 73 236 69 74 239 70 75 241 71 76 244 72 77 237 145 34 240 147 34 242 148 35 245 150 35 242 148 35 240 147 34 237 145 34 234 144 33 232 213 43 229 210 42 227 208 42 224 206 41 221 203 41 219 201 40 216 198 40 30 109 131 30 108 129 30 106 127 29 105 126 29 103 124 29 102 123 28 101 121 28 99 119 173 16 35 170 15 35 168 15 34 97 197 235 97 197 235 97 197 235 97 197 235 97 197 235 97 197 235 97 197 235 97 197 235 97 197 235 97 197 235 97 197 235 97 197 235 97 197 235 218 38 137 221 39 139 224 40 141 227 40 142 230 41 144 233 41 146 236 42 148 239 42 150 219 29 128 222 29 130 224 29 132 227 30 133 230 30 135 227 30 133 224 29 132 222 29 130 219 29 128 216 28 127 181 19 107 178 18 105 176 18 104 174 18 102 171 18 101 169 17 100 167 17 98 97 197 235 97 197 235 97 197 235 97 197 235 97 197 235 97 197 235 97 197 235 97 197 235 97 197 235 97 197 235 97 197 235 97 197 235 97 197 235 97 197 235 97 197 235 97 197 235 97 197 235 97 197 235 97 197 235 97 197 235 97 197 235 97 197 235 97 197 235 97 197 235
97 198 235 97 198 235 97 198 235 97 198 235 97 198 235 97 198 235 97 198 235 97 198 235 97 198 235 97 198 235 97 198 235 97 198 235 97 198 235 97 198 235 97 198 235 97 198 235 97 198 235 97 198 235 97 198 235 97 198 235 97 198 235 195 172 27 197 174 27 200 177 27 203 179 28 60 145 169 61 147 172 62 149 174 63 151 176 64 153 178 64 155 181 65 157 183 66 159 185 228 67 71 230 68 72 233 69 73 236 69 74 239 70 75 241 71 76 244 72 77 237 145 34 240 147 34 242 148 35 245 150 35 242 148 35 240 147 34 237 145 34 234 144 33 232 213 43 229 210 42 227 208 42 224 206 41 221 203 41 219 201 40 216 198 40 30 109 131 30 108 129 30 106 127 29 105 126 29 103 124 29 102 123 28 101 121 28 99 119 173 16 35 170 15 35 168 15 34 97 198 235 97 198 235 97 198 235 97 198 235 97 198 235 97 198 235 97 198 235 97 198 235 97 198 235 97 198 235 97 198 235 97 198 235 215 38 135 218 38 137 221 39 139 224 40 141 227 40 142 230 41 144 233 41 146 236 42 148 239 42 150 219 29 128 222 29 130 224 29 132 227 30 133 230 30 135 227 30 133 224 29 132 222 29 130 219 29 128 216 28 127 181 19 107 178 18 105 176 18 104 174 18 102 171 18 101 169 17 100 167 17 98 164 17 97 97 198 235 97 198 235 97 198 235 97 198 235 97 198 235 97 198 235 97 198 235 97 198 235 97 198 235 97 198 235 97 198 235 97 198 235 97 198 235 97 198 235 97 198 235 97 198 235 97 198 235 97 198 235 97 198 235 97 198 235 97 198 235 97 198 235 97 198 235
97 198 235 97 198 235 97 198 235 97 198 235 97 198 235 97 198 235 97 198 235 97 198 235 97 198 235 97 198 235 97 198 235 97 198 235 97 198 235 97 198 235 97 198 235 97 198 235 97 198 235 97 198 235 97 198 235 97 198 235 192 169 26 195 172 27 197 174 27 200 177 27 203 179 28 60 145 169 61 147 172 62 149 174 63 151 176 64 153 178 64 155 181 65 157 183 66 159 185 228 67 71 230 68 72 233 69 73 236 69 74 239 70 75 241 71 76 244 72 77 237 145 34 240 147 34 242 148 35 245 150 35 242 148 35 240 147 34 237 145 34 234 144 33 232 213 43 229 210 42 227 208 42 224 206 41 221 203 41 219 201 40 216 198 40 30 109 131 30 108 129 30 106 127 29 105 126 29 103 124 29 102 123 28 101 121 28 99 119 173 16 35 170 15 35 168 15 34 166 15 34 97 198 235 97 198 235 97 198 235 97 198 235 97 198 235 97 198 235 97 198 235 97 198 235 97 198 235 97 198 235 203 203 75 215 38 135 218 38 137 221 39 139 224 40 141 227 40 142 230 41 144 233 41 146 236 42 148 239 42 150 219 29 128 222 29 130 224 29 132 227 30 133 230 30 135 227 30 133 224 29 132 222 29 130 219 29 128 216 28 127 181 19 107 178 18 105 176 18 104 174 18 102 171 18 101 169 17 100 167 17 98 164 17 97 162 17 95 97 198 235 97 198 235 97 198 235 97 198 235 97 198 235 97 198 235 97 198 235 97 198 235 97 198 235 97 198 235 97 198 235 97 198 235 97 198 235 97 198 235 97 198 235 97 198 235 97 198 235 97 198 235 97 198 235 97 198 235 97 198 235 97 198 235
98 198 235 98 198 235 98 198 235 98 198 235 98 198 235 98 198 235 98 198 235 98 198 235 98 198 235 98 198 235 98 198 235 98 198 235 98 198 235 98 198 235 98 198 235 98 198 235 98 198 235 98 198 235 98 198 235 98 198 235 192 169 26 195 172 27 197 174 27 200 177 27 203 179 28 60 145 169 61 147 172 62 149 174 63 151 176 64 153 178 64 155 181 65 157 183 66 159 185 228 67 71 230 68 72 233 69 73 236 69 74 239 70 75 241 71 76 244 72 77 237 145 34 240 147 34 242 148 35 245 150 35 242 148 35 240 147 34 237 145 34 234 144 33 232 213 43 229 210 42 227 208 42 224 206 41 221 203 41 219 201 40 216 198 40 30 109 131 30 108 129 30 106 127 29 105 126 29 103 124 29 102 123 28 101 121 28 99 119 173 16 35 170 15 35 168 15 34 166 15 34 98 198 235 98 198 235 98 198 235 98 198 235 98 198 235 98 198 235 98 198 235 98 198 235 98 198 235 200 200 74 203 203 75 215 38 135 218 38 137 221 39 139 224 40 141 227 40 142 230 41 144 233 41 146 236 42 148 239 42 150 219 29 128 222 29 130 224 29 132 227 30 133 230 30 135 227 30 133 224 29 132 222 29 130 219 29 128 216 28 127 181 19 107 178 18 105 176 18 104 174 18 102 171 18 101 169 17 100 167 17 98 164 17 97 162 17 95 208 33 123 98 198 235 98 198 235 98 198 235 98 198 235 98 198 235 98 198 235 98 198 235 98 198 235 98 198 235 98 198 235 98 198 235 98 198 235 98 198 235 98 198 235 98 198 235 98 198 235 98 198 235 98 198 235 98 198 235 98 198 235 98 198 235
98 199 235 98 199 235 98 199 235 98 199 235 98 199 235 98 199 235 98 199 235 98 199 235 98 199 235 98 199 235 98 199 235 98 199 235 98 199 235 98 199 235 98 199 235 98 199 235 98 199 235 98 199 235 98 199 235 189 167 26 192 169 26 195 172 27 197 174 27 200 177 27 203 179 28 60 145 169 61 147 172 62 149 174 63 151 176 64 153 178 64 155 181 65 157 183 66 159 185 228 67 71 230 68 72 233 69 73 236 69 74 239 70 75 241 71 76 244 72 77 237 145 34 240 147 34 242 148 35 245 150 35 242 148 35 240 147 34 237 145 34 234 144 33 232 213 43 229 210 42 227 208 42 224 206 41 221 203 41 219 201 40 216 198 40 30 109 131 30 108 129 30 106 127 29 105 126 29 103 124 29 102 123 28 101 121 28 99 119 173 16 35 170 15 35 168 15 34 166 15 34 163 15 33 98 199 235 98 199 235 98 199 235 98 199 235 98 199 235 98 199 235 98 199 235 197 197 72 200 200 74 203 203 75 215 38 135 218 38 137 221 39 139 224 40 141 227 40 142 230 41 144 233 41 146 236 42 148 239 42 150 219 29 128 222 29 130 224 29 132 227 30 133 230 30 135 227 30 133 224 29 132 222 29 130 219 29 128 216 28 127 181 19 107 178 18 105 176 18 104 174 18 102 171 18 101 169 17 100 167 17 98 164 17 97 162 17 95 208 33 123 205 32 121 98 199 235 98 199 235 98 199 235 98 199 235 98 199 235 98 199 235 98 199 235 98 199 235 98 199 235 98 199 235 98 199 235 98 199 235 98 199 235 98 199 235 98 199 235 98 199 235 98 199 235 98 199 235 98 199 235 98 199 235
98 199 235 98 199 235 98 199 235 98 199 235 98 199 235 98 199 235 98 199 235 98 199 235 98 199 235 98 199 235 98 199 235 98 199 235 98 199 235 98 199 235 98 199 235 98 199 235 98 199 235 98 199 235 98 199 235 189 167 26 192 169 26 195 172 27 197 174 27 200 177 27 203 179 28 60 145 169 61 147 172 62 149 174 63 151 176 64 153 178 64 155 181 65 157 183 66 159 185 228 67 71 230 68 72 233 69 73 236 69 74 239 70 75 241 71 76 244 72 77 237 145 34 240 147 34 242 148 35 245 150 35 242 148 35 240 147 34 237 145 34 234 144 33 232 213 43 229 210 42 227 208 42 224 206 41 221 203 41 219 201 40 216 198 40 30 109 131 30 108 129 30 106 127 29 105 126 29 103 124 29 102 123 28 101 121 28 99 119 173 16 35 170 15 35 168 15 34 166 15 34 163 15 33 98 199 235 98 199 235 98 199 235 98 199 235 98 199 235 98 199 235 194 194 71 197 197 72 200 200 74 203 203 75 215 38 135 218 38 137 221 39 139 224 40 141 227 40 142 230 41 144 233 41 146 236 42 148 239 42 150 219 29 128 222 29 130 224 29 132 227 30 133 230 30 135 227 30 133 224 29 132 222 29 130 219 29 128 216 28 127 181 19 107 178 18 105 176 18 104 174 18 102 171 18 101 169 17 100 167 17 98 164 17 97 162 17 95 208 33 123 205 32 121 202 32 119 98 199 235 98 199 235 98 199 235 98 199 235 98 199 235 98 199 235 98 199 235 98 199 235 98 199 235 98 199 235 98 199 235 98 199 235 98 199 235 98 199 235 98 199 235 98 199 235 98 199 235 98 199 235 98 199 235
98 199 235 98 199 235 98 199 235 98 199 235 98 199 235 98 199 235 98 199 235 98 199 235 98 199 235 98 199 235 98 199 235 98 199 235 98 199 235 98 199 235 98 199 235 98 199 235 98 199 235 98 199 235 98 199 235 189 167 26 192 169 26 195 172 27 197 174 27 200 177 27 203 179 28 60 145 169 61 147 172 62 149 174 63 151 176 64 153 178 64 155 181 65 157 183 66 159 185 228 67 71 230 68 72 233 69 73 236 69 74 239 70 75 241 71 76 244 72 77 237 145 34 240 147 34 242 148 35 245 150 35 242 148 35 240 147 34 237 145 34 234 144 33 232 213 43 229 210 42 227 208 42 224 206 41 221 203 41 219 201 40 216 198 40 30 109 131 30 108 129 30 106 127 29 105 126 29 103 124 29 102 123 28 101 121 28 99 119 173 16 35 170 15 35 168 15 34 166 15 34 163 15 33 98 199 235 98 199 235 98 199 235 98 199 235 98 199 235 191 191 70 194 194 71 197 197 72 200 200 74 203 203 75 215 38 135 218 38 137 221 39 139 224 40 141 227 40 142 230 41 144 233 41 146 236 42 148 239 42 150 219 29 128 222 29 130 224 29 132 227 30 133 230 30 135 227 30 133 224 29 132 222 29 130 219 29 128 216 28 127 181 19 107 178 18 105 176 18 104 174 18 102 171 18 101 169 17 100 167 17 98 164 17 97 162 17 95 208 33 123 205 32 121 202 32 119 199 31 117 98 199 235 98 199 235 98 199 235 98 199 235 98 199 235 98 199 235 98 199 235 98 199 235 98 199 235 98 199 235 98 199 235 98 199 235 98 199 235 98 199 235 98 199 235 98 199 235 98 199 235 98 199 235
98 200 235 98 200 235 98 200 235 98 200 235 98 200 235 98 200 235 98 200 235 98 200 235 98 200 235 98 200 235 98 200 235 98 200 235 98 200 235 98 200 235 98 200 235 98 200 235 98 200 235 98 200 235 186 164 26 189 167 26 192 169 26 195 172 27 197 174 27 200 177 27 203 179 28 60 145 169 61 147 172 62 149 174 63 151 176 64 153 178 64 155 181 65 157 183 66 159 185 228 67 71 230 68 72 233 69 73 236 69 74 239 70 75 241 71 76 244 72 77 237 145 34 240 147 34 242 148 35 245 150 35 242 148 35 240 147 34 237 145 34 234 144 33 232 213 43 229 210 42 227 208 42 224 206 41 221 203 41 219 201 40 216 198 40 30 109 131 30 108 129 30 106 127 29 105 126 29 103 124 29 102 123 28 101 121 28 99 119 173 16 35 170 15 35 168 15 34 166 15 34 163 15 33 161 15 33 98 200 235 98 200 235 98 200 235 98 200 235 191 191 70 194 194 71 197 197 72 200 200 74 203 203 75 215 38 135 218 38 137 221 39 139 224 40 141 227 40 142 230 41 144 233 41 146 236 42 148 239 42 150 219 29 128 222 29 130 224 29 132 227 30 133 230 30 135 227 30 133 224 29 132 222 29 130 219 29 128 216 28 127 181 19 107 178 18 105 176 18 104 174 18 102 171 18 101 169 17 100 167 17 98 164 17 97 162 17 95 208 33 123 205 32 121 202 32 119 199 31 117 98 200 235 98 200 235 98 200 235 98 200 235 98 200 235 98 200 235 98 200 235 98 200 235 98 200 235 98 200 235 98 200 235 98 200 235 98 200 235 98 200 235 98 200 235 98 200 235 98 200 235 98 200 235
98 200 235 98 200 235 98 200 235 98 200 235 98 200 235 98 200 235 98 200 235 98 200 235 98 200 235 98 200 235 98 200 235 98 200 235 98 200 235 98 200 235 98 200 235 98 200 235 98 200 235 98 200 235 186 164 26 189 167 26 192 169 26 195 172 27 197 174 27 200 177 27 203 179 28 60 145 169 61 147 172 62 149 174 63 151 176 64 153 178 64 155 181 65 157 183 66 159 185 228 67 71 230 68 72 233 69 73 236 69 74 239 70 75 241 71 76 244 72 77 237 145 34 240 147 34 242 148 35 245 150 35 242 148 35 240 147 34 237 145 34 234 144 33 232 213 43 229 210 42 227 208 42 224 206 41 221 203 41 219 201 40 216 198 40 30 109 131 30 108 129 30 106 127 29 105 126 29 103 124 29 102 123 28 101 121 28 99 119 173 16 35 170 15 35 168 15 34 166 15 34 163 15 33 161 15 33 98 200 235 98 200 235 98 200 235 188 188 69 191 191 70 194 194 71 197 197 72 200 200 74 203 203 75 215 38 135 218 38 137 221 39 139 224 40 141 227 40 142 230 41 144 233 41 146 236 42 148 239 42 150 219 29 128 222 29 130 224 29 132 227 30 133 230 30 135 227 30 133 224 29 132 222 29 130 219 29 128 216 28 127 181 19 107 178 18 105 176 18 104 174 18 102 171 18 101 169 17 100 167 17 98 164 17 97 162 17 95 208 33 123 205 32 121 202 32 119 199 31 117 196 31 115 98 200 235 98 200 235 98 200 235 98 200 235 98 200 235 98 200 235 98 200 235 98 200 235 98 200 235 98 200 235 98 200 235 98 200 235 98 200 235 98 200 235 98 200 235 98 200 235 98 200 235
98 201 235 98 201 235 98 201 235 98 201 235 98 201 235 98 201 235 98 201 235 98 201 235 98 201 235 98 201 235 98 201 235 98 201 235 98 201 235 98 201 235 98 201 235 98 201 235 98 201 235 98 201 235 186 164 26 189 167 26 192 169 26 195 172 27 197 174 27 200 177 27 203 179 28 60 145 169 61 147 172 62 149 174 63 151 176 64 153 178 64 155 181 65 157 183 66 159 185 228 67 71 230 68 72 233 69 73 236 69 74 239 70 75 241 71 76 244 72 77 237 145 34 240 147 34 242 148 35 245 150 35 242 148 35 240 147 34 237 145 34 234 144 33 232 213 43 229 210 42 227 208 42 224 206 41 221 203 41 219 201 40 216 198 40 30 109 131 30 108 129 30 106 127 29 105 126 29 103 124 29 102 123 28 101 121 28 99 119 173 16 35 170 15 35 168 15 34 166 15 34 163 15 33 161 15 33 98 201 235 98 201 235 98 201 235 188 188 69 191 191 70 194 194 71 197 197 72 200 200 74 203 203 75 215 38 135 218 38 137 221 39 139 224 40 141 227 40 142 230 41 144 233 41 146 236 42 148 239 42 150 219 29 128 222 29 130 224 29 132 227 30 133 230 30 135 227 30 133 224 29 132 222 29 130 219 29 128 216 28 127 181 19 107 178 18 105 176 18 104 174 18 102 171 18 101 169 17 100 167 17 98 164 17 97 162 17 95 208 33 123 205 32 121 202 32 119 199 31 117 196 31 115 98 201 235 98 201 235 98 201 235 98 201 235 98 201 235 98 201 235 98 201 235 98 201 235 98 201 235 98 201 235 98 201 235 98 201 235 98 201 235 98 201 235 98 201 235 98 201 235 98 201 235
98 201 235 98 201 235 98 201 235 98 201 235 98 201 235 98 201 235 98 201 235 98 201 235 98 201 235 98 201 235 98 201 235 98 201 235 98 201 235 98 201 235 98 201 235 98 201 235 98 201 235 98 201 235 186 164 26 189 167 26 192 169 26 195 172 27 197 174 27 200 177 27 203 179 28 60 145 169 61 147 172 62 149 174 63 151 176 64 153 178 64 155 181 65 157 183 66 159 185 228 67 71 230 68 72 233 69 73 236 69 74 239 70 75 241 71 76 244 72 77 237 145 34 240 147 34 242 148 35 245 150 35 242 148 35 240 147 34 237 145 34 234 144 33 232 213 43 229 210 42 227 208 42 224 206 41 221 203 41 219 201 40 216 198 40 30 109 131 30 108 129 30 106 127 29 105 126 29 103 124 29 102 123 28 101 121 28 99 119 173 16 35 170 15 35 168 15 34 166 15 34 163 15 33 161 15 33 98 201 235 98 201 235 185 185 68 188 188 69 191 191 70 194 194 71 197 197 72 200 200 74 203 203 75 215 38 135 218 38 137 221 39 139 224 40 141 227 40 142 230 41 144 233 41 146 236 42 148 239 42 150 219 29 128 222 29 130 224 29 132 227 30 133 230 30 135 227 30 133 224 29 132 222 29 130 219 29 128 216 28 127 181 19 107 178 18 105 176 18 104 174 18 102 171 18 101 169 17 100 167 17 98 164 17 97 162 17 95 208 33 123 205 32 121 202 32 119 199 31 117 196 31 115 193 30 113 98 201 235 98 201 235 98 201 235 98 201 235 98 201 235 98 201 235 98 201 235 98 201 235 98 201 235 98 201 235 98 201 235 98 201 235 98 201 235 98 201 235 98 201 235 98 201 235
99 201 235 99 201 235 99 201 235 99 201 235 99 201 235 99 201 235 99 201 235 99 201 235 99 201 235 99 201 235 99 201 235 99 201 235 99 201 235 99 201 235 99 201 235 99 201 235 99 201 235 99 201 235 186 164 26 189 167 26 192 169 26 195 172 27 197 174 27 200 177 27 203 179 28 60 145 169 61 147 172 62 149 174 63 151 176 64 153 178 64 155 181 65 157 183 66 159 185 228 67 71 230 68 72 233 69 73 236 69 74 239 70 75 241 71 76 244 72 77 237 145 34 240 147 34 242 148 35 245 150 35 242 148 35 240 147 34 237 145 34 234 144 33 232 213 43 229 210 42 227 208 42 224 206 41 221 203 41 219 201 40 216 198 40 30 109 131 30 108 129 30 106 127 29 105 126 29 103 124 29 102 123 28 101 121 28 99 119 173 16 35 170 15 35 168 15 34 166 15 34 163 15 33 161 15 33 99 201 235 99 201 235 185 185 68 188 188 69 191 191 70 194 194 71 197 197 72 200 200 74 203 203 75 215 38 135 218 38 137 221 39 139 224 40 141 227 40 142 230 41 144 233 41 146 236 42 148 239 42 150 219 29 128 222 29 130 224 29 132 227 30 133 230 30 135 227 30 133 224 29 132 222 29 130 219 29 128 216 28 127 181 19 107 178 18 105 176 18 104 174 18 102 171 18 101 169 17 100 167 17 98 164 17 97 162 17 95 208 33 123 205 32 121 202 32 119 199 31 117 196 31 115 193 30 113 99 201 235 99 201 235 99 201 235 99 201 235 99 201 235 99 201 235 99 201 235 99 201 235 99 201 235 99 201 235 99 201 235 99 201 235 99 201 235 99 201 235 99 201 235 99 201 235
99 202 235 99 202 235 99 202 235 99 202 235 99 202 235 99 202 235 99 202 235 99 202 235 99 202 235 99 202 235 99 202 235 99 202 235 99 202 235 99 202 235 99 202 235 99 202 235 99 202 235 99 202 235 186 164 26 189 167 26 192 169 26 195 172 27 197 174 27 200 177 27 203 179 28 60 145 169 61 147 172 62 149 174 63 151 176 64 153 178 64 155 181 65 157 183 66 159 185 228 67 71 230 68 72 233 69 73 236 69 74 239 70 75 241 71 76 244 72 77 237 145 34 240 147 34 242 148 35 245 150 35 242 148 35 240 147 34 237 145 34 234 144 33 232 213 43 229 210 42 227 208 42 224 206 41 221 203 41 219 201 40 216 198 40 30 109 131 30 108 129 30 106 127 29 105 126 29 103 124 29 102 123 28 101 121 28 99 119 173 16 35 170 15 35 168 15 34 166 15 34 163 15 33 161 15 33 99 202 235 182 182 67 185 185 68 188 188 69 191 191 70 194 194 71 197 197 72 200 200 74 203 203 75 215 38 135 218 38 137 221 39 139 224 40 141 227 40 142 230 41 144 233 41 146 236 42 148 239 42 150 219 29 128 222 29 130 224 29 132 227 30 133 230 30 135 227 30 133 224 29 132 222 29 130 219 29 128 216 28 127 181 19 107 178 18 105 176 18 104 174 18 102 171 18 101 169 17 100 167 17 98 164 17 97 162 17 95 208 33 123 205 32 121 202 32 119 199 31 117 196 31 115 193 30 113 190 30 112 99 202 235 99 202 235 99 202 235 99 202 235 99 202 235 99 202 235 99 202 235 99 202 235 99 202 235 99 202 235 99 202 235 99 202 235 99 202 235 99 202 235 99 202 235
99 202 235 99 202 235 99 202 235 99 202 235 99 202 235 99 202 235 99 202 235 99 202 235 99 202 235 99 202 235 99 202 235 99 202 235 99 202 235 99 202 235 99 202 235 99 202 235 99 202 235 99 202 235 186 164 26 189 167 26 192 169 26 195 172 27 197 174 27 200 177 27 203 179 28 60 145 169 61 147 172 62 149 174 63 151 176 64 153 178 64 155 181 65 157 183 66 159 185 228 67 71 230 68 72 233 69 73 236 69 74 239 70 75 241 71 76 244 72 77 237 145 34 240 147 34 242 148 35 245 150 35 242 148 35 240 147 34 237 145 34 234 144 33 232 213 43 229 210 42 227 208 42 224 206 41 221 203 41 219 201 40 216 198 40 30 109 131 30 108 129 30 106 127 29 105 126 29 103 124 29 102 123 28 101 121 28 99 119 173 16 35 170 15 35 168 15 34 166 15 34 163 15 33 161 15 33 99 202 235 182 182 67 185 185 68 188 188 69 191 191 70 194 194 71 197 197 72 200 200 74 203 203 75 215 38 135 218 38 137 221 39 139 224 40 141 227 40 142 230 41 144 233 41 146 236 42 148 239 42 150 219 29 128 222 29 130 224 29 132 227 30 133 230 30 135 227 30 133 224 29 132 222 29 130 219 29 128 216 28 127 181 19 107 178 18 105 176 18 104 174 18 102 171 18 101 169 17 100 167 17 98 164 17 97 162 17 95 208 33 123 205 32 121 202 32 119 199 31 117 196 31 115 193 30 113 190 30 112 99 202 235 99 202 235 99 202 235 99 202 235 99 202 235 99 202 235 99 202 235 99 202 235 99 202 235 99 202 235 99 202 235 99 202 235 99 202 235 99 202 235 99 202 235
99 202 235 99 202 235 99 202 235 99 202 235 99 202 235 99 202 235 99 202 235 99 202 235 99 202 235 99 202 235 99 202 235 99 202 235 99 202 235 99 202 235 99 202 235 99 202 235 99 202 235 184 162 25 186 164 26 189 167 26 192 169 26 195 172 27 197 174 27 200 177 27 203 179 28 60 145 169 61 147 172 62 149 174 63 151 176 64 153 178 64 155 181 65 157 183 66 159 185 228 67 71 230 68 72 233 69 73 236 69 74 239 70 75 241 71 76 244 72 77 237 145 34 240 147 34 242 148 35 245 150 35 242 148 35 240 147 34 237 145 34 234 144 33 232 213 43 229 210 42 227 208 42 224 206 41 221 203 41 219 201 40 216 198 40 30 109 131 30 108 129 30 106 127 29 105 126 29 103 124 29 102 123 28 101 121 28 99 119 173 16 35 170 15 35 168 15 34 166 15 34 163 15 33 161 15 33 158 14 32 182 182 67 185 185 68 188 188 69 191 191 70 194 194 71 197 197 72 200 200 74 203 203 75 215 38 135 218 38 137 221 39 139 224 40 141 227 40 142 230 41 144 233 41 146 236 42 148 239 42 150 219 29 128 222 29 130 224 29 132 227 30 133 230 30 135 227 30 133 224 29 132 222 29 130 219 29 128 216 28 127 181 19 107 178 18 105 176 18 104 174 18 102 171 18 101 169 17 100 167 17 98 164 17 97 162 17 95 208 33 123 205 32 121 202 32 119 199 31 117 196 31 115 193 30 113 190 30 112 99 202 235 99 202 235 99 202 235 99 202 235 99 202 235 99 202 235 99 202 235 99 202 235 99 202 235 99 202 235 99 202 235 99 202 235 99 202 235 99 202 235 99 202 235
99 203 235 99 203 235 99 203 235 99 203 235 99 203 235 99 203 235 99 203 235 99 203 235 99 203 235 99 203 235 99 203 235 99 203 235 99 203 235 99 203 235 99 203 235 99 203 235 99 203 235 99 203 235 185 163 25 188 166 26 191 168 26 193 171 27 196 173 27 199 176 27 202 178 28 60 144 168 61 146 171 62 148 173 63 150 175 63 152 177 64 154 180 65 156 182 66 158 184 226 67 71 229 67 72 232 68 73 235 69 74 237 70 74 240 71 75 243 71 76 236 144 34 239 146 34 241 148 34 244 149 35 241 148 34 239 146 34 236 144 34 233 143 33 231 212 42 228 209 42 225 207 41 223 205 41 220 202 40 218 200 40 215 197 39 30 108 130 30 107 128 30 106 127 29 104 125 29 103 123 28 102 122 28 100 120 28 99 119 172 16 35 169 15 35 167 15 34 165 15 34 162 15 33 160 15 33 179 179 66 182 182 67 185 185 68 188 188 69 191 191 70 194 194 71 197 197 72 200 200 74 203 203 75 215 38 135 218 38 137 221 39 139 224 40 141 227 40 142 230 41 144 233 41 146 236 42 148 239 42 150 219 29 128 222 29 130 224 29 132 227 30 133 230 30 135 227 30 133 224 29 132 222 29 130 219 29 128 216 28 127 181 19 107 178 18 105 176 18 104 174 18 102 171 18 101 169 17 100 167 17 98 164 17 97 162 17 95 208 33 123 205 32 121 202 32 119 199 31 117 196 31 115 193 30 113 190 30 112 187 29 110 99 203 235 99 203 235 99 203 235 99 203 235 99 203 235 99 203 235 99 203 235 99 203 235 99 203 235 99 203 235 99 203 235 99 203 235 99 203 235 99 203 235
99 203 235 99 203 235 99 203 235 99 203 235 99 203 235 99 203 235 99 203 235 99 203 235 99 203 235 99 203 235 99 203 235 99 203 235 99 203 235 99 203 235 99 203 235 99 203 235 99 203 235 99 203 235 184 162 25 187 165 26 190 167 26 192 170 26 195 172 27 198 175 27 201 177 28 60 144 167 61 145 170 61 147 172 62 149 174 63 151 176 64 153 179 65 155 181 65 157 183 225 66 71 228 67 72 231 68 72 234 69 73 236 69 74 239 70 75 242 71 76 235 144 34 238 145 34 240 147 34 243 149 35 240 147 34 238 145 34 235 144 34 232 142 33 230 211 42 227 208 42 224 206 41 222 204 41 219 201 40 216 199 40 214 196 39 30 108 129 30 106 128 29 105 126 29 104 124 29 102 123 28 101 121 28 100 120 28 98 118 171 16 35 168 15 34 166 15 34 164 15 33 161 15 33 159 14 32 179 179 66 182 182 67 185 185 68 188 188 69 191 191 70 194 194 71 197 197 72 200 200 74 203 203 75 215 38 135 218 38 137 221 39 139 224 40 141 227 40 142 230 41 144 233 41 146 236 42 148 239 42 150 219 29 128 222 29 130 224 29 132 227 30 133 230 30 135 227 30 133 224 29 132 222 29 130 219 29 128 216 28 127 181 19 107 178 18 105 176 18 104 174 18 102 171 18 101 169 17 100 167 17 98 164 17 97 162 17 95 208 33 123 205 32 121 202 32 119 199 31 117 196 31 115 193 30 113 190 30 112 187 29 110 99 203 235 99 203 235 99 203 235 99 203 235 99 203 235 99 203 235 99 203 235 99 203 235 99 203 235 99 203 235 99 203 235 99 203 235 99 203 235 99 203 235
99 204 235 99 204 235 99 204 235 99 204 235 99 204 235 99 204 235 99 204 235 99 204 235 99 204 235 99 204 235 99 204 235 99 204 235 99 204 235 99 204 235 99 204 235 99 204 235 99 204 235 99 204 235 183 161 25 186 164 25 188 166 26 191 169 26 194 171 27 197 174 27 199 176 27 59 143 166 60 145 169 61 147 171 62 149 173 63 150 176 64 152 178 64 154 180 65 156 182 224 66 70 227 67 71 230 68 72 232 68 73 235 69 74 238 70 75 241 71 75 234 143 33 236 145 34 239 146 34 242 148 35 239 146 34 236 145 34 234 143 33 231 142 33 229 210 42 226 207 41 223 205 41 221 203 41 218 200 40 215 198 40 213 195 39 30 107 129 30 106 127 29 104 125 29 103 124 29 102 122 28 100 121 28 99 119 27 98 117 170 15 35 167 15 34 165 15 34 163 15 33 160 15 33 158 14 32 179 179 66 182 182 67 185 185 68 188 188 69 191 191 70 194 194 71 197 197 72 200 200 74 203 203 75 215 38 135 218 38 137 221 39 139 224 40 141 227 40 142 230 41 144 233 41 146 236 42 148 239 42 150 219 29 128 222 29 130 224 29 132 227 30 133 230 30 135 227 30 133 224 29 132 222 29 130 219 29 128 216 28 127 181 19 107 178 18 105 176 18 104 174 18 102 171 18 101 169 17 100 167 17 98 164 17 97 162 17 95 208 33 123 205 32 121 202 32 119 199 31 117 196 31 115 193 30 113 190 30 112 187 29 110 99 204 235 99 204 235 99 204 235 99 204 235 99 204 235 99 204 235 99 204 235 99 204 235 99 204 235 99 204 235 99 204 235 99 204 235 99 204 235 99 204 235
99 204 235 99 204 235 99 204 235 99 204 235 99 204 235 99 204 235 99 204 235 99 204 235 99 204 235 99 204 235 99 204 235 99 204 235 99 204 235 99 204 235 99 204 235 99 204 235 99 204 235 99 204 235 182 160 25 185 163 25 187 165 26 190 168 26 193 170 26 196 173 27 198 175 27 59 142 166 60 144 168 61 146 170 62 148 172 62 150 175 63 152 177 64 154 179 65 155 181 223 66 70 226 66 71 228 67 72 231 68 73 234 69 73 237 70 74 239 70 75 233 142 33 235 144 34 238 146 34 241 147 34 238 146 34 235 144 34 233 142 33 230 141 33 227 209 42 225 206 41 222 204 41 220 202 40 217 199 40 214 197 39 212 194 39 30 107 128 29 105 126 29 104 125 29 103 123 28 101 121 28 100 120 28 99 118 27 97 117 169 15 35 166 15 34 164 15 34 162 15 33 159 14 33 157 14 32 179 179 66 182 182 67 185 185 68 188 188 69 191 191 70 194 194 71 197 197 72 200 200 74 203 203 75 215 38 135 218 38 137 221 39 139 224 40 141 227 40 142 230 41 144 233 41 146 236 42 148 239 42 150 219 29 128 222 29 130 224 29 132 227 30 133 230 30 135 227 30 133 224 29 132 222 29 130 219 29 128 216 28 127 181 19 107 178 18 105 176 18 104 174 18 102 171 18 101 169 17 100 167 17 98 164 17 97 162 17 95 208 33 123 205 32 121 202 32 119 199 31 117 196 31 115 193 30 113 190 30 112 187 29 110 99 204 235 99 204 235 99 204 235 99 204 235 99 204 235 99 204 235 99 204 235 99 204 235 99 204 235 99 204 235 99 204 235 99 204 235 99 204 235 99 204 235
100 204 235 100 204 235 100 204 235 100 204 235 100 204 235 100 204 235 100 204 235 100 204 235 100 204 235 100 204 235 100 204 235 100 204 235 100 204 235 100 204 235 100 204 235 100 204 235 100 204 235 100 204 235 181 159 25 183 162 25 186 164 26 189 167 26 192 169 26 194 172 27 197 174 27 59 141 165 60 143 167 60 145 169 61 147 171 62 149 174 63 151 176 64 153 178 64 155 180 222 65 70 225 66 70 227 67 71 230 68 72 233 68 73 236 69 74 238 70 75 232 142 33 234 143 33 237 145 34 240 147 34 237 145 34 234 143 33 232 142 33 229 140 33 226 208 42 224 205 41 221 203 41 218 201 40 216 198 40 213 196 39 211 193 39 30 106 127 29 105 126 29 103 124 29 102 122 28 101 121 28 99 119 27 98 118 27 97 116 168 15 34 165 15 34 163 15 33 161 15 33 158 14 32 156 14 32 179 179 66 182 182 67 185 185 68 188 188 69 191 191 70 194 194 71 197 197 72 200 200 74 203 203 75 215 38 135 218 38 137 221 39 139 224 40 141 227 40 142 230 41 144 233 41 146 236 42 148 239 42 150 219 29 128 222 29 130 224 29 132 227 30 133 230 30 135 227 30 133 224 29 132 222 29 130 219 29 128 216 28 127 181 19 107 178 18 105 176 18 104 174 18 102 171 18 101 169 17 100 167 17 98 164 17 97 162 17 95 208 33 123 205 32 121 202 32 119 199 31 117 196 31 115 193 30 113 190 30 112 187 29 110 100 204 235 100 204 235 100 204 235 100 204 235 100 204 235 100 204 235 100 204 235 100 204 235 100 204 235 100 204 235 100 204 235 100 204 235 100 204 235 100 204 235
100 205 235 100 205 235 100 205 235 100 205 235 100 205 235 100 205 235 100 205 235 100 205 235 100 205 235 100 205 235 100 205 235 100 205 235 100 205 235 100 205 235 100 205 235 100 205 235 100 205 235 100 205 235 180 158 25 182 161 25 185 163 25 188 166 26 191 168 26 193 171 27 196 173 27 58 140 164 59 142 166 60 144 168 61 146 170 62 148 173 62 150 175 63 152 177 64 154 180 221 65 69 223 66 70 226 67 71 229 67 72 232 68 73 234 69 74 237 70 74 231 141 33 233 143 33 236 144 34 238 146 34 236 144 34 233 143 33 231 141 33 228 140 33 225 207 41 223 204 41 220 202 40 217 200 40 215 197 39 212 195 39 209 192 38 30 106 127 29 104 125 29 103 123 28 101 122 28 100 120 28 99 119 27 97 117 27 96 115 167 15 34 164 15 34 162 15 33 160 15 33 157 14 32 155 14 32 179 179 66 182 182 67 185 185 68 188 188 69 191 191 70 194 194 71 197 197 72 200 200 74 203 203 75 215 38 135 218 38 137 221 39 139 224 40 141 227 40 142 230 41 144 233 41 146 236 42 148 239 42 150 219 29 128 222 29 130 224 29 132 227 30 133 230 30 135 227 30 133 224 29 132 222 29 130 219 29 128 216 28 127 181 19 107 178 18 105 176 18 104 174 18 102 171 18 101 169 17 100 167 17 98 164 17 97 162 17 95 208 33 123 205 32 121 202 32 119 199 31 117 196 31 115 193 30 113 190 30 112 187 29 110 100 205 235 100 205 235 100 205 235 100 205 235 100 205 235 100 205 235 100 205 235 100 205 235 100 205 235 100 205 235 100 205 235 100 205 235 100 205 235 100 205 235
100 205 235 100 205 235 100 205 235 100 205 235 100 205 235 100 205 235 100 205 235 100 205 235 100 205 235 100 205 235 100 205 235 100 205 235 100 205 235 100 205 235 100 205 235 100 205 235 100 205 235 100 205 235 178 157 24 181 160 25 184 162 25 187 165 26 189 167 26 192 170 26 195 172 27 58 140 163 59 141 165 60 143 167 61 145 170 61 147 172 62 149 174 63 151 176 64 153 179 220 65 69 222 65 70 225 66 71 228 67 71 231 68 72 233 69 73 236 69 74 229 140 33 232 142 33 235 144 34 237 145 34 235 144 34 232 142 33 229 140 33 227 139 32 224 206 41 222 203 41 219 201 40 216 199 40 214 196 39 211 194 39 208 191 38 29 105 126 29 104 124 29 102 123 28 101 121 28 100 119 28 98 118 27 97 116 27 96 115 166 15 34 163 15 33 161 15 33 159 14 32 156 14 32 154 14 31 179 179 66 182 182 67 185 185 68 188 188 69 191 191 70 194 194 71 197 197 72 200 200 74 203 203 75 215 38 135 218 38 137 221 39 139 224 40 141 227 40 142 230 41 144 233 41 146 236 42 148 239 42 150 219 29 128 222 29 130 224 29 132 227 30 133 230 30 135 227 30 133 224 29 132 222 29 130 219 29 128 216 28 127 181 19 107 178 18 105 176 18 104 174 18 102 171 18 101 169 17 100 167 17 98 164 17 97 162 17 95 208 33 123 205 32 121 202 32 119 199 31 117 196 31 115 193 30 113 190 30 112 187 29 110 100 205 235 100 205 235 100 205 235 100 205 235 100 205 235 100 205 235 100 205 235 100 205 235 100 205 235 100 205 235 100 205 235 100 205 235 100 205 235 100 205 235
100 205 235 100 205 235 100 205 235 100 205 235 100 205 235 100 205 235 100 205 235 100 205 235 100 205 235 100 205 235 100 205 235 100 205 235 100 205 235 100 205 235 100 205 235 100 205 235 100 205 235 100 205 235 100 205 235 180 159 25 183 161 25 186 164 25 188 166 26 191 169 26 194 171 27 58 139 162 59 141 164 59 143 166 60 145 169 61 146 171 62 148 173 63 150 175 63 152 178 218 64 69 221 65 69 224 66 70 227 67 71 229 67 72 232 68 73 235 69 74 228 140 33 231 141 33 234 143 33 236 145 34 234 143 33 231 141 33 228 140 33 226 138 32 223 205 41 220 202 40 218 200 40 215 198 40 213 195 39 210 193 39 207 190 38 29 104 125 29 103 124 28 102 122 28 100 120 28 99 119 27 98 117 27 96 116 27 95 114 165 15 34 162 15 33 160 15 33 158 14 32 155 14 32 176 176 65 179 179 66 182 182 67 185 185 68 188 188 69 191 191 70 194 194 71 197 197 72 200 200 74 203 203 75 215 38 135 218 38 137 221 39 139 224 40 141 227 40 142 230 41 144 233 41 146 236 42 148 239 42 150 219 29 128 222 29 130 224 29 132 227 30 133 230 30 135 227 30 133 224 29 132 222 29 130 219 29 128 216 28 127 181 19 107 178 18 105 176 18 104 174 18 102 171 18 101 169 17 100 167 17 98 164 17 97 162 17 95 208 33 123 205 32 121 202 32 119 199 31 117 196 31 115 193 30 113 190 30 112 187 29 110 184 29 108 100 205 235 100 205 235 100 205 235 100 205 235 100 205 235 100 205 235 100 205 235 100 205 235 100 205 235 100 205 235 100 205 235 100 205 235 100 205 235
100 206 235 100 206 235 100 206 235 100 206 235 100 206 235 100 206 235 100 206 235 100 206 235 100 206 235 100 206 235 100 206 235 100 206 235 100 206 235 100 206 235 100 206 235 100 206 235 100 206 235 100 206 235 100 206 235 179 158 25 182 160 25 184 163 25 187 165 26 190 168 26 193 170 26 57 138 161 58 140 163 59 142 165 60 144 168 61 146 170 61 148 172 62 150 174 63 151 177 217 64 68 220 65 69 223 66 70 226 66 71 228 67 72 231 68 72 234 69 73 227 139 32 230 141 33 233 142 33 235 144 34 233 142 33 230 141 33 227 139 32 225 138 32 222 204 41 219 201 40 217 199 40 214 197 39 211 194 39 209 192 38 206 189 38 29 104 125 29 102 123 28 101 121 28 100 120 28 98 118 27 97 117 27 96 115 26 94 113 164 15 34 161 15 33 159 14 33 157 14 32 154 14 32 100 206 235 178 178 65 181 181 67 184 184 68 187 187 69 190 190 70 193 193 71 196 196 72 199 199 73 202 202 74 213 38 134 217 38 136 220 39 138 223 39 140 226 40 142 229 40 144 232 41 146 235 42 148 238 42 150 218 28 128 221 29 129 223 29 131 226 29 133 229 30 134 226 29 133 223 29 131 221 29 129 218 28 128 215 28 126 180 18 106 177 18 105 175 18 103 173 18 102 170 17 100 168 17 99 166 17 98 163 17 96 161 16 95 207 33 122 204 32 120 201 32 118 198 31 116 195 31 115 192 30 113 189 30 111 186 29 109 100 206 235 100 206 235 100 206 235 100 206 235 100 206 235 100 206 235 100 206 235 100 206 235 100 206 235 100 206 235 100 206 235 100 206 235 100 206 235 100 206 235
100 206 235 100 206 235 100 206 235 100 206 235 100 206 235 100 206 235 100 206 235 100 206 235 100 206 235 100 206 235 100 206 235 100 206 235 100 206 235 100 206 235 100 206 235 100 206 235 100 206 235 100 206 235 100 206 235 178 157 24 181 159 25 183 162 25 186 164 26 189 167 26 191 169 26 57 137 160 58 139 162 59 141 164 60 143 167 60 145 169 61 147 171 62 149 174 63 151 176 216 64 68 219 64 69 222 65 70 224 66 70 227 67 71 230 68 72 233 68 73 226 138 32 229 140 33 231 142 33 234 143 33 231 142 33 229 140 33 226 138 32 224 137 32 221 203 41 218 200 40 216 198 40 213 196 39 210 193 39 208 191 38 205 188 38 29 103 124 29 102 122 28 101 121 28 99 119 27 98 117 27 97 116 27 95 114 26 94 113 163 15 33 160 15 33 158 14 32 156 14 32 153 14 31 100 206 235 177 177 65 180 180 66 183 183 67 186 186 68 189 189 69 192 192 71 195 195 72 198 198 73 201 201 74 212 37 133 215 38 135 218 39 137 222 39 139 225 40 141 228 40 143 231 41 145 234 41 147 237 42 149 217 28 127 219 29 129 222 29 130 225 29 132 228 30 134 225 29 132 222 29 130 219 29 129 217 28 127 214 28 126 179 18 106 177 18 104 174 18 103 172 18 101 169 17 100 167 17 99 165 17 97 162 17 96 160 16 94 206 32 121 203 32 119 200 31 118 197 31 116 194 30 114 191 30 112 187 29 110 184 29 108 100 206 235 100 206 235 100 206 235 100 206 235 100 206 235 100 206 235 100 206 235 100 206 235 100 206 235 100 206 235 100 206 235 100 206 235 100 206 235 100 206 235
100 206 235 100 206 235 100 206 235 100 206 235 100 206 235 100 206 235 100 206 235 100 206 235 100 206 235 100 206 235 100 206 235 100 206 235 100 206 235 100 206 235 100 206 235 100 206 235 100 206 235 100 206 235 100 206 235 100 206 235 179 158 25 182 161 25 185 163 25 188 166 26 190 168 26 57 136 159 58 138 161 58 140 164 59 142 166 60 144 168 61 146 170 62 148 173 62 150 175 215 63 67 218 64 68 221 65 69 223 66 70 226 66 71 229 67 72 232 68 73 225 138 32 228 139 33 230 141 33 233 143 33 230 141 33 228 139 33 225 138 32 222 136 32 220 202 40 217 199 40 215 197 39 212 195 39 209 192 38 207 190 38 204 187 37 29 103 123 28 101 122 28 100 120 28 99 118 27 97 117 27 96 115 27 95 114 26 93 112 162 15 33 159 14 33 157 14 32 155 14 32 100 206 235 100 206 235 176 176 65 179 179 66 182 182 67 185 185 68 188 188 69 191 191 70 194 194 71 197 197 72 200 200 73 211 37 132 214 38 134 217 38 136 220 39 138 224 39 140 227 40 142 230 41 144 233 41 146 236 42 148 216 28 127 218 28 128 221 29 130 224 29 131 227 30 133 224 29 131 221 29 130 218 28 128 216 28 127 213 28 125 178 18 105 176 18 104 173 18 102 171 18 101 169 17 99 166 17 98 164 17 97 161 17 95 159 16 94 205 32 121 202 32 119 199 31 117 196 31 115 192 30 113 189 30 111 186 29 110 183 29 108 100 206 235 100 206 235 100 206 235 100 206 235 100 206 235 100 206 235 100 206 235 100 206 235 100 206 235 100 206 235 100 206 235 100 206 235 100 206 235 100 206 235
100 207 235 100 207 235 100 207 235 100 207 235 100 207 235 100 207 235 100 207 235 100 207 235 100 207 235 100 207 235 100 207 235 100 207 235 100 207 235 100 207 235 100 207 235 100 207 235 100 207 235 100 207 235 100 207 235 100 207 235 178 157 24 181 160 25 184 162 25 186 165 26 189 167 26 56 136 158 57 137 160 58 139 163 59 141 165 60 143 167 60 145 169 61 147 172 62 149 174 214 63 67 217 64 68 219 65 69 222 65 70 225 66 71 228 67 71 230 68 72 224 137 32 227 139 32 229 140 33 232 142 33 229 140 33 227 139 32 224 137 32 221 136 32 219 201 40 216 198 40 213 196 39 211 194 39 208 191 38 206 189 38 203 186 37 29 102 123 28 101 121 28 99 119 27 98 118 27 97 116 27 95 115 26 94 113 26 93 111 161 15 33 159 14 32 156 14 32 154 14 31 100 207 235 100 207 235 175 175 64 178 178 65 181 181 66 184 184 68 187 187 69 190 190 70 193 193 71 196 196 72 199 199 73 210 37 132 213 38 134 216 38 136 219 39 138 222 39 140 225 40 141 229 40 143 232 41 145 235 41 147 215 28 126 217 28 128 220 29 129 223 29 131 226 29 133 223 29 131 220 29 129 217 28 128 215 28 126 212 28 124 177 18 104 175 18 103 172 18 102 170 17 100 168 17 99 165 17 97 163 17 96 161 16 95 158 16 93 204 32 120 201 31 118 198 31 116 194 30 114 191 30 113 188 30 111 185 29 109 182 29 107 100 207 235 100 207 235 100 207 235 100 207 235 100 207 235 100 207 235 100 207 235 100 207 235 100 207 235 100 207 235 100 207 235 100 207 235 100 207 235 100 207 235
101 207 235 101 207 235 101 207 235 101 207 235 101 207 235 101 207 235 101 207 235 101 207 235 101 207 235 101 207 235 101 207 235 101 207 235 101 207 235 101 207 235 101 207 235 101 207 235 101 207 235 101 207 235 101 207 235 101 207 235 101 207 235 180 159 25 183 161 25 185 164 25 188 166 26 56 135 157 57 137 159 58 139 162 59 141 164 59 142 166 60 144 168 61 146 171 62 148 173 213 63 67 216 63 68 218 64 68 221 65 69 224 66 70 227 67 71 229 67 72 223 136 32 226 138 32 228 140 33 231 141 33 228 140 33 226 138 32 223 136 32 220 135 31 218 200 40 215 197 39 212 195 39 210 193 39 207 190 38 204 188 38 202 185 37 28 102 122 28 100 120 28 99 119 27 98 117 27 96 115 27 95 114 26 94 112 26 92 111 160 15 33 158 14 32 155 14 32 101 207 235 101 207 235 101 207 235 174 174 64 177 177 65 180 180 66 183 183 67 186 186 68 189 189 69 192 192 70 195 195 71 198 198 73 209 37 131 212 37 133 215 38 135 218 38 137 221 39 139 224 40 141 227 40 143 230 41 145 234 41 147 213 28 125 216 28 127 219 29 129 222 29 130 225 29 132 222 29 130 219 29 129 216 28 127 213 28 125 211 27 124 176 18 104 174 18 103 172 18 101 169 17 100 167 17 98 164 17 97 162 17 96 160 16 94 157 16 93 203 32 119 199 31 117 196 31 115 193 30 114 190 30 112 187 29 110 184 29 108 181 28 106 101 207 235 101 207 235 101 207 235 101 207 235 101 207 235 101 207 235 101 207 235 101 207 235 101 207 235 101 207 235 101 207 235 101 207 235 101 207 235 101 207 235
101 208 235 101 208 235 101 208 235 101 208 235 101 208 235 101 208 235 101 208 235 101 208 235 101 208 235 101 208 235 101 208 235 101 208 235 101 208 235 101 208 235 101 208 235 101 208 235 101 208 235 101 208 235 101 208 235 101 208 235 101 208 235 179 158 25 181 160 25 184 163 25 187 165 26 56 134 156 57 136 158 57 138 161 58 140 163 59 142 165 60 144 168 61 146 170 61 147 172 212 62 66 214 63 67 217 64 68 220 65 69 223 65 70 225 66 71 228 67 72 222 136 32 224 137 32 227 139 32 230 141 33 227 139 32 224 137 32 222 136 32 219 134 31 217 199 40 214 196 39 211 194 39 209 192 38 206 189 38 203 187 37 201 184 37 28 101 121 28 100 120 28 98 118 27 97 116 27 96 115 26 94 113 26 93 112 26 92 110 159 14 33 157 14 32 154 14 32 101 208 235 101 208 235 101 208 235 173 173 63 176 176 64 179 179 66 182 182 67 185 185 68 188 188 69 190 190 70 193 193 71 196 196 72 208 37 130 211 37 132 214 38 134 217 38 136 220 39 138 223 39 140 226 40 142 229 40 144 232 41 146 212 28 125 215 28 126 218 28 128 221 29 130 224 29 131 221 29 130 218 28 128 215 28 126 212 28 125 210 27 123 175 18 103 173 18 102 171 17 101 168 17 99 166 17 98 163 17 96 161 17 95 159 16 94 156 16 92 201 32 118 198 31 117 195 31 115 192 30 113 189 30 111 186 29 109 183 29 107 180 28 106 101 208 235 101 208 235 101 208 235 101 208 235 101 208 235 101 208 235 101 208 235 101 208 235 101 208 235 101 208 235 101 208 235 101 208 235 101 208 235 101 208 235
101 208 235 101 208 235 101 208 235 101 208 235 101 208 235 101 208 235 101 208 235 101 208 235 101 208 235 101 208 235 101 208 235 101 208 235 101 208 235 101 208 235 101 208 235 101 208 235 101 208 235 101 208 235 101 208 235 101 208 235 101 208 235 101 208 235 180 159 25 183 162 25 186 164 26 55 133 155 56 135 158 57 137 160 58 139 162 59 141 164 60 143 167 60 145 169 61 147 171 211 62 66 213 63 67 216 64 68 219 64 69 222 65 69 224 66 70 227 67 71 221 135 32 223 137 32 226 138 32 229 140 33 226 138 32 223 137 32 221 135 32 218 134 31 215 198 40 213 195 39 210 193 39 208 191 38 205 188 38 202 186 37 200 183 37 28 101 121 28 99 119 27 98 117 27 96 116 27 95 114 26 94 113 26 92 111 26 91 109 158 14 32 156 14 32 101 208 235 101 208 235 101 208 235 101 208 235 171 171 63 174 174 64 177 177 65 180 180 66 183 183 67 186 186 68 189 189 70 192 192 71 195 195 72 206 36 130 210 37 131 213 38 133 216 38 135 219 39 137 222 39 139 225 40 141 228 40 143 231 41 145 211 28 124 214 28 126 217 28 127 220 29 129 223 29 131 220 29 129 217 28 127 214 28 126 211 28 124 209 27 122 174 18 103 172 18 101 170 17 100 167 17 99 165 17 97 163 17 96 160 16 94 158 16 93 155 16 92 200 31 118 197 31 116 194 30 114 191 30 112 188 29 110 185 29 109 182 28 107 178 28 105 101 208 235 101 208 235 101 208 235 101 208 235 101 208 235 101 208 235 101 208 235 101 208 235 101 208 235 101 208 235 101 208 235 101 208 235 101 208 235 101 208 235
101 208 235 101 208 235 101 208 235 101 208 235 101 208 235 101 208 235 101 208 235 101 208 235 101 208 235 101 208 235 101 208 235 101 208 235 101 208 235 101 208 235 101 208 235 101 208 235 101 208 235 101 208 235 101 208 235 101 208 235 101 208 235 101 208 235 101 208 235 182 161 25 185 163 25 55 132 154 56 134 157 57 136 159 58 138 161 58 140 163 59 142 166 60 144 168 35 35 38 35 35 38 35 35 38 35 35 38 35 35 38 35 35 38 35 35 38 35 35 38 35 35 38 35 35 38 35 35 38 35 35 38 35 35 38 35 35 38 35 35 38 35 35 38 35 35 38 35 35 38 35 35 38 35 35 38 35 35 38 35 35 38 35 35 38 28 100 120 28 99 118 27 97 117 27 96 115 26 95 113 26 93 112 26 92 110 25 91 109 157 14 32 101 208 235 101 208 235 101 208 235 101 208 235 101 208 235 101 208 235 173 173 64 176 176 65 179 179 66 182 182 67 185 185 68 188 188 69 191 191 70 194 194 71 205 36 129 208 37 131 211 37 133 215 38 135 218 38 137 221 39 139 224 40 140 227 40 142 230 41 144 210 27 123 213 28 125 216 28 127 219 29 128 222 29 130 219 29 128 216 28 127 213 28 125 210 27 123 208 27 122 174 18 102 171 18 101 169 17 100 166 17 98 164 17 97 162 17 95 159 16 94 157 16 93 155 16 91 199 31 117 196 31 115 193 30 113 190 30 112 187 29 110 183 29 108 180 28 106 101 208 235 101 208 235 101 208 235 101 208 235 101 208 235 101 208 235 101 208 235 101 208 235 101 208 235 101 208 235 101 208 235 101 208 235 101 208 235 101 208 235 101 208 235
101 209 235 101 209 235 101 209 235 101 209 235 101 209 235 101 209 235 101 209 235 101 209 235 101 209 235 101 209 235 101 209 235 101 209 235 101 209 235 101 209 235 101 209 235 101 209 235 101 209 235 101 209 235 101 209 235 101 209 235 101 209 235 101 209 235 101 209 235 181 160 25 184 162 25 55 132 153 56 133 156 56 135 158 57 137 160 58 139 162 59 141 165 60 143 167 35 35 38 35 35 38 35 35 38 35 35 38 35 35 38 35 35 38 35 35 38 35 35 38 35 35 38 35 35 38 35 35 38 35 35 38 35 35 38 35 35 38 35 35 38 35 35 38 35 35 38 35 35 38 35 35 38 35 35 38 35 35 38 35 35 38 35 35 38 28 99 119 27 98 118 27 97 116 27 95 114 26 94 113 26 93 111 26 91 110 25 90 108 156 14 32 101 209 235 101 209 235 101 209 235 101 209 235 101 209 235 101 209 235 172 172 63 175 175 64 178 178 65 181 181 67 184 184 68 187 187 69 190 190 70 193 193 71 204 36 128 207 37 130 210 37 132 213 38 134 216 38 136 220 39 138 223 39 140 226 40 142 229 40 144 209 27 123 212 28 124 215 28 126 218 28 128 220 29 129 218 28 128 215 28 126 212 28 124 209 27 123 206 27 121 173 18 102 170 17 100 168 17 99 166 17 98 163 17 96 161 16 95 158 16 93 156 16 92 154 16 91 198 31 116 195 31 115 192 30 113 189 30 111 185 29 109 182 29 107 179 28 105 101 209 235 101 209 235 101 209 235 101 209 235 101 209 235 101 209 235 101 209 235 101 209 235 101 209 235 101 209 235 101 209 235 101 209 235 101 209 235 101 209 235 101 209 235
101 209 235 101 209 235 101 209 235 101 209 235 101 209 235 101 209 235 101 209 235 101 209 235 101 209 235 101 209 235 101 209 235 101 209 235 101 209 235 101 209 235 101 209 235 101 209 235 101 209 235 101 209 235 101 209 235 101 209 235 101 209 235 101 209 235 101 209 235 101 209 235 182 161 25 54 131 152 55 133 155 56 135 157 57 137 159 58 138 162 58 140 164 59 142 166 35 35 38 35 35 38 35 35 38 35 35 38 35 35 38 35 35 38 35 35 38 35 35 38 35 35 38 35 35 38 35 35 38 35 35 38 35 35 38 35 35 38 35 35 38 35 35 38 35 35 38 35 35 38 35 35 38 35 35 38 35 35 38 35 35 38 35 35 38 28 99 119 27 98 117 27 96 115 27 95 114 26 93 112 26 92 111 25 91 109 25 89 107 101 209 235 101 209 235 101 209 235 101 209 235 101 209 235 101 209 235 101 209 235 171 171 63 174 174 64 177 177 65 180 180 66 183 183 67 186 186 68 189 189 69 192 192 71 203 36 127 206 36 129 209 37 131 212 37 133 215 38 135 218 39 137 222 39 139 225 40 141 228 40 143 208 27 122 211 28 124 214 28 125 217 28 127 219 29 129 217 28 127 214 28 125 211 28 124 208 27 122 205 27 121 172 18 101 169 17 100 167 17 98 165 17 97 162 17 96 160 16 94 158 16 93 155 16 91 153 16 90 197 31 116 194 30 114 190 30 112 187 29 110 184 29 108 181 28 107 178 28 105 101 209 235 101 209 235 101 209 235 101 209 235 101 209 235 101 209 235 101 209 235 101 209 235 101 209 235 101 209 235 101 209 235 101 209 235 101 209 235 101 209 235 101 209 235
101 209 235 101 209 235 101 209 235 101 209 235 101 209 235 101 209 235 101 209 235 101 209 235 101 209 235 101 209 235 101 209 235 101 209 235 101 209 235 101 209 235 101 209 235 101 209 235 101 209 235 101 209 235 101 209 235 101 209 235 101 209 235 101 209 235 101 209 235 101 209 235 101 209 235 54 130 152 55 132 154 56 134 156 57 136 158 57 138 161 58 140 163 59 142 165 35 35 38 35 35 38 35 35 38 35 35 38 35 35 38 35 35 38 35 35 38 35 35 38 35 35 38 35 35 38 35 35 38 35 35 38 35 35 38 35 35 38 35 35 38 35 35 38 35 35 38 35 35 38 35 35 38 35 35 38 35 35 38 35 35 38 35 35 38 28 98 118 27 97 116 27 96 115 26 94 113 26 93 111 26 92 110 25 90 108 101 209 235 101 209 235 101 209 235 101 209 235 101 209 235 101 209 235 101 209 235 101 209 235 101 209 235 173 173 64 176 176 65 179 179 66 182 182 67 185 185 68 188 188 69 191 191 70 202 36 127 205 36 129 208 37 130 211 37 132 214 38 134 217 38 136 220 39 138 223 39 140 227 40 142 207 27 122 210 27 123 213 28 125 216 28 127 218 28 128 216 28 127 213 28 125 210 27 123 207 27 122 204 27 120 171 18 101 168 17 99 166 17 98 164 17 97 161 17 95 159 16 94 157 16 92 154 16 91 152 16 90 195 31 115 192 30 113 189 30 111 186 29 110 183 29 108 180 28 106 101 209 235 101 209 235 101 209 235 101 209 235 101 209 235 101 209 235 101 209 235 101 209 235 101 209 235 101 209 235 101 209 235 101 209 235 101 209 235 101 209 235 101 209 235 101 209 235
101 210 235 101 210 235 101 210 235 101 210 235 101 210 235 101 210 235 101 210 235 101 210 235 101 210 235 101 210 235 101 210 235 101 210 235 101 210 235 101 210 235 101 210 235 101 210 235 101 210 235 101 210 235 101 210 235 101 210 235 101 210 235 101 210 235 101 210 235 101 210 235 101 210 235 101 210 235 55 131 153 55 133 155 56 135 157 57 137 160 58 139 162 59 141 164 35 35 38 35 35 38 35 35 38 90 90 90 35 35 38 35 35 38 35 35 38 35 35 38 35 35 38 35 35 38 35 35 38 35 35 38 35 35 38 35 35 38 35 35 38 35 35 38 35 35 38 35 35 38 35 35 38 90 90 90 35 35 38 35 35 38 35 35 38 27 98 117 27 96 116 27 95 114 26 94 112 26 92 111 25 91 109 101 210 235 101 210 235 101 210 235 101 210 235 101 210 235 101 210 235 101 210 235 101 210 235 101 210 235 101 210 235 172 172 63 175 175 64 178 178 65 181 181 66 184 184 67 187 187 69 190 190 70 201 35 126 204 36 128 207 36 130 210 37 132 213 38 134 216 38 136 219 39 138 222 39 139 225 40 141 206 27 121 209 27 123 212 28 124 214 28 126 217 28 128 214 28 126 212 28 124 209 27 123 206 27 121 203 27 119 170 17 100 168 17 99 165 17 97 163 17 96 160 16 95 158 16 93 156 16 92 153 16 90 151 15 89 194 30 114 191 30 112 188 30 111 185 29 109 182 29 107 179 28 105 101 210 235 101 210 235 101 210 235 101 210 235 101 210 235 101 210 235 101 210 235 101 210 235 101 210 235 101 210 235 101 210 235 101 210 235 101 210 235 101 210 235 101 210 235 101 210 235
102 210 235 102 210 235 102 210 235 102 210 235 102 210 235 102 210 235 102 210 235 102 210 235 102 210 235 102 210 235 102 210 235 102 210 235 102 210 235 102 210 235 102 210 235 102 210 235 102 210 235 102 210 235 102 210 235 102 210 235 102 210 235 102 210 235 102 210 235 102 210 235 102 210 235 102 210 235 102 210 235 55 132 154 56 134 156 57 136 159 57 138 161 58 140 163 59 142 166 204 60 64 206 61 65 90 90 90 212 62 67 215 63 67 217 64 68 220 65 69 214 131 31 217 133 31 219 134 31 222 136 32 219 134 31 217 133 31 214 131 31 212 130 30 209 192 38 206 189 38 204 187 37 90 90 90 198 182 36 196 180 36 193 177 35 27 97 117 27 96 115 26 94 113 26 93 112 26 92 110 102 210 235 102 210 235 102 210 235 102 210 235 102 210 235 102 210 235 102 210 235 102 210 235 102 210 235 102 210 235 102 210 235 102 210 235 174 174 64 177 177 65 180 180 66 183 183 67 186 186 68 189 189 69 199 35 125 202 36 127 206 36 129 209 37 131 212 37 133 215 38 135 218 38 137 221 39 139 224 40 141 205 27 120 208 27 122 211 27 124 213 28 125 216 28 127 213 28 125 211 27 124 208 27 122 205 27 120 202 26 119 169 17 100 167 17 98 164 17 97 162 17 96 160 16 94 157 16 93 155 16 91 152 16 90 150 15 88 193 30 114 190 30 112 187 29 110 184 29 108 181 28 106 102 210 235 102 210 235 102 210 235 102 210 235 102 210 235 102 210 235 102 210 235 102 210 235 102 210 235 102 210 235 102 210 235 102 210 235 102 210 235 102 210 235 102 210 235 102 210 235 102 210 235
102 211 235 102 211 235 102 211 235 102 211 235 102 211 235 102 211 235 102 211 235 102 211 235 102 211 235 102 211 235 102 211 235 102 211 235 102 211 235 102 211 235 102 211 235 102 211 235 102 211 235 102 211 235 102 211 235 102 211 235 102 211 235 102 211 235 102 211 235 102 211 235 102 211 235 102 211 235 102 211 235 102 211 235 56 133 156 56 135 158 57 137 160 58 139 162 59 141 165 203 60 64 205 60 64 208 61 65 90 90 90 214 63 67 216 64 68 219 64 69 213 130 30 216 132 31 218 134 31 221 135 32 218 134 31 216 132 31 213 130 30 210 129 30 208 191 38 205 188 38 90 90 90 200 184 37 197 181 36 195 179 36 192 176 35 27 97 116 27 95 114 26 94 113 26 93 111 102 211 235 102 211 235 102 211 235 102 211 235 102 211 235 102 211 235 102 211 235 102 211 235 102 211 235 102 211 235 102 211 235 102 211 235 102 211 235 172 172 63 175 175 64 178 178 66 181 181 67 184 184 68 187 187 69 198 35 124 201 36 126 204 36 128 207 37 130 211 37 132 214 38 134 217 38 136 220 39 138 223 39 140 204 27 120 207 27 121 210 27 123 212 28 125 215 28 126 212 28 125 210 27 123 207 27 121 204 27 120 201 26 118 168 17 99 166 17 98 163 17 96 161 17 95 159 16 94 156 16 92 154 16 91 152 16 89 149 15 88 192 30 113 189 30 111 186 29 109 183 29 107 180 28 106 102 211 235 102 211 235 102 211 235 102 211 235 102 211 235 102 211 235 102 211 235 102 211 235 102 211 235 102 211 235 102 211 235 102 211 235 102 211 235 102 211 235 102 211 235 102 211 235 102 211 235
102 211 235 102 211 235 102 211 235 102 211 235 102 211 235 102 211 235 102 211 235 102 211 235 102 211 235 102 211 235 102 211 235 102 211 235 102 211 235 102 211 235 102 211 235 102 211 235 102 211 235 102 211 235 102 211 235 102 211 235 102 211 235 102 211 235 102 211 235 102 211 235 102 211 235 102 211 235 102 211 235 102 211 235 102 211 235 102 211 235 57 136 159 58 138 161 58 140 164 201 59 63 204 60 64 207 61 65 90 90 90 212 62 67 215 63 68 218 64 68 212 130 30 215 131 31 217 133 31 220 135 31 217 133 31 215 131 31 212 130 30 209 128 30 207 190 38 204 187 37 90 90 90 199 183 37 196 180 36 194 178 36 191 175 35 27 96 115 27 95 114 102 211 235 102 211 235 102 211 235 102 211 235 102 211 235 102 211 235 102 211 235 102 211 235 102 211 235 102 211 235 102 211 235 102 211 235 102 211 235 102 211 235 102 211 235 102 211 235 174 174 64 177 177 65 180 180 66 183 183 67 186 186 68 197 35 124 200 35 126 203 36 127 206 36 129 209 37 131 213 38 133 216 38 135 219 39 137 222 39 139 203 26 119 206 27 121 208 27 122 211 28 124 214 28 126 211 28 124 208 27 122 206 27 121 203 26 119 200 26 117 167 17 99 165 17 97 163 17 96 160 16 94 158 16 93 155 16 92 153 16 90 151 15 89 148 15 87 191 30 112 188 29 110 185 29 109 181 28 107 102 211 235 102 211 235 102 211 235 102 211 235 102 211 235 102 211 235 102 211 235 102 211 235 102 211 235 102 211 235 102 211 235 102 211 235 102 211 235 102 211 235 102 211 235 102 211 235 102 211 235 102 211 235
102 211 235 102 211 235 102 211 235 102 211 235 102 211 235 102 211 235 102 211 235 102 211 235 102 211 235 102 211 235 102 211 235 102 211 235 102 211 235 102 211 235 102 211 235 102 211 235 102 211 235 102 211 235 102 211 235 102 211 235 102 211 235 102 211 235 102 211 235 102 211 235 102 211 235 102 211 235 102 211 235 102 211 235 102 211 235 102 211 235 102 211 235 102 211 235 58 139 163 200 59 63 203 60 64 206 61 65 209 61 65 90 90 90 214 63 67 217 64 68 211 129 30 214 131 31 216 132 31 219 134 31 216 132 31 214 131 31 211 129 30 208 128 30 206 189 38 90 90 90 200 184 37 198 182 36 195 179 36 192 177 35 190 174 35 102 211 235 102 211 235 102 211 235 102 211 235 102 211 235 102 211 235 102 211 235 102 211 235 102 211 235 102 211 235 102 211 235 102 211 235 102 211 235 102 211 235 102 211 235 102 211 235 102 211 235 102 211 235 173 173 64 176 176 65 179 179 66 182 182 67 185 185 68 196 35 123 199 35 125 202 36 127 35 35 38 35 35 38 35 35 38 35 35 38 35 35 38 35 35 38 35 35 38 35 35 38 35 35 38 35 35 38 35 35 38 35 35 38 35 35 38 35 35 38 35 35 38 35 35 38 35 35 38 35 35 38 35 35 38 35 35 38 35 35 38 154 16 91 152 16 90 150 15 88 147 15 87 190 30 112 186 29 110 183 29 108 180 28 106 102 211 235 102 211 235 102 211 235 102 211 235 102 211 235 102 211 235 102 211 235 102 211 235 102 211 235 102 211 235 102 211 235 102 211 235 102 211 235 102 211 235 102 211 235 102 211 235 102 211 235 102 211 235
102 212 235 102 212 235 102 212 235 102 212 235 102 212 235 102 212 235 102 212 235 102 212 235 102 212 235 102 212 235 102 212 235 102 212 235 102 212 235 102 212 235 102 212 235 102 212 235 102 212 235 102 212 235 102 212 235 102 212 235 102 212 235 102 212 235 102 212 235 102 212 235 102 212 235 102 212 235 102 212 235 102 212 235 102 212 235 102 212 235 102 212 235 102 212 235 102 212 235 102 212 235 202 59 63 205 60 64 207 61 65 90 90 90 213 63 67 216 63 68 210 128 30 213 130 30 215 132 31 218 133 31 215 132 31 213 130 30 210 128 30 207 127 30 205 188 38 90 90 90 199 183 37 197 181 36 194 178 36 102 212 235 102 212 235 102 212 235 102 212 235 102 212 235 102 212 235 102 212 235 102 212 235 102 212 235 102 212 235 102 212 235 102 212 235 102 212 235 102 212 235 102 212 235 102 212 235 102 212 235 102 212 235 102 212 235 102 212 235 102 212 235 175 175 64 178 178 65 181 181 67 184 184 68 195 34 122 198 35 124 201 35 126 35 35 38 35 35 38 35 35 38 35 35 38 35 35 38 35 35 38 35 35 38 35 35 38 35 35 38 35 35 38 35 35 38 35 35 38 35 35 38 35 35 38 35 35 38 35 35 38 35 35 38 35 35 38 35 35 38 35 35 38 35 35 38 154 16 91 151 16 89 149 15 88 146 15 86 188 30 111 185 29 109 182 29 107 102 212 235 102 212 235 102 212 235 102 212 235 102 212 235 102 212 235 102 212 235 102 212 235 102 212 235 102 212 235 102 212 235 102 212 235 102 212 235 102 212 235 102 212 235 102 212 235 102 212 235 102 212 235 102 212 235
102 212 235 102 212 235 102 212 235 102 212 235 102 212 235 102 212 235 102 212 235 102 212 235 102 212 235 102 212 235 102 212 235 102 212 235 102 212 235 102 212 235 102 212 235 102 212 235 102 212 235 102 212 235 102 212 235 102 212 235 102 212 235 102 212 235 102 212 235 102 212 235 102 212 235 102 212 235 102 212 235 102 212 235 102 212 235 102 212 235 102 212 235 102 212 235 102 212 235 102 212 235 102 212 235 102 212 235 206 61 65 209 61 66 90 90 90 215 63 67 209 128 30 211 129 30 214 131 31 217 133 31 214 131 31 211 129 30 209 128 30 206 126 29 90 90 90 201 184 37 198 182 36 102 212 235 102 212 235 102 212 235 102 212 235 102 212 235 102 212 235 102 212 235 102 212 235 102 212 235 102 212 235 102 212 235 102 212 235 102 212 235 102 212 235 102 212 235 102 212 235 102 212 235 102 212 235 102 212 235 102 212 235 102 212 235 102 212 235 102 212 235 102 212 235 177 177 65 180 180 66 183 183 67 193 34 121 197 35 123 200 35 125 35 35 38 35 35 38 35 35 38 35 35 38 35 35 38 35 35 38 35 35 38 35 35 38 35 35 38 35 35 38 35 35 38 35 35 38 35 35 38 35 35 38 35 35 38 35 35 38 35 35 38 35 35 38 35 35 38 35 35 38 35 35 38 153 16 90 150 15 89 148 15 87 146 15 86 187 29 110 184 29 108 102 212 235 102 212 235 102 212 235 102 212 235 102 212 235 102 212 235 102 212 235 102 212 235 102 212 235 102 212 235 102 212 235 102 212 235 102 212 235 102 212 235 102 212 235 102 212 235 102 212 235 102 212 235 102 212 235 102 212 235
102 212 235 102 212 235 102 212 235 102 212 235 102 212 235 102 212 235 102 212 235 102 212 235 102 212 235 102 212 235 102 212 235 102 212 235 102 212 235 102 212 235 102 212 235 102 212 235 102 212 235 102 212 235 102 212 235 102 212 235 102 212 235 102 212 235 102 212 235 102 212 235 102 212 235 102 212 235 102 212 235 102 212 235 102 212 235 102 212 235 102 212 235 102 212 235 102 212 235 102 212 235 102 212 235 102 212 235 102 212 235 102 212 235 90 90 90 102 212 235 102 212 235 102 212 235 102 212 235 216 132 31 102 212 235 102 212 235 102 212 235 102 212 235 90 90 90 102 212 235 102 212 235 102 212 235 102 212 235 102 212 235 102 212 235 102 212 235 102 212 235 102 212 235 102 212 235 102 212 235 102 212 235 102 212 235 102 212 235 102 212 235 102 212 235 102 212 235 102 212 235 102 212 235 102 212 235 102 212 235 102 212 235 102 212 235 102 212 235 102 212 235 102 212 235 102 212 235 179 179 66 182 182 67 192 34 121 195 34 123 198 35 125 35 35 38 35 35 38 90 90 90 35 35 38 35 35 38 35 35 38 35 35 38 35 35 38 35 35 38 35 35 38 35 35 38 35 35 38 35 35 38 35 35 38 35 35 38 35 35 38 35 35 38 35 35 38 90 90 90 35 35 38 35 35 38 152 16 90 149 15 88 147 15 87 145 15 85 186 29 109 102 212 235 102 212 235 102 212 235 102 212 235 102 212 235 102 212 235 102 212 235 102 212 235 102 212 235 102 212 235 102 212 235 102 212 235 102 212 235 102 212 235 102 212 235 102 212 235 102 212 235 102 212 235 102 212 235 102 212 235 102 212 235
102 213 235 102 213 235 102 213 235 102 213 235 102 213 235 102 213 235 102 213 235 102 213 235 102 213 235 102 213 235 102 213 235 102 213 235 102 213 235 102 213 235 102 213 235 102 213 235 102 213 235 102 213 235 102 213 235 102 213 235 102 213 235 102 213 235 102 213 235 102 213 235 102 213 235 102 213 235 102 213 235 102 213 235 102 213 235 102 213 235 102 213 235 102 213 235 102 213 235 102 213 235 102 213 235 102 213 235 102 213 235 102 213 235 102 213 235 90 90 90 102 213 235 102 213 235 102 213 235 102 213 235 102 213 235 102 213 235 102 213 235 90 90 90 102 213 235 102 213 235 102 213 235 102 213 235 102 213 235 102 213 235 102 213 235 102 213 235 102 213 235 102 213 235 102 213 235 102 213 235 102 213 235 102 213 235 102 213 235 102 213 235 102 213 235 102 213 235 102 213 235 102 213 235 102 213 235 102 213 235 102 213 235 102 213 235 102 213 235 102 213 235 102 213 235 102 213 235 102 213 235 181 181 66 191 34 120 194 34 122 197 35 124 200 35 126 204 36 128 90 90 90 210 37 132 213 38 134 216 38 135 198 26 116 200 26 118 203 27 119 206 27 121 209 27 123 206 27 121 203 27 119 200 26 118 198 26 116 195 25 114 163 17 96 160 16 95 90 90 90 156 16 92 153 16 90 151 15 89 149 15 88 146 15 86 144 15 85 102 213 235 102 213 235 102 213 235 102 213 235 102 213 235 102 213 235 102 213 235 102 213 235 102 213 235 102 213 235 102 213 235 102 213 235 102 213 235 102 213 235 102 213 235 102 213 235 102 213 235 102 213 235 102 213 235 102 213 235 102 213 235 102 213 235
103 213 235 103 213 235 103 213 235 103 213 235 103 213 235 103 213 235 103 213 235 103 213 235 103 213 235 103 213 235 103 213 235 103 213 235 103 213 235 103 213 235 103 213 235 103 213 235 103 213 235 103 213 235 103 213 235 103 213 235 103 213 235 103 213 235 103 213 235 103 213 235 103 213 235 103 213 235 103 213 235 103 213 235 103 213 235 103 213 235 103 213 235 103 213 235 103 213 235 103 213 235 103 213 235 103 213 235 103 213 235 103 213 235 103 213 235 90 90 90 103 213 235 103 213 235 103 213 235 103 213 235 103 213 235 103 213 235 103 213 235 90 90 90 103 213 235 103 213 235 103 213 235 103 213 235 103 213 235 103 213 235 103 213 235 103 213 235 103 213 235 103 213 235 103 213 235 103 213 235 103 213 235 103 213 235 103 213 235 103 213 235 103 213 235 103 213 235 103 213 235 103 213 235 103 213 235 103 213 235 103 213 235 103 213 235 103 213 235 103 213 235 103 213 235 103 213 235 103 213 235 103 213 235 190 34 119 193 34 121 196 35 123 199 35 125 202 36 127 205 36 129 90 90 90 212 37 133 215 38 135 197 26 115 199 26 117 202 26 119 205 27 120 208 27 122 205 27 120 202 26 119 199 26 117 197 26 115 194 25 114 162 17 95 90 90 90 157 16 93 155 16 91 152 16 90 150 15 88 148 15 87 145 15 86 103 213 235 103 213 235 103 213 235 103 213 235 103 213 235 103 213 235 103 213 235 103 213 235 103 213 235 103 213 235 103 213 235 103 213 235 103 213 235 103 213 235 103 213 235 103 213 235 103 213 235 103 213 235 103 213 235 103 213 235 103 213 235 103 213 235 103 213 235
103 213 235 103 213 235 103 213 235 103 213 235 103 213 235 103 213 235 103 213 235 103 213 235 103 213 235 103 213 235 103 213 235 103 213 235 103 213 235 103 213 235 103 213 235 103 213 235 103 213 235 103 213 235 103 213 235 103 213 235 103 213 235 103 213 235 103 213 235 103 213 235 103 213 235 103 213 235 103 213 235 103 213 235 103 213 235 103 213 235 103 213 235 103 213 235 103 213 235 103 213 235 103 213 235 103 213 235 103 213 235 103 213 235 103 213 235 103 213 235 90 90 90 103 213 235 103 213 235 103 213 235 103 213 235 103 213 235 90 90 90 103 213 235 103 213 235 103 213 235 103 213 235 103 213 235 103 213 235 103 213 235 103 213 235 103 213 235 103 213 235 103 213 235 103 213 235 103 213 235 103 213 235 103 213 235 103 213 235 103 213 235 103 213 235 103 213 235 103 213 235 103 213 235 103 213 235 103 213 235 103 213 235 103 213 235 103 213 235 103 213 235 103 213 235 103 213 235 103 213 235 103 213 235 103 213 235 192 34 120 195 34 122 198 35 124 201 36 126 204 36 128 90 90 90 210 37 132 214 38 134 195 25 115 198 26 116 201 26 118 204 27 120 207 27 121 204 27 120 201 26 118 198 26 116 195 25 115 193 25 113 161 17 95 90 90 90 156 16 92 154 16 91 151 16 89 149 15 88 147 15 87 103 213 235 103 213 235 103 213 235 103 213 235 103 213 235 103 213 235 103 213 235 103 213 235 103 213 235 103 213 235 103 213 235 103 213 235 103 213 235 103 213 235 103 213 235 103 213 235 103 213 235 103 213 235 103 213 235 103 213 235 103 213 235 103 213 235 103 213 235 103 213 235
103 214 235 103 214 235 103 214 235 103 214 235 103 214 235 103 214 235 103 214 235 103 214 235 103 214 235 103 214 235 103 214 235 103 214 235 103 214 235 103 214 235 103 214 235 103 214 235 103 214 235 103 214 235 103 214 235 103 214 235 103 214 235 103 214 235 103 214 235 103 214 235 103 214 235 103 214 235 103 214 235 103 214 235 103 214 235 103 214 235 103 214 235 103 214 235 103 214 235 103 214 235 103 214 235 103 214 235 103 214 235 103 214 235 103 214 235 103 214 235 90 90 90 103 214 235 103 214 235 103 214 235 103 214 235 103 214 235 90 90 90 103 214 235 103 214 235 103 214 235 103 214 235 103 214 235 103 214 235 103 214 235 103 214 235 103 214 235 103 214 235 103 214 235 103 214 235 103 214 235 103 214 235 103 214 235 103 214 235 103 214 235 103 214 235 103 214 235 103 214 235 103 214 235 103 214 235 103 214 235 103 214 235 103 214 235 103 214 235 103 214 235 103 214 235 103 214 235 103 214 235 103 214 235 103 214 235 103 214 235 103 214 235 197 35 124 200 35 125 203 36 127 206 36 129 90 90 90 212 37 133 194 25 114 197 26 116 200 26 117 203 26 119 206 27 121 203 26 119 200 26 117 197 26 116 194 25 114 192 25 112 90 90 90 158 16 93 155 16 92 153 16 90 151 15 89 103 214 235 103 214 235 103 214 235 103 214 235 103 214 235 103 214 235 103 214 235 103 214 235 103 214 235 103 214 235 103 214 235 103 214 235 103 214 235 103 214 235 103 214 235 103 214 235 103 214 235 103 214 235 103 214 235 103 214 235 103 214 235 103 214 235 103 214 235 103 214 235 103 214 235 103 214 235
103 214 235 103 214 235 103 214 235 103 214 235 103 214 235 103 214 235 103 214 235 103 214 235 103 214 235 103 214 235 103 214 235 103 214 235 103 214 235 103 214 235 103 214 235 103 214 235 103 214 235 103 214 235 103 214 235 103 214 235 103 214 235 103 214 235 103 214 235 103 214 235 103 214 235 103 214 235 103 214 235 103 214 235 103 214 235 103 214 235 103 214 235 103 214 235 103 214 235 103 214 235 103 214 235 103 214 235 103 214 235 103 214 235 103 214 235 103 214 235 103 214 235 90 90 90 103 214 235 103 214 235 103 214 235 90 90 90 103 214 235 103 214 235 103 214 235 103 214 235 103 214 235 103 214 235 103 214 235 103 214 235 103 214 235 103 214 235 103 214 235 103 214 235 103 214 235 103 214 235 103 214 235 103 214 235 103 214 235 103 214 235 103 214 235 103 214 235 103 214 235 103 214 235 103 214 235 103 214 235 103 214 235 103 214 235 103 214 235 103 214 235 103 214 235 103 214 235 103 214 235 103 214 235 103 214 235 103 214 235 103 214 235 103 214 235 103 214 235 202 36 127 205 36 129 90 90 90 211 37 133 193 25 113 196 26 115 199 26 117 202 26 118 205 27 120 202 26 118 199 26 117 196 26 115 193 25 113 191 25 112 90 90 90 157 16 92 154 16 91 103 214 235 103 214 235 103 214 235 103 214 235 103 214 235 103 214 235 103 214 235 103 214 235 103 214 235 103 214 235 103 214 235 103 214 235 103 214 235 103 214 235 103 214 235 103 214 235 103 214 235 103 214 235 103 214 235 103 214 235 103 214 235 103 214 235 103 214 235 103 214 235 103 214 235 103 214 235 103 214 235 103 214 235
103 215 235 103 215 235 103 215 235 103 215 235 103 215 235 103 215 235 103 215 235 103 215 235 103 215 235 103 215 235 103 215 235 103 215 235 103 215 235 103 215 235 103 215 235 103 215 235 103 215 235 103 215 235 103 215 235 103 215 235 103 215 235 103 215 235 103 215 235 103 215 235 103 215 235 103 215 235 103 215 235 103 215 235 103 215 235 103 215 235 103 215 235 103 215 235 103 215 235 103 215 235 103 215 235 103 215 235 103 215 235 103 215 235 103 215 235 103 215 235 103 215 235 90 90 90 103 215 235 103 215 235 103 215 235 90 90 90 103 215 235 103 215 235 103 215 235 103 215 235 103 215 235 103 215 235 103 215 235 103 215 235 103 215 235 103 215 235 103 215 235 103 215 235 103 215 235 103 215 235 103 215 235 103 215 235 103 215 235 103 215 235 103 215 235 103 215 235 103 215 235 103 215 235 103 215 235 103 215 235 103 215 235 103 215 235 103 215 235 103 215 235 103 215 235 103 215 235 103 215 235 103 215 235 103 215 235 103 215 235 103 215 235 103 215 235 103 215 235 103 215 235 103 215 235 207 37 130 90 90 90 192 25 113 195 25 114 198 26 116 201 26 118 203 27 119 201 26 118 198 26 116 195 25 114 192 25 113 90 90 90 158 16 93 103 215 235 103 215 235 103 215 235 103 215 235 103 215 235 103 215 235 103 215 235 103 215 235 103 215 235 103 215 235 103 215 235 103 215 235 103 215 235 103 215 235 103 215 235 103 215 235 103 215 235 103 215 235 103 215 235 103 215 235 103 215 235 103 215 235 103 215 235 103 215 235 103 215 235 103 215 235 103 215 235 103 215 235 103 215 235 103 215 235
103 215 235 103 215 235 103 215 235 103 215 235 103 215 235 103 215 235 103 215 235 103 215 235 103 215 235 103 215 235 103 215 235 103 215 235 103 215 235 103 215 235 103 215 235 103 215 235 103 215 235 103 215 235 103 215 235 103 215 235 103 215 235 103 215 235 103 215 235 103 215 235 103 215 235 103 215 235 103 215 235 103 215 235 103 215 235 103 215 235 103 215 235 103 215 235 103 215 235 103 215 235 103 215 235 103 215 235 103 215 235 103 215 235 103 215 235 103 215 235 70 190 65 70 190 65 70 190 65 70 190 65 70 190 65 70 190 65 70 190 65 103 215 235 103 215 235 103 215 235 103 215 235 103 215 235 103 215 235 103 215 235 103 215 235 103 215 235 103 215 235 103 215 235 103 215 235 103 215 235 103 215 235 103 215 235 103 215 235 103 215 235 103 215 235 103 215 235 103 215 235 103 215 235 103 215 235 103 215 235 103 215 235 103 215 235 103 215 235 103 215 235 103 215 235 103 215 235 103 215 235 103 215 235 103 215 235 103 215 235 103 215 235 103 215 235 103 215 235 103 215 235 103 215 235 103 215 235 90 90 90 103 215 235 103 215 235 103 215 235 103 215 235 202 26 119 103 215 235 103 215 235 103 215 235 103 215 235 90 90 90 103 215 235 103 215 235 103 215 235 103 215 235 103 215 235 103 215 235 103 215 235 103 215 235 103 215 235 103 215 235 103 215 235 103 215 235 103 215 235 103 215 235 103 215 235 103 215 235 103 215 235 103 215 235 103 215 235 103 215 235 103 215 235 103 215 235 103 215 235 103 215 235 103 215 235 103 215 235 103 215 235 103 215 235 103 215 235 103 215 235 103 215 235
103 215 235 103 215 235 103 215 235 103 215 235 103 215 235 103 215 235 103 215 235 103 215 235 103 215 235 103 215 235 103 215 235 103 215 235 103 215 235 103 215 235 103 215 235 103 215 235 103 215 235 103 215 235 103 215 235 103 215 235 103 215 235 103 215 235 103 215 235 103 215 235 103 215 235 103 215 235 103 215 235 103 215 235 103 215 235 103 215 235 103 215 235 103 215 235 103 215 235 103 215 235 103 215 235 103 215 235 103 215 235 103 215 235 103 215 235 103 215 235 70 190 65 70 190 65 70 190 65 70 190 65 70 190 65 70 190 65 70 190 65 103 215 235 103 215 235 103 215 235 103 215 235 103 215 235 103 215 235 103 215 235 103 215 235 103 215 235 103 215 235 103 215 235 103 215 235 103 215 235 103 215 235 103 215 235 103 215 235 103 215 235 103 215 235 103 215 235 103 215 235 103 215 235 103 215 235 103 215 235 103 215 235 103 215 235 103 215 235 103 215 235 103 215 235 103 215 235 103 215 235 103 215 235 103 215 235 103 215 235 103 215 235 103 215 235 103 215 235 103 215 235 103 215 235 103 215 235 103 215 235 90 90 90 103 215 235 103 215 235 103 215 235 103 215 235 103 215 235 103 215 235 103 215 235 90 90 90 103 215 235 103 215 235 103 215 235 103 215 235 103 215 235 103 215 235 103 215 235 103 215 235 103 215 235 103 215 235 103 215 235 103 215 235 103 215 235 103 215 235 103 215 235 103 215 235 103 215 235 103 215 235 103 215 235 103 215 235 103 215 235 103 215 235 103 215 235 103 215 235 103 215 235 103 215 235 103 215 235 103 215 235 103 215 235 103 215 235 103 215 235 103 215 235
103 216 235 103 216 235 103 216 235 103 216 235 103 216 235 103 216 235 103 216 235 103 216 235 103 216 235 103 216 235 103 216 235 103 216 235 103 216 235 103 216 235 103 216 235 103 216 235 103 216 235 103 216 235 103 216 235 103 216 235 103 216 235 103 216 235 103 216 235 103 216 235 103 216 235 103 216 235 103 216 235 103 216 235 103 216 235 103 216 235 103 216 235 103 216 235 103 216 235 103 216 235 103 216 235 103 216 235 103 216 235 103 216 235 103 216 235 103 216 235 70 190 65 70 190 65 70 190 65 70 190 65 70 190 65 70 190 65 70 190 65 103 216 235 103 216 235 103 216 235 103 216 235 103 216 235 103 216 235 103 216 235 103 216 235 103 216 235 103 216 235 103 216 235 103 216 235 103 216 235 103 216 235 103 216 235 103 216 235 103 216 235 103 216 235 103 216 235 103 216 235 103 216 235 103 216 235 103 216 235 103 216 235 103 216 235 103 216 235 103 216 235 103 216 235 103 216 235 103 216 235 103 216 235 103 216 235 103 216 235 103 216 235 103 216 235 103 216 235 103 216 235 103 216 235 103 216 235 103 216 235 90 90 90 103 216 235 103 216 235 103 216 235 103 216 235 103 216 235 103 216 235 103 216 235 90 90 90 103 216 235 103 216 235 103 216 235 103 216 235 103 216 235 103 216 235 103 216 235 103 216 235 103 216 235 103 216 235 103 216 235 103 216 235 103 216 235 103 216 235 103 216 235 103 216 235 103 216 235 103 216 235 103 216 235 103 216 235 103 216 235 103 216 235 103 216 235 103 216 235 103 216 235 103 216 235 103 216 235 103 216 235 103 216 235 103 216 235 103 216 235 103 216 235
104 216 235 104 216 235 104 216 235 104 216 235 104 216 235 104 216 235 104 216 235 104 216 235 104 216 235 104 216 235 104 216 235 104 216 235 104 216 235 104 216 235 104 216 235 104 216 235 104 216 235 104 216 235 104 216 235 104 216 235 104 216 235 104 216 235 104 216 235 104 216 235 104 216 235 104 216 235 104 216 235 104 216 235 104 216 235 104 216 235 104 216 235 104 216 235 104 216 235 104 216 235 104 216 235 104 216 235 104 216 235 104 216 235 104 216 235 104 216 235 70 190 65 70 190 65 70 190 65 70 190 65 70 190 65 70 190 65 70 190 65 104 216 235 104 216 235 104 216 235 104 216 235 104 216 235 104 216 235 104 216 235 104 216 235 104 216 235 104 216 235 104 216 235 104 216 235 104 216 235 104 216 235 104 216 235 104 216 235 104 216 235 104 216 235 104 216 235 104 216 235 104 216 235 104 216 235 104 216 235 104 216 235 104 216 235 104 216 235 104 216 235 104 216 235 104 216 235 104 216 235 104 216 235 104 216 235 104 216 235 104 216 235 104 216 235 104 216 235 104 216 235 104 216 235 104 216 235 104 216 235 104 216 235 90 90 90 104 216 235 104 216 235 104 216 235 104 216 235 104 216 235 90 90 90 104 216 235 104 216 235 104 216 235 104 216 235 104 216 235 104 216 235 104 216 235 104 216 235 104 216 235 104 216 235 104 216 235 104 216 235 104 216 235 104 216 235 104 216 235 104 216 235 104 216 235 104 216 235 104 216 235 104 216 235 104 216 235 104 216 235 104 216 235 104 216 235 104 216 235 104 216 235 104 216 235 104 216 235 104 216 235 104 216 235 104 216 235 104 216 235 104 216 235
104 216 235 104 216 235 104 216 235 104 216 235 104 216 235 104 216 235 104 216 235 104 216 235 104 216 235 104 216 235 104 216 235 104 216 235 104 216 235 104 216 235 104 216 235 104 216 235 104 216 235 104 216 235 104 216 235 104 216 235 104 216 235 104 216 235 104 216 235 104 216 235 104 216 235 104 216 235 104 216 235 104 216 235 104 216 235 104 216 235 104 216 235 104 216 235 104 216 235 104 216 235 104 216 235 104 216 235 104 216 235 104 216 235 104 216 235 104 216 235 70 190 65 70 190 65 70 190 65 70 190 65 70 190 65 70 190 65 70 190 65 104 216 235 104 216 235 104 216 235 104 216 235 104 216 235 104 216 235 104 216 235 104 216 235 104 216 235 104 216 235 104 216 235 104 216 235 104 216 235 104 216 235 104 216 235 104 216 235 104 216 235 104 216 235 104 216 235 104 216 235 104 216 235 104 216 235 104 216 235 104 216 235 104 216 235 104 216 235 104 216 235 104 216 235 104 216 235 104 216 235 104 216 235 104 216 235 104 216 235 104 216 235 104 216 235 104 216 235 104 216 235 104 216 235 104 216 235 104 216 235 104 216 235 90 90 90 104 216 235 104 216 235 104 216 235 104 216 235 104 216 235 90 90 90 104 216 235 104 216 235 104 216 235 104 216 235 104 216 235 104 216 235 104 216 235 104 216 235 104 216 235 104 216 235 104 216 235 104 216 235 104 216 235 104 216 235 104 216 235 104 216 235 104 216 235 104 216 235 104 216 235 104 216 235 104 216 235 104 216 235 104 216 235 104 216 235 104 216 235 104 216 235 104 216 235 104 216 235 104 216 235 104 216 235 104 216 235 104 216 235 104 216 235
104 217 235 104 217 235 104 217 235 104 217 235 104 217 235 104 217 235 104 217 235 104 217 235 104 217 235 104 217 235 104 217 235 104 217 235 104 217 235 104 217 235 104 217 235 104 217 235 104 217 235 104 217 235 104 217 235 104 217 235 104 217 235 104 217 235 104 217 235 104 217 235 104 217 235 104 217 235 104 217 235 104 217 235 104 217 235 104 217 235 104 217 235 104 217 235 104 217 235 104 217 235 104 217 235 104 217 235 104 217 235 104 217 235 104 217 235 104 217 235 70 190 65 70 190 65 70 190 65 70 190 65 70 190 65 70 190 65 70 190 65 104 217 235 104 217 235 104 217 235 104 217 235 104 217 235 104 217 235 104 217 235 104 217 235 104 217 235 104 217 235 104 217 235 104 217 235 104 217 235 104 217 235 104 217 235 104 217 235 104 217 235 104 217 235 104 217 235 104 217 235 104 217 235 104 217 235 104 217 235 104 217 235 104 217 235 104 217 235 104 217 235 104 217 235 104 217 235 104 217 235 104 217 235 104 217 235 104 217 235 104 217 235 104 217 235 104 217 235 104 217 235 104 217 235 104 217 235 104 217 235 104 217 235 104 217 235 90 90 90 104 217 235 104 217 235 104 217 235 90 90 90 104 217 235 104 217 235 104 217 235 104 217 235 104 217 235 104 217 235 104 217 235 104 217 235 104 217 235 104 217 235 104 217 235 104 217 235 104 217 235 104 217 235 104 217 235 104 217 235 104 217 235 104 217 235 104 217 235 104 217 235 104 217 235 104 217 235 104 217 235 104 217 235 104 217 235 104 217 235 104 217 235 104 217 235 104 217 235 104 217 235 104 217 235 104 217 235 104 217 235 104 217 235
104 217 235 104 217 235 104 217 235 104 217 235 104 217 235 104 217 235 104 217 235 104 217 235 104 217 235 104 217 235 104 217 235 104 217 235 104 217 235 104 217 235 104 217 235 104 217 235 104 217 235 104 217 235 104 217 235 104 217 235 104 217 235 104 217 235 104 217 235 104 217 235 104 217 235 104 217 235 104 217 235 104 217 235 104 217 235 104 217 235 104 217 235 104 217 235 104 217 235 104 217 235 104 217 235 104 217 235 104 217 235 104 217 235 104 217 235 104 217 235 70 190 65 70 190 65 70 190 65 70 190 65 70 190 65 70 190 65 70 190 65 104 217 235 104 217 235 104 217 235 104 217 235 104 217 235 104 217 235 104 217 235 104 217 235 104 217 235 104 217 235 104 217 235 104 217 235 104 217 235 104 217 235 104 217 235 104 217 235 104 217 235 104 217 235 104 217 235 104 217 235 104 217 235 104 217 235 104 217 235 104 217 235 104 217 235 104 217 235 104 217 235 104 217 235 104 217 235 104 217 235 104 217 235 104 217 235 104 217 235 104 217 235 104 217 235 104 217 235 104 217 235 104 217 235 104 217 235 104 217 235 104 217 235 104 217 235 90 90 90 104 217 235 104 217 235 104 217 235 90 90 90 104 217 235 104 217 235 104 217 235 104 217 235 104 217 235 104 217 235 104 217 235 104 217 235 104 217 235 104 217 235 104 217 235 104 217 235 104 217 235 104 217 235 104 217 235 104 217 235 104 217 235 104 217 235 104 217 235 104 217 235 104 217 235 104 217 235 104 217 235 104 217 235 104 217 235 104 217 235 104 217 235 104 217 235 104 217 235 104 217 235 104 217 235 104 217 235 104 217 235 104 217 235
104 218 235 104 218 235 104 218 235 104 218 235 104 218 235 104 218 235 104 218 235 104 218 235 104 218 235 104 218 235 104 218 235 104 218 235 104 218 235 104 218 235 104 218 235 104 218 235 104 218 235 104 218 235 104 218 235 104 218 235 104 218 235 104 218 235 104 218 235 104 218 235 104 218 235 104 218 235 104 218 235 104 218 235 104 218 235 104 218 235 104 218 235 104 218 235 104 218 235 104 218 235 104 218 235 104 218 235 104 218 235 104 218 235 104 218 235 104 218 235 104 218 235 104 218 235 104 218 235 104 218 235 104 218 235 104 218 235 104 218 235 104 218 235 104 218 235 104 218 235 104 218 235 104 218 235 104 218 235 104 218 235 104 218 235 104 218 235 104 218 235 104 218 235 104 218 235 104 218 235 104 218 235 104 218 235 104 218 235 104 218 235 104 218 235 104 218 235 104 218 235 104 218 235 104 218 235 104 218 235 104 218 235 104 218 235 104 218 235 104 218 235 104 218 235 104 218 235 104 218 235 104 218 235 104 218 235 104 218 235 104 218 235 104 218 235 104 218 235 104 218 235 104 218 235 104 218 235 104 218 235 104 218 235 230 45 50 230 45 50 230 45 50 230 45 50 230 45 50 230 45 50 230 45 50 104 218 235 104 218 235 104 218 235 104 218 235 104 218 235 104 218 235 104 218 235 104 218 235 104 218 235 104 218 235 104 218 235 104 218 235 104 218 235 104 218 235 104 218 235 104 218 235 104 218 235 104 218 235 104 218 235 104 218 235 104 218 235 104 218 235 104 218 235 104 218 235 104 218 235 104 218 235 104 218 235 104 218 235 104 218 235 104 218 235 104 218 235 104 218 235 104 218 235
104 218 235 104 218 235 104 218 235 104 218 235 104 218 235 104 218 235 104 218 235 104 218 235 104 218 235 104 218 235 104 218 235 104 218 235 104 218 235 104 218 235 104 218 235 104 218 235 104 218 235 104 218 235 104 218 235 104 218 235 104 218 235 104 218 235 104 218 235 104 218 235 104 218 235 104 218 235 104 218 235 104 218 235 104 218 235 104 218 235 104 218 235 104 218 235 104 218 235 104 218 235 104 218 235 104 218 235 104 218 235 104 218 235 104 218 235 104 218 235 104 218 235 104 218 235 104 218 235 104 218 235 104 218 235 104 218 235 104 218 235 104 218 235 104 218 235 104 218 235 104 218 235 104 218 235 104 218 235 104 218 235 104 218 235 104 218 235 104 218 235 104 218 235 104 218 235 104 218 235 104 218 235 104 218 235 104 218 235 104 218 235 104 218 235 104 218 235 104 218 235 104 218 235 104 218 235 104 218 235 104 218 235 104 218 235 104 218 235 104 218 235 104 218 235 104 218 235 104 218 235 104 218 235 104 218 235 104 218 235 104 218 235 104 218 235 104 218 235 104 218 235 104 218 235 104 218 235 104 218 235 104 218 235 230 45 50 230 45 50 230 45 50 230 45 50 230 45 50 230 45 50 230 45 50 104 218 235 104 218 235 104 218 235 104 218 235 104 218 235 104 218 235 104 218 235 104 218 235 104 218 235 104 218 235 104 218 235 104 218 235 104 218 235 104 218 235 104 218 235 104 218 235 104 218 235 104 218 235 104 218 235 104 218 235 104 218 235 104 218 235 104 218 235 104 218 235 104 218 235 104 218 235 104 218 235 104 218 235 104 218 235 104 218 235 104 218 235 104 218 235 104 218 235
104 218 235 104 218 235 104 218 235 104 218 235 104 218 235 104 218 235 104 218 235 104 218 235 104 218 235 104 218 235 104 218 235 104 218 235 104 218 235 104 218 235 104 218 235 104 218 235 104 218 235 104 218 235 104 218 235 104 218 235 104 218 235 104 218 235 104 218 235 104 218 235 104 218 235 104 218 235 104 218 235 104 218 235 104 218 235 104 218 235 104 218 235 104 218 235 104 218 235 104 218 235 104 218 235 104 218 235 104 218 235 104 218 235 104 218 235 104 218 235 104 218 235 104 218 235 104 218 235 104 218 235 104 218 235 104 218 235 104 218 235 104 218 235 104 218 235 104 218 235 104 218 235 104 218 235 104 218 235 104 218 235 104 218 235 104 218 235 104 218 235 104 218 235 104 218 235 104 218 235 104 218 235 104 218 235 104 218 235 104 218 235 104 218 235 104 218 235 104 218 235 104 218 235 104 218 235 104 218 235 104 218 235 104 218 235 104 218 235 104 218 235 104 218 235 104 218 235 104 218 235 104 218 235 104 218 235 104 218 235 104 218 235 104 218 235 104 218 235 104 218 235 104 218 235 104 218 235 104 218 235 104 218 235 230 45 50 230 45 50 230 45 50 230 45 50 230 45 50 230 45 50 230 45 50 104 218 235 104 218 235 104 218 235 104 218 235 104 218 235 104 218 235 104 218 235 104 218 235 104 218 235 104 218 235 104 218 235 104 218 235 104 218 235 104 218 235 104 218 235 104 218 235 104 218 235 104 218 235 104 218 235 104 218 235 104 218 235 104 218 235 104 218 235 104 218 235 104 218 235 104 218 235 104 218 235 104 218 235 104 218 235 104 218 235 104 218 235 104 218 235 104 218 235
104 219 235 104 219 235 104 219 235 104 219 235 104 219 235 104 219 235 104 219 235 104 219 235 104 219 235 104 219 235 104 219 235 104 219 235 104 219 235 104 219 235 104 219 235 104 219 235 104 219 235 104 219 235 104 219 235 104 219 235 104 219 235 104 219 235 104 219 235 104 219 235 104 219 235 104 219 235 104 219 235 104 219 235 104 219 235 104 219 235 104 219 235 104 219 235 104 219 235 104 219 235 104 219 235 104 219 235 104 219 235 104 219 235 104 219 235 104 219 235 104 219 235 104 219 235 104 219 235 104 219 235 104 219 235 104 219 235 104 219 235 104 219 235 104 219 235 104 219 235 104 219 235 104 219 235 104 219 235 104 219 235 104 219 235 104 219 235 104 219 235 104 219 235 104 219 235 104 219 235 104 219 235 104 219 235 104 219 235 104 219 235 104 219 235 104 219 235 104 219 235 104 219 235 104 219 235 104 219 235 104 219 235 104 219 235 104 219 235 104 219 235 104 219 235 104 219 235 104 219 235 104 219 235 104 219 235 104 219 235 104 219 235 104 219 235 104 219 235 104 219 235 104 219 235 104 219 235 104 219 235 104 219 235 230 45 50 230 45 50 230 45 50 230 45 50 230 45 50 230 45 50 230 45 50 104 219 235 104 219 235 104 219 235 104 219 235 104 219 235 104 219 235 104 219 235 104 219 235 104 219 235 104 219 235 104 219 235 104 219 235 104 219 235 104 219 235 104 219 235 104 219 235 104 219 235 104 219 235 104 219 235 104 219 235 104 219 235 104 219 235 104 219 235 104 219 235 104 219 235 104 219 235 104 219 235 104 219 235 104 219 235 104 219 235 104 219 235 104 219 235 104 219 235
105 219 235 105 219 235 105 219 235 105 219 235 105 219 235 105 219 235 105 219 235 105 219 235 105 219 235 105 219 235 105 219 235 105 219 235 105 219 235 105 219 235 105 219 235 105 219 235 105 219 235 105 219 235 105 219 235 105 219 235 105 219 235 105 219 235 105 219 235 105 219 235 105 219 235 105 219 235 105 219 235 105 219 235 105 219 235 105 219 235 105 219 235 105 219 235 105 219 235 105 219 235 105 219 235 105 219 235 105 219 235 105 219 235 105 219 235 105 219 235 105 219 235 105 219 235 105 219 235 105 219 235 105 219 235 105 219 235 105 219 235 105 219 235 105 219 235 105 219 235 105 219 235 105 219 235 105 219 235 105 219 235 105 219 235 105 219 235 105 219 235 105 219 235 105 219 235 105 219 235 105 219 235 105 219 235 105 219 235 105 219 235 105 219 235 105 219 235 105 219 235 105 219 235 105 219 235 105 219 235 105 219 235 105 219 235 105 219 235 105 219 235 105 219 235 105 219 235 105 219 235 105 219 235 105 219 235 105 219 235 105 219 235 105 219 235 105 219 235 105 219 235 105 219 235 105 219 235 105 219 235 105 219 235 230 45 50 230 45 50 230 45 50 230 45 50 230 45 50 230 45 50 230 45 50 105 219 235 105 219 235 105 219 235 105 219 235 105 219 235 105 219 235 105 219 235 105 219 235 105 219 235 105 219 235 105 219 235 105 219 235 105 219 235 105 219 235 105 219 235 105 219 235 105 219 235 105 219 235 105 219 235 105 219 235 105 219 235 105 219 235 105 219 235 105 219 235 105 219 235 105 219 235 105 219 235 105 219 235 105 219 235 105 219 235 105 219 235 105 219 235 105 219 235
105 219 235 105 219 235 105 219 235 105 219 235 105 219 235 105 219 235 105 219 235 105 219 235 105 219 235 105 219 235 105 219 235 105 219 235 105 219 235 105 219 235 105 219 235 105 219 235 105 219 235 105 219 235 105 219 235 105 219 235 105 219 235 105 219 235 105 219 235 105 219 235 105 219 235 105 219 235 105 219 235 105 219 235 105 219 235 105 219 235 105 219 235 105 219 235 105 219 235 105 219 235 105 219 235 105 219 235 105 219 235 105 219 235 105 219 235 105 219 235 105 219 235 105 219 235 105 219 235 105 219 235 105 219 235 105 219 235 105 219 235 105 219 235 105 219 235 105 219 235 105 219 235 105 219 235 105 219 235 105 219 235 105 219 235 105 219 235 105 219 235 105 219 235 105 219 235 105 219 235 105 219 235 105 219 235 105 219 235 105 219 235 105 219 235 105 219 235 105 219 235 105 219 235 105 219 235 105 219 235 105 219 235 105 219 235 105 219 235 105 219 235 105 219 235 105 219 235 105 219 235 105 219 235 105 219 235 105 219 235 105 219 235 105 219 235 105 219 235 105 219 235 105 219 235 105 219 235 105 219 235 105 219 235 230 45 50 230 45 50 230 45 50 230 45 50 230 45 50 230 45 50 230 45 50 105 219 235 105 219 235 105 219 235 105 219 235 105 219 235 105 219 235 105 219 235 105 219 235 105 219 235 105 219 235 105 219 235 105 219 235 105 219 235 105 219 235 105 219 235 105 219 235 105 219 235 105 219 235 105 219 235 105 219 235 105 219 235 105 219 235 105 219 235 105 219 235 105 219 235 105 219 235 105 219 235 105 219 235 105 219 235 105 219 235 105 219 235 105 219 235 105 219 235
105 220 235 105 220 235 105 220 235 105 220 235 105 220 235 105 220 235 105 220 235 105 220 235 105 220 235 105 220 235 105 220 235 105 220 235 105 220 235 105 220 235 105 220 235 105 220 235 105 220 235 105 220 235 105 220 235 105 220 235 105 220 235 105 220 235 105 220 235 105 220 235 105 220 235 105 220 235 105 220 235 105 220 235 105 220 235 105 220 235 105 220 235 105 220 235 105 220 235 105 220 235 105 220 235 105 220 235 105 220 235 105 220 235 105 220 235 105 220 235 105 220 235 105 220 235 105 220 235 105 220 235 105 220 235 105 220 235 105 220 235 105 220 235 105 220 235 105 220 235 105 220 235 105 220 235 105 220 235 105 220 235 105 220 235 105 220 235 105 220 235 105 220 235 105 220 235 105 220 235 105 220 235 105 220 235 105 220 235 105 220 235 105 220 235 105 220 235 105 220 235 105 220 235 105 220 235 105 220 235 105 220 235 105 220 235 105 220 235 105 220 235 105 220 235 105 220 235 105 220 235 105 220 235 105 220 235 105 220 235 105 220 235 105 220 235 105 220 235 105 220 235 105 220 235 105 220 235 105 220 235 105 220 235 230 45 50 230 45 50 230 45 50 230 45 50 230 45 50 230 45 50 230 45 50 105 220 235 105 220 235 105 220 235 105 220 235 105 220 235 105 220 235 105 220 235 105 220 235 105 220 235 105 220 235 105 220 235 105 220 235 105 220 235 105 220 235 105 220 235 105 220 235 105 220 235 105 220 235 105 220 235 105 220 235 105 220 235 105 220 235 105 220 235 105 220 235 105 220 235 105 220 235 105 220 235 105 220 235 105 220 235 105 220 235 105 220 235 105 220 235 105 220 235
105 220 235 105 220 235 105 220 235 105 220 235 105 220 235 105 220 235 105 220 235 105 220 235 105 220 235 105 220 235 105 220 235 105 220 235 105 220 235 105 220 235 105 220 235 105 220 235 105 220 235 105 220 235 105 220 235 105 220 235 105 220 235 105 220 235 105 220 235 105 220 235 105 220 235 105 220 235 105 220 235 105 220 235 105 220 235 105 220 235 105 220 235 105 220 235 105 220 235 105 220 235 105 220 235 105 220 235 105 220 235 105 220 235 105 220 235 105 220 235 105 220 235 105 220 235 105 220 235 105 220 235 105 220 235 105 220 235 105 220 235 105 220 235 105 220 235 105 220 235 105 220 235 105 220 235 105 220 235 105 220 235 105 220 235 105 220 235 105 220 235 105 220 235 105 220 235 105 220 235 105 220 235 105 220 235 105 220 235 105 220 235 105 220 235 105 220 235 105 220 235 105 220 235 105 220 235 105 220 235 105 220 235 105 220 235 105 220 235 105 220 235 105 220 235 105 220 235 105 220 235 105 220 235 105 220 235 105 220 235 105 220 235 105 220 235 105 220 235 105 220 235 105 220 235 105 220 235 105 220 235 105 220 235 105 220 235 105 220 235 105 220 235 105 220 235 105 220 235 105 220 235 105 220 235 105 220 235 105 220 235 105 220 235 105 220 235 105 220 235 105 220 235 105 220 235 105 220 235 105 220 235 105 220 235 105 220 235 105 220 235 105 220 235 105 220 235 105 220 235 105 220 235 105 220 235 105 220 235 105 220 235 105 220 235 105 220 235 105 220 235 105 220 235 105 220 235 105 220 235 105 220 235 105 220 235 105 220 235 105 220 235 105 220 235 105 220 235 105 220 235 105 220 235
105 220 235 105 220 235 105 220 235 105 220 235 105 220 235 105 220 235 105 220 235 105 220 235 105 220 235 105 220 235 105 220 235 105 220 235 105 220 235 105 220 235 105 220 235 105 220 235 105 220 235 105 220 235 105 220 235 105 220 235 105 220 235 105 220 235 105 220 235 105 220 235 105 220 235 105 220 235 105 220 235 105 220 235 105 220 235 105 220 235 105 220 235 105 220 235 105 220 235 105 220 235 105 220 235 105 220 235 105 220 235 105 220 235 105 220 235 105 220 235 105 220 235 105 220 235 105 220 235 105 220 235 105 220 235 105 220 235 105 220 235 105 220 235 105 220 235 105 220 235 105 220 235 105 220 235 105 220 235 105 220 235 105 220 235 105 220 235 105 220 235 105 220 235 105 220 235 105 220 235 105 220 235 105 220 235 105 220 235 105 220 235 105 220 235 105 220 235 105 220 235 105 220 235 105 220 235 105 220 235 105 220 235 105 220 235 105 220 235 105 220 235 105 220 235 105 220 235 105 220 235 105 220 235 105 220 235 105 220 235 105 220 235 105 220 235 105 220 235 105 220 235 105 220 235 105 220 235 105 220 235 105 220 235 105 220 235 105 220 235 105 220 235 105 220 235 105 220 235 105 220 235 105 220 235 105 220 235 105 220 235 105 220 235 105 220 235 105 220 235 105 220 235 105 220 235 105 220 235 105 220 235 105 220 235 105 220 235 105 220 235 105 220 235 105 220 235 105 220 235 105 220 235 105 220 235 105 220 235 105 220 235 105 220 235 105 220 235 105 220 235 105 220 235 105 220 235 105 220 235 105 220 235 105 220 235 105 220 235 105 220 235 105 220 235 105 220 235 105 220 235 105 220 235
105 221 235 105 221 235 105 221 235 105 221 235 105 221 235 105 221 235 105 221 235 105 221 235 105 221 235 105 221 235 105 221 235 105 221 235 105 221 235 105 221 235 105 221 235 105 221 235 105 221 235 105 221 235 105 221 235 105 221 235 105 221 235 105 221 235 105 221 235 105 221 235 105 221 235 105 221 235 105 221 235 105 221 235 105 221 235 105 221 235 105 221 235 105 221 235 105 221 235 105 221 235 105 221 235 105 221 235 105 221 235 105 221 235 105 221 235 105 221 235 105 221 235 105 221 235 105 221 235 105 221 235 105 221 235 105 221 235 105 221 235 105 221 235 105 221 235 105 221 235 105 221 235 105 221 235 105 221 235 105 221 235 105 221 235 105 221 235 105 221 235 105 221 235 105 221 235 105 221 235 105 221 235 105 221 235 105 221 235 105 221 235 105 221 235 105 221 235 105 221 235 105 221 235 105 221 235 105 221 235 105 221 235 105 221 235 105 221 235 105 221 235 105 221 235 105 221 235 105 221 235 105 221 235 105 221 235 105 221 235 105 221 235 105 221 235 105 221 235 105 221 235 105 221 235 105 221 235 105 221 235 105 221 235 105 221 235 105 221 235 105 221 235 105 221 235 105 221 235 105 221 235 105 221 235 105 221 235 105 221 235 105 221 235 105 221 235 105 221 235 105 221 235 105 221 235 105 221 235 105 221 235 105 221 235 105 221 235 105 221 235 105 221 235 105 221 235 105 221 235 105 221 235 105 221 235 105 221 235 105 221 235 105 221 235 105 221 235 105 221 235 105 221 235 105 221 235 105 221 235 105 221 235 105 221 235 105 221 235 105 221 235 105 221 235 105 221 235 105 221 235 105 221 235
105 221 235 105 221 235 105 221 235 105 221 235 105 221 235 105 221 235 105 221 235 105 221 235 105 221 235 105 221 235 105 221 235 105 221 235 105 221 235 105 221 235 105 221 235 105 221 235 105 221 235 105 221 235 105 221 235 105 221 235 105 221 235 105 221 235 105 221 235 105 221 235 105 221 235 105 221 235 105 221 235 105 221 235 105 221 235 105 221 235 105 221 235 105 221 235 105 221 235 105 221 235 105 221 235 105 221 235 105 221 235 105 221 235 105 221 235 105 221 235 105 221 235 105 221 235 105 221 235 105 221 235 105 221 235 105 221 235 105 221 235 105 221 235 105 221 235 105 221 235 105 221 235 105 221 235 105 221 235 105 221 235 105 221 235 105 221 235 105 221 235 105 221 235 105 221 235 105 221 235 105 221 235 105 221 235 105 221 235 105 221 235 105 221 235 105 221 235 105 221 235 105 221 235 105 221 235 105 221 235 105 221 235 105 221 235 105 221 235 105 221 235 105 221 235 105 221 235 105 221 235 105 221 235 105 221 235 105 221 235 105 221 235 105 221 235 105 221 235 105 221 235 105 221 235 105 221 235 105 221 235 105 221 235 105 221 235 105 221 235 105 221 235 105 221 235 105 221 235 105 221 235 105 221 235 105 221 235 105 221 235 105 221 235 105 221 235 105 221 235 105 221 235 105 221 235 105 221 235 105 221 235 105 221 235 105 221 235 105 221 235 105 221 235 105 221 235 105 221 235 105 221 235 105 221 235 105 221 235 105 221 235 105 221 235 105 221 235 105 221 235 105 221 235 105 221 235 105 221 235 105 221 235 105 221 235 105 221 235 105 221 235 105 221 235 105 221 235 105 221 235 105 221 235
105 222 235 105 222 235 105 222 235 105 222 235 105 222 235 105 222 235 105 222 235 105 222 235 105 222 235 105 222 235 105 222 235 105 222 235 105 222 235 105 222 235 105 222 235 105 222 235 105 222 235 105 222 235 105 222 235 105 222 235 105 222 235 105 222 235 105 222 235 105 222 235 105 222 235 105 222 235 105 222 235 105 222 235 105 222 235 105 222 235 105 222 235 105 222 235 105 222 235 105 222 235 105 222 235 105 222 235 105 222 235 105 222 235 105 222 235 105 222 235 105 222 235 105 222 235 105 222 235 105 222 235 105 222 235 105 222 235 105 222 235 105 222 235 105 222 235 105 222 235 105 222 235 105 222 235 105 222 235 105 222 235 105 222 235 105 222 235 105 222 235 105 222 235 105 222 235 105 222 235 105 222 235 105 222 235 105 222 235 105 222 235 105 222 235 105 222 235 105 222 235 105 222 235 105 222 235 105 222 235 105 222 235 105 222 235 105 222 235 105 222 235 105 222 235 105 222 235 105 222 235 105 222 235 105 222 235 105 222 235 105 222 235 105 222 235 105 222 235 105 222 235 105 222 235 105 222 235 105 222 235 105 222 235 105 222 235 105 222 235 105 222 235 105 222 235 105 222 235 105 222 235 105 222 235 105 222 235 105 222 235 105 222 235 105 222 235 105 222 235 105 222 235 105 222 235 105 222 235 105 222 235 105 222 235 105 222 235 105 222 235 105 222 235 105 222 235 105 222 235 105 222 235 105 222 235 105 222 235 105 222 235 105 222 235 105 222 235 105 222 235 105 222 235 105 222 235 105 222 235 105 222 235 105 222 235 105 222 235 105 222 235 105 222 235 105 222 235 105 222 235 105 222 235
106 222 235 106 222 235 106 222 235 106 222 235 106 222 235 106 222 235 106 222 235 106 222 235 106 222 235 106 222 235 106 222 235 106 222 235 106 222 235 106 222 235 106 222 235 106 222 235 106 222 235 106 222 235 106 222 235 106 222 235 106 222 235 106 222 235 106 222 235 106 222 235 106 222 235 106 222 235 106 222 235 106 222 235 106 222 235 106 222 235 106 222 235 106 222 235 106 222 235 106 222 235 106 222 235 106 222 235 106 222 235 106 222 235 106 222 235 106 222 235 106 222 235 106 222 235 106 222 235 106 222 235 106 222 235 106 222 235 106 222 235 106 222 235 106 222 235 106 222 235 106 222 235 106 222 235 106 222 235 106 222 235 106 222 235 106 222 235 106 222 235 106 222 235 106 222 235 106 222 235 106 222 235 106 222 235 106 222 235 106 222 235 106 222 235 106 222 235 106 222 235 106 222 235 106 222 235 106 222 235 106 222 235 106 222 235 106 222 235 106 222 235 106 222 235 106 222 235 106 222 235 106 222 235 106 222 235 106 222 235 106 222 235 106 222 235 106 222 235 106 222 235 106 222 235 106 222 235 106 222 235 106 222 235 106 222 235 106 222 235 106 222 235 106 222 235 106 222 235 106 222 235 106 222 235 106 222 235 106 222 235 106 222 235 106 222 235 106 222 235 106 222 235 106 222 235 106 222 235 106 222 235 106 222 235 106 222 235 106 222 235 106 222 235 106 222 235 106 222 235 106 222 235 106 222 235 106 222 235 106 222 235 106 222 235 106 222 235 106 222 235 106 222 235 106 222 235 106 222 235 106 222 235 106 222 235 106 222 235 106 222 235 106 222 235 106 222 235 106 222 235 106 222 235
106 222 235 106 222 235 106 222 235 106 222 235 106 222 235 106 222 235 106 222 235 106 222 235 106 222 235 106 222 235 106 222 235 106 222 235 106 222 235 106 222 235 106 222 235 106 222 235 106 222 235 106 222 235 106 222 235 106 222 235 106 222 235 106 222 235 106 222 235 106 222 235 106 222 235 106 222 235 106 222 235 106 222 235 106 222 235 106 222 235 106 222 235 106 222 235 106 222 235 106 222 235 106 222 235 106 222 235 106 222 235 106 222 235 106 222 235 106 222 235 106 222 235 106 222 235 106 222 235 106 222 235 106 222 235 106 222 235 106 222 235 106 222 235 106 222 235 106 222 235 106 222 235 106 222 235 106 222 235 106 222 235 106 222 235 106 222 235 106 222 235 106 222 235 106 222 235 106 222 235 106 222 235 106 222 235 106 222 235 106 222 235 106 222 235 106 222 235 106 222 235 106 222 235 106 222 235 106 222 235 106 222 235 106 222 235 106 222 235 106 222 235 106 222 235 106 222 235 106 222 235 106 222 235 106 222 235 106 222 235 106 222 235 106 222 235 106 222 235 106 222 235 106 222 235 106 222 235 106 222 235 106 222 235 106 222 235 106 222 235 106 222 235 106 222 235 106 222 235 106 222 235 106 222 235 106 222 235 106 222 235 106 222 235 106 222 235 106 222 235 106 222 235 106 222 235 106 222 235 106 222 235 106 222 235 106 222 235 106 222 235 106 222 235 106 222 235 106 222 235 106 222 235 106 222 235 106 222 235 106 222 235 106 222 235 106 222 235 106 222 235 106 222 235 106 222 235 106 222 235 106 222 235 106 222 235 106 222 235 106 222 235 106 222 235 106 222 235 106 222 235 106 222 235
106 223 235 106 223 235 106 223 235 106 223 235 106 223 235 106 223 235 106 223 235 106 223 235 106 223 235 106 223 235 106 223 235 106 223 235 106 223 235 106 223 235 106 223 235 106 223 235 106 223 235 106 223 235 106 223 235 106 223 235 106 223 235 106 223 235 106 223 235 106 223 235 106 223 235 106 223 235 106 223 235 106 223 235 106 223 235 106 223 235 106 223 235 106 223 235 106 223 235 106 223 235 106 223 235 106 223 235 106 223 235 106 223 235 106 223 235 106 223 235 106 223 235 106 223 235 106 223 235 106 223 235 106 223 235 106 223 235 106 223 235 106 223 235 106 223 235 106 223 235 106 223 235 106 223 235 106 223 235 106 223 235 106 223 235 106 223 235 106 223 235 106 223 235 106 223 235 106 223 235 106 223 235 106 223 235 106 223 235 106 223 235 106 223 235 106 223 235 106 223 235 106 223 235 106 223 235 106 223 235 106 223 235 106 223 235 106 223 235 106 223 235 106 223 235 106 223 235 106 223 235 106 223 235 106 223 235 106 223 235 106 223 235 106 223 235 106 223 235 106 223 235 106 223 235 106 223 235 106 223 235 106 223 235 106 223 235 106 223 235 106 223 235 106 223 235 106 223 235 106 223 235 106 223 235 106 223 235 106 223 235 106 223 235 106 223 235 106 223 235 106 223 235 106 223 235 106 223 235 106 223 235 106 223 235 106 223 235 106 223 235 106 223 235 106 223 235 106 223 235 106 223 235 106 223 235 106 223 235 106 223 235 106 223 235 106 223 235 106 223 235 106 223 235 106 223 235 106 223 235 106 223 235 106 223 235 106 223 235 106 223 235 106 223 235 106 223 235 106 223 235 106 223 235
106 223 235 106 223 235 106 223 235 106 223 235 106 223 235 106 223 235 106 223 235 106 223 235 106 223 235 106 223 235 106 223 235 106 223 235 106 223 235 106 223 235 106 223 235 106 223 235 106 223 235 106 223 235 106 223 235 106 223 235 106 223 235 106 223 235 106 223 235 106 223 235 106 223 235 106 223 235 106 223 235 106 223 235 106 223 235 106 223 235 106 223 235 106 223 235 106 223 235 106 223 235 106 223 235 106 223 235 106 223 235 106 223 235 106 223 235 106 223 235 106 223 235 106 223 235 106 223 235 106 223 235 106 223 235 106 223 235 106 223 235 106 223 235 106 223 235 106 223 235 106 223 235 106 223 235 106 223 235 106 223 235 106 223 235 106 223 235 106 223 235 106 223 235 106 223 235 106 223 235 106 223 235 106 223 235 106 223 235 106 223 235 106 223 235 106 223 235 106 223 235 106 223 235 106 223 235 106 223 235 106 223 235 106 223 235 106 223 235 106 223 235 106 223 235 106 223 235 106 223 235 106 223 235 106 223 235 106 223 235 106 223 235 106 223 235 106 223 235 106 223 235 106 223 235 106 223 235 106 223 235 106 223 235 106 223 235 106 223 235 106 223 235 106 223 235 106 223 235 106 223 235 106 223 235 106 223 235 106 223 235 106 223 235 106 223 235 106 223 235 106 223 235 106 223 235 106 223 235 106 223 235 106 223 235 106 223 235 106 223 235 106 223 235 106 223 235 106 223 235 106 223 235 106 223 235 106 223 235 106 223 235 106 223 235 106 223 235 106 223 235 106 223 235 106 223 235 106 223 235 106 223 235 106 223 235 106 223 235 106 223 235 106 223 235 106 223 235 106 223 235 106 223 235
106 223 235 106 223 235 106 223 235 106 223 235 106 223 235 106 223 235 106 223 235 106 223 235 106 223 235 106 223 235 106 223 235 106 223 235 106 223 235 106 223 235 106 223 235 106 223 235 106 223 235 106 223 235 106 223 235 106 223 235 106 223 235 106 223 235 106 223 235 106 223 235 106 223 235 106 223 235 106 223 235 106 223 235 106 223 235 106 223 235 106 223 235 106 223 235 106 223 235 106 223 235 106 223 235 106 223 235 106 223 235 106 223 235 106 223 235 106 223 235 106 223 235 106 223 235 106 223 235 106 223 235 106 223 235 106 223 235 106 223 235 106 223 235 106 223 235 106 223 235 106 223 235 106 223 235 106 223 235 106 223 235 106 223 235 106 223 235 106 223 235 106 223 235 106 223 235 106 223 235 106 223 235 106 223 235 106 223 235 106 223 235 106 223 235 106 223 235 106 223 235 106 223 235 106 223 235 106 223 235 106 223 235 106 223 235 106 223 235 106 223 235 106 223 235 106 223 235 106 223 235 106 223 235 106 223 235 106 223 235 106 223 235 106 223 235 106 223 235 106 223 235 106 223 235 106 223 235 106 223 235 106 223 235 106 223 235 106 223 235 106 223 235 106 223 235 106 223 235 106 223 235 106 223 235 106 223 235 106 223 235 106 223 235 106 223 235 106 223 235 106 223 235 106 223 235 106 223 235 106 223 235 106 223 235 106 223 235 106 223 235 106 223 235 106 223 235 106 223 235 106 223 235 106 223 235 106 223 235 106 223 235 106 223 235 106 223 235 106 223 235 106 223 235 106 223 235 106 223 235 106 223 235 106 223 235 106 223 235 106 223 235 106 223 235 106 223 235 106 223 235 106 223 235
106 224 235 106 224 235 106 224 235 106 224 235 106 224 235 106 224 235 106 224 235 106 224 235 106 224 235 106 224 235 106 224 235 106 224 235 106 224 235 106 224 235 106 224 235 106 224 235 106 224 235 106 224 235 106 224 235 106 224 235 106 224 235 106 224 235 106 224 235 106 224 235 106 224 235 106 224 235 106 224 235 106 224 235 106 224 235 106 224 235 106 224 235 106 224 235 106 224 235 106 224 235 106 224 235 106 224 235 106 224 235 106 224 235 106 224 235 106 224 235 106 224 235 106 224 235 106 224 235 106 224 235 106 224 235 106 224 235 106 224 235 106 224 235 106 224 235 106 224 235 106 224 235 106 224 235 106 224 235 106 224 235 106 224 235 106 224 235 106 224 235 106 224 235 106 224 235 106 224 235 106 224 235 106 224 235 106 224 235 106 224 235 106 224 235 106 224 235 106 224 235 106 224 235 106 224 235 106 224 235 106 224 235 106 224 235 106 224 235 106 224 235 106 224 235 106 224 235 106 224 235 106 224 235 106 224 235 106 224 235 106 224 235 106 224 235 106 224 235 106 224 235 106 224 235 106 224 235 106 224 235 106 224 235 106 224 235 106 224 235 106 224 235 106 224 235 106 224 235 106 224 235 106 224 235 106 224 235 106 224 235 106 224 235 106 224 235 106 224 235 106 224 235 106 224 235 106 224 235 106 224 235 106 224 235 106 224 235 106 224 235 106 224 235 106 224 235 106 224 235 106 224 235 106 224 235 106 224 235 106 224 235 106 224 235 106 224 235 106 224 235 106 224 235 106 224 235 106 224 235 106 224 235 106 224 235 106 224 235 106 224 235 106 224 235 106 224 235 106 224 235 106 224 235
106 224 235 106 224 235 106 224 235 106 224 235 106 224 235 106 224 235 106 224 235 106 224 235 106 224 235 106 224 235 106 224 235 106 224 235 106 224 235 106 224 235 106 224 235 106 224 235 106 224 235 106 224 235 106 224 235 106 224 235 106 224 235 106 224 235 106 224 235 106 224 235 106 224 235 106 224 235 106 224 235 106 224 235 106 224 235 106 224 235 106 224 235 106 224 235 106 224 235 106 224 235 106 224 235 106 224 235 106 224 235 106 224 235 106 224 235 106 224 235 106 224 235 106 224 235 106 224 235 106 224 235 106 224 235 106 224 235 106 224 235 106 224 235 106 224 235 106 224 235 106 224 235 106 224 235 106 224 235 106 224 235 106 224 235 106 224 235 106 224 235 106 224 235 106 224 235 106 224 235 106 224 235 106 224 235 106 224 235 106 224 235 106 224 235 106 224 235 106 224 235 106 224 235 106 224 235 106 224 235 106 224 235 106 224 235 106 224 235 106 224 235 106 224 235 106 224 235 106 224 235 106 224 235 106 224 235 106 224 235 106 224 235 106 224 235 106 224 235 106 224 235 106 224 235 106 224 235 106 224 235 106 224 235 106 224 235 106 224 235 106 224 235 106 224 235 106 224 235 106 224 235 106 224 235 106 224 235 106 224 235 106 224 235 106 224 235 106 224 235 106 224 235 106 224 235 106 224 235 106 224 235 106 224 235 106 224 235 106 224 235 106 224 235 106 224 235 106 224 235 106 224 235 106 224 235 106 224 235 106 224 235 106 224 235 106 224 235 106 224 235 106 224 235 106 224 235 106 224 235 106 224 235 106 224 235 106 224 235 106 224 235 106 224 235 106 224 235 106 224 235 106 224 235
106 225 235 106 225 235 106 225 235 106 225 235 106 225 235 106 225 235 106 225 235 106 225 235 106 225 235 106 225 235 106 225 235 106 225 235 106 225 235 106 225 235 106 225 235 106 225 235 106 225 235 106 225 235 106 225 235 106 225 235 106 225 235 106 225 235 106 225 235 106 225 235 106 225 235 106 225 235 106 225 235 106 225 235 106 225 235 106 225 235 106 225 235 106 225 235 106 225 235 106 225 235 106 225 235 106 225 235 106 225 235 106 225 235 106 225 235 106 225 235 106 225 235 106 225 235 106 225 235 106 225 235 106 225 235 106 225 235 106 225 235 106 225 235 106 225 235 106 225 235 106 225 235 106 225 235 106 225 235 106 225 235 106 225 235 106 225 235 106 225 235 106 225 235 106 225 235 106 225 235 106 225 235 106 225 235 106 225 235 106 225 235 106 225 235 106 225 235 106 225 235 106 225 235 106 225 235 106 225 235 106 225 235 106 225 235 106 225 235 106 225 235 106 225 235 106 225 235 106 225 235 106 225 235 106 225 235 106 225 235 106 225 235 106 225 235 106 225 235 106 225 235 106 225 235 106 225 235 106 225 235 106 225 235 106 225 235 106 225 235 106 225 235 106 225 235 106 225 235 106 225 235 106 225 235 106 225 235 106 225 235 106 225 235 106 225 235 106 225 235 106 225 235 106 225 235 106 225 235 106 225 235 106 225 235 106 225 235 106 225 235 106 225 235 106 225 235 106 225 235 106 225 235 106 225 235 106 225 235 106 225 235 106 225 235 106 225 235 106 225 235 106 225 235 106 225 235 106 225 235 106 225 235 106 225 235 106 225 235 106 225 235 106 225 235 106 225 235 106 225 235 106 225 235
