P3
# Generated DVP lab image: 96x72
96 72
255
0 0 0 2 0 1 5 0 3 8 0 4 10 0 6 13 0 7 16 0 9 18 0 10 21 0 12 24 0 13 26 0 15 29 0 16 32 0 18 34 0 19 37 0 21 40 0 23 42 0 24 45 0 26 48 0 27 51 0 29 53 0 30 56 0 32 59 0 33 61 0 35 64 0 36 67 0 38 69 0 39 72 0 41 75 0 43 77 0 44 80 0 46 83 0 47 85 0 49 88 0 50 91 0 52 93 0 53 96 0 55 99 0 56 102 0 58 104 0 59 107 0 61 110 0 62 112 0 64 115 0 66 118 0 67 120 0 69 123 0 70 126 0 72 128 0 73 131 0 75 134 0 76 136 0 78 139 0 79 142 0 81 144 0 82 147 0 84 150 0 86 153 0 87 155 0 89 158 0 90 161 0 92 163 0 93 166 0 95 169 0 96 171 0 98 174 0 99 177 0 101 179 0 102 182 0 104 185 0 105 187 0 107 190 0 109 193 0 110 195 0 112 198 0 113 201 0 115 204 0 116 206 0 118 209 0 119 212 0 121 214 0 122 217 0 124 220 0 125 222 0 127 225 0 129 228 0 130 230 0 132 233 0 133 236 0 135 238 0 136 241 0 138 244 0 139 246 0 141 249 0 142 252 0 144 255 0 145
0 3 1 2 3 3 5 3 4 8 3 6 10 3 7 13 3 9 16 3 10 18 3 12 21 3 13 24 3 15 26 3 16 29 3 18 32 3 19 34 3 21 37 3 23 40 3 24 42 3 26 45 3 27 48 3 29 51 3 30 53 3 32 56 3 33 59 3 35 61 3 36 64 3 38 67 3 39 69 3 41 72 3 43 75 3 44 77 3 46 80 3 47 83 3 49 85 3 50 88 3 52 91 3 53 93 3 55 96 3 56 99 3 58 102 3 59 104 3 61 107 3 62 110 3 64 112 3 66 115 3 67 118 3 69 120 3 70 123 3 72 126 3 73 128 3 75 131 3 76 134 3 78 136 3 79 139 3 81 142 3 82 144 3 84 147 3 86 150 3 87 153 3 89 155 3 90 158 3 92 161 3 93 163 3 95 166 3 96 169 3 98 171 3 99 174 3 101 177 3 102 179 3 104 182 3 105 185 3 107 187 3 109 190 3 110 193 3 112 195 3 113 198 3 115 201 3 116 204 3 118 206 3 119 209 3 121 212 3 122 214 3 124 217 3 125 220 3 127 222 3 129 225 3 130 228 3 132 230 3 133 233 3 135 236 3 136 238 3 138 241 3 139 244 3 141 246 3 142 249 3 144 252 3 145 255 3 147
0 7 3 2 7 4 5 7 6 8 7 7 10 7 9 13 7 10 16 7 12 18 7 13 21 7 15 24 7 16 26 7 18 29 7 19 32 7 21 34 7 23 37 7 24 40 7 26 42 7 27 45 7 29 48 7 30 51 7 32 53 7 33 56 7 35 59 7 36 61 7 38 64 7 39 67 7 41 69 7 43 72 7 44 75 7 46 77 7 47 80 7 49 83 7 50 85 7 52 88 7 53 91 7 55 93 7 56 96 7 58 99 7 59 102 7 61 104 7 62 107 7 64 110 7 66 112 7 67 115 7 69 118 7 70 120 7 72 123 7 73 126 7 75 128 7 76 131 7 78 134 7 79 136 7 81 139 7 82 142 7 84 144 7 86 147 7 87 150 7 89 153 7 90 155 7 92 158 7 93 161 7 95 163 7 96 166 7 98 169 7 99 171 7 101 174 7 102 177 7 104 179 7 105 182 7 107 185 7 109 187 7 110 190 7 112 193 7 113 195 7 115 198 7 116 201 7 118 204 7 119 206 7 121 209 7 122 212 7 124 214 7 125 217 7 127 220 7 129 222 7 130 225 7 132 228 7 133 230 7 135 233 7 136 236 7 138 238 7 139 241 7 141 244 7 142 246 7 144 249 7 145 252 7 147 255 7 149
0 10 4 2 10 6 5 10 7 8 10 9 10 10 10 13 10 12 16 10 13 18 10 15 21 10 16 24 10 18 26 10 19 29 10 21 32 10 23 34 10 24 37 10 26 40 10 27 42 10 29 45 10 30 48 10 32 51 10 33 53 10 35 56 10 36 59 10 38 61 10 39 64 10 41 67 10 43 69 10 44 72 10 46 75 10 47 77 10 49 80 10 50 83 10 52 85 10 53 88 10 55 91 10 56 93 10 58 96 10 59 99 10 61 102 10 62 104 10 64 107 10 66 110 10 67 112 10 69 115 10 70 118 10 72 120 10 73 123 10 75 126 10 76 128 10 78 131 10 79 134 10 81 136 10 82 139 10 84 142 10 86 144 10 87 147 10 89 150 10 90 153 10 92 155 10 93 158 10 95 161 10 96 163 10 98 166 10 99 169 10 101 171 10 102 174 10 104 177 10 105 179 10 107 182 10 109 185 10 110 187 10 112 190 10 113 193 10 115 195 10 116 198 10 118 201 10 119 204 10 121 206 10 122 209 10 124 212 10 125 214 10 127 217 10 129 220 10 130 222 10 132 225 10 133 228 10 135 230 10 136 233 10 138 236 10 139 238 10 141 241 10 142 244 10 144 246 10 145 249 10 147 252 10 149 255 10 150
0 14 6 2 14 7 5 14 9 8 14 10 10 14 12 13 14 13 16 14 15 18 14 16 21 14 18 24 14 19 26 14 21 29 14 23 32 14 24 34 14 26 37 14 27 40 14 29 42 14 30 45 14 32 48 14 33 51 14 35 53 14 36 56 14 38 59 14 39 61 14 41 64 14 43 67 14 44 69 14 46 72 14 47 75 14 49 77 14 50 80 14 52 83 14 53 85 14 55 88 14 56 91 14 58 93 14 59 96 14 61 99 14 62 102 14 64 104 14 66 107 14 67 110 14 69 112 14 70 115 14 72 118 14 73 120 14 75 123 14 76 126 14 78 128 14 79 131 14 81 134 14 82 136 14 84 139 14 86 142 14 87 144 14 89 147 14 90 150 14 92 153 14 93 155 14 95 158 14 96 161 14 98 163 14 99 166 14 101 169 14 102 171 14 104 174 14 105 177 14 107 179 14 109 182 14 110 185 14 112 187 14 113 190 14 115 193 14 116 195 14 118 198 14 119 201 14 121 204 14 122 206 14 124 209 14 125 212 14 127 214 14 129 217 14 130 220 14 132 222 14 133 225 14 135 228 14 136 230 14 138 233 14 139 236 14 141 238 14 142 241 14 144 244 14 145 246 14 147 249 14 149 252 14 150 255 14 152
0 17 7 2 17 9 5 17 10 8 17 12 10 17 13 13 17 15 16 17 16 18 17 18 21 17 19 24 17 21 26 17 23 29 17 24 32 17 26 34 17 27 37 17 29 40 17 30 42 17 32 45 17 33 48 17 35 51 17 36 53 17 38 56 17 39 59 17 41 61 17 43 64 17 44 67 17 46 69 17 47 72 17 49 75 17 50 77 17 52 80 17 53 83 17 55 85 17 56 88 17 58 91 17 59 93 17 61 96 17 62 99 17 64 102 17 66 104 17 67 107 17 69 110 17 70 112 17 72 115 17 73 118 17 75 120 17 76 123 17 78 126 17 79 128 17 81 131 17 82 134 17 84 136 17 86 139 17 87 142 17 89 144 17 90 147 17 92 150 17 93 153 17 95 155 17 96 158 17 98 161 17 99 163 17 101 166 17 102 169 17 104 171 17 105 174 17 107 177 17 109 179 17 110 182 17 112 185 17 113 187 17 115 190 17 116 193 17 118 195 17 119 198 17 121 201 17 122 204 17 124 206 17 125 209 17 127 212 17 129 214 17 130 217 17 132 220 17 133 222 17 135 225 17 136 228 17 138 230 17 139 233 17 141 236 17 142 238 17 144 241 17 145 244 17 147 246 17 149 249 17 150 252 17 152 255 17 153
0 21 9 2 21 10 5 21 12 8 21 13 10 21 15 13 21 16 16 21 18 18 21 19 21 21 21 24 21 23 26 21 24 29 21 26 32 21 27 34 21 29 37 21 30 40 21 32 42 21 33 45 21 35 48 21 36 51 21 38 53 21 39 56 21 41 59 21 43 61 21 44 64 21 46 67 21 47 69 21 49 72 21 50 75 21 52 77 21 53 80 21 55 83 21 56 85 21 58 88 21 59 91 21 61 93 21 62 96 21 64 99 21 66 102 21 67 104 21 69 107 21 70 110 21 72 112 21 73 115 21 75 118 21 76 120 21 78 123 21 79 126 21 81 128 21 82 131 21 84 134 21 86 136 21 87 139 21 89 142 21 90 144 21 92 147 21 93 150 21 95 153 21 96 155 21 98 158 21 99 161 21 101 163 21 102 166 21 104 169 21 105 171 21 107 174 21 109 177 21 110 179 21 112 182 21 113 185 21 115 187 21 116 190 21 118 193 21 119 195 21 121 198 21 122 201 21 124 204 21 125 206 21 127 209 21 129 212 21 130 214 21 132 217 21 133 220 21 135 222 21 136 225 21 138 228 21 139 230 21 141 233 21 142 236 21 144 238 21 145 241 21 147 244 21 149 246 21 150 249 21 152 252 21 153 255 21 155
0 25 10 2 25 12 5 25 13 8 25 15 10 25 16 13 25 18 16 25 19 18 25 21 21 25 23 24 25 24 26 25 26 29 25 27 32 25 29 34 25 30 37 25 32 40 25 33 42 25 35 45 25 36 48 25 38 51 25 39 53 25 41 56 25 43 59 25 44 61 25 46 64 25 47 67 25 49 69 25 50 72 25 52 75 25 53 77 25 55 80 25 56 83 25 58 85 25 59 88 25 61 91 25 62 93 25 64 96 25 66 99 25 67 102 25 69 104 25 70 107 25 72 110 25 73 112 25 75 115 25 76 118 25 78 120 25 79 123 25 81 126 25 82 128 25 84 131 25 86 134 25 87 136 25 89 139 25 90 142 25 92 144 25 93 147 25 95 150 25 96 153 25 98 155 25 99 158 25 101 161 25 102 163 25 104 166 25 105 169 25 107 171 25 109 174 25 110 177 25 112 179 25 113 182 25 115 185 25 116 187 25 118 190 25 119 193 25 121 195 25 122 198 25 124 201 25 125 204 25 127 206 25 129 209 25 130 212 25 132 214 25 133 217 25 135 220 25 136 222 25 138 225 25 139 228 25 141 230 25 142 233 25 144 236 25 145 238 25 147 241 25 149 244 25 150 246 25 152 249 25 153 252 25 155 255 25 156
0 28 12 2 28 13 5 28 15 8 28 16 10 28 18 13 28 19 16 28 21 18 28 23 21 28 24 24 28 26 26 28 27 29 28 29 32 28 30 34 28 32 37 28 33 40 28 35 42 28 36 45 28 38 48 28 39 51 28 41 53 28 43 56 28 44 59 28 46 61 28 47 64 28 49 67 28 50 69 28 52 72 28 53 75 28 55 77 28 56 80 28 58 83 28 59 85 28 61 88 28 62 91 28 64 93 28 66 96 28 67 99 28 69 102 28 70 104 28 72 107 28 73 110 28 75 112 28 76 115 28 78 118 28 79 120 28 81 123 28 82 126 28 84 128 28 86 131 28 87 134 28 89 136 28 90 139 28 92 142 28 93 144 28 95 147 28 96 150 28 98 153 28 99 155 28 101 158 28 102 161 28 104 163 28 105 166 28 107 169 28 109 171 28 110 174 28 112 177 28 113 179 28 115 182 28 116 185 28 118 187 28 119 190 28 121 193 28 122 195 28 124 198 28 125 201 28 127 204 28 129 206 28 130 209 28 132 212 28 133 214 28 135 217 28 136 220 28 138 222 28 139 225 28 141 228 28 142 230 28 144 233 28 145 236 28 147 238 28 149 241 28 150 244 28 152 246 28 153 249 28 155 252 28 156 255 28 158
0 32 13 2 32 15 5 32 16 8 32 18 10 32 19 13 32 21 16 32 23 18 32 24 21 32 26 24 32 27 26 32 29 29 32 30 32 32 32 34 32 33 37 32 35 40 32 36 42 32 38 45 32 39 48 32 41 51 32 43 53 32 44 56 32 46 59 32 47 61 32 49 64 32 50 67 32 52 69 32 53 72 32 55 75 32 56 77 32 58 80 32 59 83 32 61 85 32 62 88 32 64 91 32 66 93 32 67 96 32 69 99 32 70 102 32 72 104 32 73 107 32 75 110 32 76 112 32 78 115 32 79 118 32 81 120 32 82 123 32 84 126 32 86 128 32 87 131 32 89 134 32 90 136 32 92 139 32 93 142 32 95 144 32 96 147 32 98 150 32 99 153 32 101 155 32 102 158 32 104 161 32 105 163 32 107 166 32 109 169 32 110 171 32 112 174 32 113 177 32 115 179 32 116 182 32 118 185 32 119 187 32 121 190 32 122 193 32 124 195 32 125 198 32 127 201 32 129 204 32 130 206 32 132 209 32 133 212 32 135 214 32 136 217 32 138 220 32 139 222 32 141 225 32 142 228 32 144 230 32 145 233 32 147 236 32 149 238 32 150 241 32 152 244 32 153 246 32 155 249 32 156 252 32 158 255 32 159
0 35 15 2 35 16 5 35 18 8 35 19 10 35 21 13 35 23 16 35 24 18 35 26 21 35 27 24 35 29 26 35 30 29 35 32 32 35 33 34 35 35 37 35 36 40 35 38 42 35 39 45 35 41 48 35 43 51 35 44 53 35 46 56 35 47 59 35 49 61 35 50 64 35 52 67 35 53 69 35 55 72 35 56 75 35 58 77 35 59 80 35 61 83 35 62 85 35 64 88 35 66 91 35 67 93 35 69 96 35 70 99 35 72 102 35 73 104 35 75 107 35 76 110 35 78 112 35 79 115 35 81 118 35 82 120 35 84 123 35 86 126 35 87 128 35 89 131 35 90 134 35 92 136 35 93 139 35 95 142 35 96 144 35 98 147 35 99 150 35 101 153 35 102 155 35 104 158 35 105 161 35 107 163 35 109 166 35 110 169 35 112 171 35 113 174 35 115 177 35 116 179 35 118 182 35 119 185 35 121 187 35 122 190 35 124 193 35 125 195 35 127 198 35 129 201 35 130 204 35 132 206 35 133 209 35 135 212 35 136 214 35 138 217 35 139 220 35 141 222 35 142 225 35 144 228 35 145 230 35 147 233 35 149 236 35 150 238 35 152 241 35 153 244 35 155 246 35 156 249 35 158 252 35 159 255 35 161
0 39 16 2 39 18 5 39 19 8 39 21 10 39 23 13 39 24 16 39 26 18 39 27 21 39 29 24 39 30 26 39 32 29 39 33 32 39 35 34 39 36 37 39 38 40 39 39 42 39 41 45 39 43 48 39 44 51 39 46 53 39 47 56 39 49 59 39 50 61 39 52 64 39 53 67 39 55 69 39 56 72 39 58 75 39 59 77 39 61 80 39 62 83 39 64 85 39 66 88 39 67 91 39 69 93 39 70 96 39 72 99 39 73 102 39 75 104 39 76 107 39 78 110 39 79 112 39 81 115 39 82 118 39 84 120 39 86 123 39 87 126 39 89 128 39 90 131 39 92 134 39 93 136 39 95 139 39 96 142 39 98 144 39 99 147 39 101 150 39 102 153 39 104 155 39 105 158 39 107 161 39 109 163 39 110 166 39 112 169 39 113 171 39 115 174 39 116 177 39 118 179 39 119 182 39 121 185 39 122 187 39 124 190 39 125 193 39 127 195 39 129 198 39 130 201 39 132 204 39 133 206 39 135 209 39 136 212 39 138 214 39 139 217 39 141 220 39 142 222 39 144 225 39 145 228 39 147 230 39 149 233 39 150 236 39 152 238 39 153 241 39 155 244 39 156 246 39 158 249 39 159 252 39 161 255 39 162
0 43 18 2 43 19 5 43 21 8 43 23 10 43 24 13 43 26 16 43 27 18 43 29 21 43 30 24 43 32 26 43 33 29 43 35 32 43 36 34 43 38 37 43 39 40 43 41 42 43 43 45 43 44 48 43 46 51 43 47 53 43 49 56 43 50 59 43 52 61 43 53 64 43 55 67 43 56 69 43 58 72 43 59 75 43 61 77 43 62 80 43 64 83 43 66 85 43 67 88 43 69 91 43 70 93 43 72 96 43 73 99 43 75 102 43 76 104 43 78 107 43 79 110 43 81 112 43 82 115 43 84 118 43 86 120 43 87 123 43 89 126 43 90 128 43 92 131 43 93 134 43 95 136 43 96 139 43 98 142 43 99 144 43 101 147 43 102 150 43 104 153 43 105 155 43 107 158 43 109 161 43 110 163 43 112 166 43 113 169 43 115 171 43 116 174 43 118 177 43 119 179 43 121 182 43 122 185 43 124 187 43 125 190 43 127 193 43 129 195 43 130 198 43 132 201 43 133 204 43 135 206 43 136 209 43 138 212 43 139 214 43 141 217 43 142 220 43 144 222 43 145 225 43 147 228 43 149 230 43 150 233 43 152 236 43 153 238 43 155 241 43 156 244 43 158 246 43 159 249 43 161 252 43 162 255 43 164
0 46 19 2 46 21 5 46 23 8 46 24 10 46 26 13 46 27 16 46 29 18 46 30 21 46 32 24 46 33 26 46 35 29 46 36 32 46 38 34 46 39 37 46 41 40 46 43 42 46 44 45 46 46 48 46 47 51 46 49 53 46 50 56 46 52 59 46 53 61 46 55 64 46 56 67 46 58 69 46 59 72 46 61 75 46 62 77 46 64 80 46 66 83 46 67 85 46 69 88 46 70 91 46 72 93 46 73 96 46 75 99 46 76 102 46 78 104 46 79 107 46 81 110 46 82 112 46 84 115 46 86 118 46 87 120 46 89 123 46 90 126 46 92 128 46 93 131 46 95 134 46 96 136 46 98 139 46 99 142 46 101 144 46 102 147 46 104 150 46 105 153 46 107 155 46 109 158 46 110 161 46 112 163 46 113 166 46 115 169 46 116 171 46 118 174 46 119 177 46 121 179 46 122 182 46 124 185 46 125 187 46 127 190 46 129 193 46 130 195 46 132 198 46 133 201 46 135 204 46 136 206 46 138 209 46 139 212 46 141 214 46 142 217 46 144 220 46 145 222 46 147 225 46 149 228 46 150 230 46 152 233 46 153 236 46 155 238 46 156 241 46 158 244 46 159 246 46 161 249 46 162 252 46 164 255 46 165
0 50 21 2 50 23 5 50 24 8 50 26 10 50 27 13 50 29 16 50 30 18 50 32 21 50 33 24 50 35 26 50 36 29 50 38 32 50 39 34 50 41 37 50 43 40 50 44 42 50 46 45 50 47 48 50 49 51 50 50 53 50 52 56 50 53 59 50 55 61 50 56 64 50 58 67 50 59 69 50 61 72 50 62 75 50 64 77 50 66 80 50 67 83 50 69 85 50 70 88 50 72 91 50 73 93 50 75 96 50 76 99 50 78 102 50 79 104 50 81 107 50 82 110 50 84 112 50 86 115 50 87 118 50 89 120 50 90 123 50 92 126 50 93 128 50 95 131 50 96 134 50 98 136 50 99 139 50 101 142 50 102 144 50 104 147 50 105 150 50 107 153 50 109 155 50 110 158 50 112 161 50 113 163 50 115 166 50 116 169 50 118 171 50 119 174 50 121 177 50 122 179 50 124 182 50 125 185 50 127 187 50 129 190 50 130 193 50 132 195 50 133 198 50 135 201 50 136 204 50 138 206 50 139 209 50 141 212 50 142 214 50 144 217 50 145 220 50 147 222 50 149 225 50 150 228 50 152 230 50 153 233 50 155 236 50 156 238 50 158 241 50 159 244 50 161 246 50 162 249 50 164 252 50 165 255 50 167
0 53 23 2 53 24 5 53 26 8 53 27 10 53 29 13 53 30 16 53 32 18 53 33 21 53 35 24 53 36 26 53 38 29 53 39 32 53 41 34 53 43 37 53 44 40 53 46 42 53 47 45 53 49 48 53 50 51 53 52 53 53 53 56 53 55 59 53 56 61 53 58 64 53 59 67 53 61 69 53 62 72 53 64 75 53 66 77 53 67 80 53 69 83 53 70 85 53 72 88 53 73 91 53 75 93 53 76 96 53 78 99 53 79 102 53 81 104 53 82 107 53 84 110 53 86 112 53 87 115 53 89 118 53 90 120 53 92 123 53 93 126 53 95 128 53 96 131 53 98 134 53 99 136 53 101 139 53 102 142 53 104 144 53 105 147 53 107 150 53 109 153 53 110 155 53 112 158 53 113 161 53 115 163 53 116 166 53 118 169 53 119 171 53 121 174 53 122 177 53 124 179 53 125 182 53 127 185 53 129 187 53 130 190 53 132 193 53 133 195 53 135 198 53 136 201 53 138 204 53 139 206 53 141 209 53 142 212 53 144 214 53 145 217 53 147 220 53 149 222 53 150 225 53 152 228 53 153 230 53 155 233 53 156 236 53 158 238 53 159 241 53 161 244 53 162 246 53 164 249 53 165 252 53 167 255 53 168
0 57 24 2 57 26 5 57 27 8 57 29 10 57 30 13 57 32 16 57 33 18 57 35 21 57 36 24 57 38 26 57 39 29 57 41 32 57 43 34 57 44 37 57 46 40 57 47 42 57 49 45 57 50 48 57 52 51 57 53 53 57 55 56 57 56 59 57 58 61 57 59 64 57 61 67 57 62 69 57 64 72 57 66 75 57 67 77 57 69 80 57 70 83 57 72 85 57 73 88 57 75 91 57 76 93 57 78 96 57 79 99 57 81 102 57 82 104 57 84 107 57 86 110 57 87 112 57 89 115 57 90 118 57 92 120 57 93 123 57 95 126 57 96 128 57 98 131 57 99 134 57 101 136 57 102 139 57 104 142 57 105 144 57 107 147 57 109 150 57 110 153 57 112 155 57 113 158 57 115 161 57 116 163 57 118 166 57 119 169 57 121 171 57 122 174 57 124 177 57 125 179 57 127 182 57 129 185 57 130 187 57 132 190 57 133 193 57 135 195 57 136 198 57 138 201 57 139 204 57 141 206 57 142 209 57 144 212 57 145 214 57 147 217 57 149 220 57 150 222 57 152 225 57 153 228 57 155 230 57 156 233 57 158 236 57 159 238 57 161 241 57 162 244 57 164 246 57 165 249 57 167 252 57 168 255 57 170
0 61 26 2 61 27 5 61 29 8 61 30 10 61 32 13 61 33 16 61 35 18 61 36 21 61 38 24 61 39 26 61 41 29 61 43 32 61 44 34 61 46 37 61 47 40 61 49 42 61 50 45 61 52 48 61 53 51 61 55 53 61 56 56 61 58 59 61 59 245 90 60 245 90 60 245 90 60 245 90 60 245 90 60 245 90 60 245 90 60 245 90 60 245 90 60 245 90 60 245 90 60 245 90 60 245 90 60 245 90 60 245 90 60 245 90 60 245 90 60 245 90 60 245 90 60 245 90 60 245 90 60 245 90 60 245 90 60 245 90 60 245 90 60 245 90 60 245 90 60 245 90 60 245 90 60 245 90 60 245 90 60 245 90 60 147 61 110 150 61 112 153 61 113 155 61 115 158 61 116 161 61 118 163 61 119 166 61 121 169 61 122 171 61 124 174 61 125 177 61 127 179 61 129 182 61 130 185 61 132 187 61 133 190 61 135 193 61 136 195 61 138 198 61 139 201 61 141 204 61 142 206 61 144 209 61 145 212 61 147 214 61 149 217 61 150 220 61 152 222 61 153 225 61 155 228 61 156 230 61 158 233 61 159 236 61 161 238 61 162 241 61 164 244 61 165 246 61 167 249 61 168 252 61 170 255 61 172
0 64 27 2 64 29 5 64 30 8 64 32 10 64 33 13 64 35 16 64 36 18 64 38 21 64 39 24 64 41 26 64 43 29 64 44 32 64 46 34 64 47 37 64 49 40 64 50 42 64 52 45 64 53 48 64 55 51 64 56 53 64 58 56 64 59 59 64 61 245 90 60 245 90 60 245 90 60 245 90 60 245 90 60 245 90 60 245 90 60 245 90 60 245 90 60 245 90 60 245 90 60 245 90 60 245 90 60 245 90 60 245 90 60 245 90 60 245 90 60 245 90 60 245 90 60 245 90 60 245 90 60 245 90 60 245 90 60 245 90 60 245 90 60 245 90 60 245 90 60 245 90 60 245 90 60 245 90 60 245 90 60 245 90 60 147 64 112 150 64 113 153 64 115 155 64 116 158 64 118 161 64 119 163 64 121 166 64 122 169 64 124 171 64 125 174 64 127 177 64 129 179 64 130 182 64 132 185 64 133 187 64 135 190 64 136 193 64 138 195 64 139 198 64 141 201 64 142 204 64 144 206 64 145 209 64 147 212 64 149 214 64 150 217 64 152 220 64 153 222 64 155 225 64 156 228 64 158 230 64 159 233 64 161 236 64 162 238 64 164 241 64 165 244 64 167 246 64 168 249 64 170 252 64 172 255 64 173
0 68 29 2 68 30 5 68 32 8 68 33 10 68 35 13 68 36 16 68 38 18 68 39 21 68 41 24 68 43 26 68 44 29 68 46 32 68 47 34 68 49 37 68 50 40 68 52 42 68 53 45 68 55 48 68 56 51 68 58 53 68 59 56 68 61 59 68 62 245 90 60 245 90 60 245 90 60 245 90 60 245 90 60 245 90 60 245 90 60 245 90 60 245 90 60 245 90 60 245 90 60 245 90 60 245 90 60 245 90 60 245 90 60 245 90 60 245 90 60 245 90 60 245 90 60 245 90 60 245 90 60 245 90 60 245 90 60 245 90 60 245 90 60 245 90 60 245 90 60 245 90 60 245 90 60 245 90 60 245 90 60 245 90 60 147 68 113 150 68 115 153 68 116 155 68 118 158 68 119 161 68 121 163 68 122 166 68 124 169 68 125 171 68 127 174 68 129 177 68 130 179 68 132 182 68 133 185 68 135 187 68 136 190 68 138 193 68 139 195 68 141 198 68 142 201 68 144 204 68 145 206 68 147 209 68 149 212 68 150 214 68 152 217 68 153 220 68 155 222 68 156 225 68 158 228 68 159 230 68 161 233 68 162 236 68 164 238 68 165 241 68 167 244 68 168 246 68 170 249 68 172 252 68 173 255 68 175
0 71 30 2 71 32 5 71 33 8 71 35 10 71 36 13 71 38 16 71 39 18 71 41 21 71 43 24 71 44 26 71 46 29 71 47 32 71 49 34 71 50 37 71 52 40 71 53 42 71 55 45 71 56 48 71 58 51 71 59 53 71 61 56 71 62 59 71 64 245 90 60 245 90 60 245 90 60 245 90 60 245 90 60 245 90 60 245 90 60 245 90 60 245 90 60 245 90 60 245 90 60 245 90 60 245 90 60 245 90 60 245 90 60 245 90 60 245 90 60 245 90 60 245 90 60 245 90 60 245 90 60 245 90 60 245 90 60 245 90 60 245 90 60 245 90 60 245 90 60 245 90 60 245 90 60 245 90 60 245 90 60 245 90 60 147 71 115 150 71 116 153 71 118 155 71 119 158 71 121 161 71 122 163 71 124 166 71 125 169 71 127 171 71 129 174 71 130 177 71 132 179 71 133 182 71 135 185 71 136 187 71 138 190 71 139 193 71 141 195 71 142 198 71 144 201 71 145 204 71 147 206 71 149 209 71 150 212 71 152 214 71 153 217 71 155 220 71 156 222 71 158 225 71 159 228 71 161 230 71 162 233 71 164 236 71 165 238 71 167 241 71 168 244 71 170 246 71 172 249 71 173 252 71 175 255 71 176
0 75 32 2 75 33 5 75 35 8 75 36 10 75 38 13 75 39 16 75 41 18 75 43 21 75 44 24 75 46 26 75 47 29 75 49 32 75 50 34 75 52 37 75 53 40 75 55 42 75 56 45 75 58 48 75 59 51 75 61 53 75 62 56 75 64 59 75 66 245 90 60 245 90 60 245 90 60 245 90 60 245 90 60 245 90 60 245 90 60 245 90 60 245 90 60 245 90 60 245 90 60 245 90 60 245 90 60 245 90 60 245 90 60 245 90 60 245 90 60 245 90 60 245 90 60 245 90 60 245 90 60 245 90 60 245 90 60 245 90 60 245 90 60 245 90 60 245 90 60 245 90 60 245 90 60 245 90 60 245 90 60 245 90 60 147 75 116 150 75 118 153 75 119 155 75 121 158 75 122 161 75 124 163 75 125 166 75 127 169 75 129 171 75 130 174 75 132 177 75 133 179 75 135 182 75 136 185 75 138 187 75 139 190 75 141 193 75 142 195 75 144 198 75 145 201 75 147 204 75 149 206 75 150 209 75 152 212 75 153 214 75 155 217 75 156 220 75 158 222 75 159 225 75 161 228 75 162 230 75 164 233 75 165 236 75 167 238 75 168 241 75 170 244 75 172 246 75 173 249 75 175 252 75 176 255 75 178
0 79 33 2 79 35 5 79 36 8 79 38 10 79 39 13 79 41 16 79 43 18 79 44 21 79 46 24 79 47 26 79 49 29 79 50 32 79 52 34 79 53 37 79 55 40 79 56 42 79 58 45 79 59 48 79 61 51 79 62 53 79 64 56 79 66 59 79 67 245 90 60 245 90 60 245 90 60 245 90 60 245 90 60 245 90 60 245 90 60 245 90 60 245 90 60 245 90 60 245 90 60 245 90 60 245 90 60 245 90 60 245 90 60 245 90 60 245 90 60 245 90 60 245 90 60 245 90 60 245 90 60 245 90 60 245 90 60 245 90 60 245 90 60 245 90 60 245 90 60 245 90 60 245 90 60 245 90 60 245 90 60 245 90 60 147 79 118 150 79 119 153 79 121 155 79 122 158 79 124 161 79 125 163 79 127 166 79 129 169 79 130 171 79 132 174 79 133 177 79 135 179 79 136 182 79 138 185 79 139 187 79 141 190 79 142 193 79 144 195 79 145 198 79 147 201 79 149 204 79 150 206 79 152 209 79 153 212 79 155 214 79 156 217 79 158 220 79 159 222 79 161 225 79 162 228 79 164 230 79 165 233 79 167 236 79 168 238 79 170 241 79 172 244 79 173 246 79 175 249 79 176 252 79 178 255 79 179
0 82 35 2 82 36 5 82 38 8 82 39 10 82 41 13 82 43 16 82 44 18 82 46 21 82 47 24 82 49 26 82 50 29 82 52 32 82 53 34 82 55 37 82 56 40 82 58 42 82 59 45 82 61 48 82 62 51 82 64 53 82 66 56 82 67 59 82 69 245 90 60 245 90 60 245 90 60 245 90 60 245 90 60 245 90 60 245 90 60 245 90 60 245 90 60 245 90 60 245 90 60 245 90 60 245 90 60 245 90 60 245 90 60 245 90 60 245 90 60 245 90 60 245 90 60 245 90 60 245 90 60 245 90 60 245 90 60 245 90 60 245 90 60 245 90 60 245 90 60 245 90 60 245 90 60 245 90 60 245 90 60 245 90 60 147 82 119 150 82 121 153 82 122 155 82 124 158 82 125 161 82 127 163 82 129 166 82 130 169 82 132 171 82 133 174 82 135 177 82 136 179 82 138 60 160 245 60 160 245 60 160 245 60 160 245 60 160 245 60 160 245 60 160 245 60 160 245 60 160 245 60 160 245 60 160 245 212 82 156 214 82 158 217 82 159 220 82 161 222 82 162 225 82 164 228 82 165 230 82 167 233 82 168 236 82 170 238 82 172 241 82 173 244 82 175 246 82 176 249 82 178 252 82 179 255 82 181
0 86 36 2 86 38 5 86 39 8 86 41 10 86 43 13 86 44 16 86 46 18 86 47 21 86 49 24 86 50 26 86 52 29 86 53 32 86 55 34 86 56 37 86 58 40 86 59 42 86 61 45 86 62 48 86 64 51 86 66 53 86 67 56 86 69 59 86 70 245 90 60 245 90 60 245 90 60 245 90 60 245 90 60 245 90 60 245 90 60 245 90 60 245 90 60 245 90 60 245 90 60 245 90 60 245 90 60 245 90 60 245 90 60 245 90 60 245 90 60 245 90 60 245 90 60 245 90 60 245 90 60 245 90 60 245 90 60 245 90 60 245 90 60 245 90 60 245 90 60 245 90 60 245 90 60 245 90 60 245 90 60 245 90 60 147 86 121 150 86 122 153 86 124 155 86 125 158 86 127 161 86 129 163 86 130 166 86 132 169 86 133 171 86 135 174 86 136 60 160 245 60 160 245 60 160 245 60 160 245 60 160 245 60 160 245 60 160 245 60 160 245 60 160 245 60 160 245 60 160 245 60 160 245 60 160 245 60 160 245 60 160 245 217 86 161 220 86 162 222 86 164 225 86 165 228 86 167 230 86 168 233 86 170 236 86 172 238 86 173 241 86 175 244 86 176 246 86 178 249 86 179 252 86 181 255 86 182
0 89 38 2 89 39 5 89 41 8 89 43 10 89 44 13 89 46 16 89 47 18 89 49 21 89 50 24 89 52 26 89 53 29 89 55 32 89 56 34 89 58 37 89 59 40 89 61 42 89 62 45 89 64 48 89 66 51 89 67 53 89 69 56 89 70 59 89 72 245 90 60 245 90 60 245 90 60 245 90 60 245 90 60 245 90 60 245 90 60 245 90 60 245 90 60 245 90 60 245 90 60 245 90 60 245 90 60 245 90 60 245 90 60 245 90 60 245 90 60 245 90 60 245 90 60 245 90 60 245 90 60 245 90 60 245 90 60 245 90 60 245 90 60 245 90 60 245 90 60 245 90 60 245 90 60 245 90 60 245 90 60 245 90 60 147 89 122 150 89 124 153 89 125 155 89 127 158 89 129 161 89 130 163 89 132 166 89 133 169 89 135 171 89 136 60 160 245 60 160 245 60 160 245 60 160 245 60 160 245 60 160 245 60 160 245 60 160 245 60 160 245 60 160 245 60 160 245 60 160 245 60 160 245 60 160 245 60 160 245 60 160 245 60 160 245 220 89 164 222 89 165 225 89 167 228 89 168 230 89 170 233 89 172 236 89 173 238 89 175 241 89 176 244 89 178 246 89 179 249 89 181 252 89 182 255 89 184
0 93 39 2 93 41 5 93 43 8 93 44 10 93 46 13 93 47 16 93 49 18 93 50 21 93 52 24 93 53 26 93 55 29 93 56 32 93 58 34 93 59 37 93 61 40 93 62 42 93 64 45 93 66 48 93 67 51 93 69 53 93 70 56 93 72 59 93 73 245 90 60 245 90 60 245 90 60 245 90 60 245 90 60 245 90 60 245 90 60 245 90 60 245 90 60 245 90 60 245 90 60 245 90 60 245 90 60 245 90 60 245 90 60 245 90 60 245 90 60 245 90 60 245 90 60 245 90 60 245 90 60 245 90 60 245 90 60 245 90 60 245 90 60 245 90 60 245 90 60 245 90 60 245 90 60 245 90 60 245 90 60 245 90 60 147 93 124 150 93 125 153 93 127 155 93 129 158 93 130 161 93 132 163 93 133 166 93 135 169 93 136 60 160 245 60 160 245 60 160 245 60 160 245 60 160 245 60 160 245 60 160 245 60 160 245 60 160 245 60 160 245 60 160 245 60 160 245 60 160 245 60 160 245 60 160 245 60 160 245 60 160 245 60 160 245 60 160 245 222 93 167 225 93 168 228 93 170 230 93 172 233 93 173 236 93 175 238 93 176 241 93 178 244 93 179 246 93 181 249 93 182 252 93 184 255 93 185
0 96 41 2 96 43 5 96 44 8 96 46 10 96 47 13 96 49 16 96 50 18 96 52 21 96 53 24 96 55 26 96 56 29 96 58 32 96 59 34 96 61 37 96 62 40 96 64 42 96 66 45 96 67 48 96 69 51 96 70 53 96 72 56 96 73 59 96 75 245 90 60 245 90 60 245 90 60 245 90 60 245 90 60 245 90 60 245 90 60 245 90 60 245 90 60 245 90 60 245 90 60 245 90 60 245 90 60 245 90 60 245 90 60 245 90 60 245 90 60 245 90 60 245 90 60 245 90 60 245 90 60 245 90 60 245 90 60 245 90 60 245 90 60 245 90 60 245 90 60 245 90 60 245 90 60 245 90 60 245 90 60 245 90 60 147 96 125 150 96 127 153 96 129 155 96 130 158 96 132 161 96 133 163 96 135 166 96 136 60 160 245 60 160 245 60 160 245 60 160 245 60 160 245 60 160 245 60 160 245 60 160 245 60 160 245 60 160 245 60 160 245 60 160 245 60 160 245 60 160 245 60 160 245 60 160 245 60 160 245 60 160 245 60 160 245 60 160 245 60 160 245 225 96 170 228 96 172 230 96 173 233 96 175 236 96 176 238 96 178 241 96 179 244 96 181 246 96 182 249 96 184 252 96 185 255 96 187
0 100 43 2 100 44 5 100 46 8 100 47 10 100 49 13 100 50 16 100 52 18 100 53 21 100 55 24 100 56 26 100 58 29 100 59 32 100 61 34 100 62 37 100 64 40 100 66 42 100 67 45 100 69 48 100 70 51 100 72 53 100 73 56 100 75 59 100 76 245 90 60 245 90 60 245 90 60 245 90 60 245 90 60 245 90 60 245 90 60 245 90 60 245 90 60 245 90 60 245 90 60 245 90 60 245 90 60 245 90 60 245 90 60 245 90 60 245 90 60 245 90 60 245 90 60 245 90 60 245 90 60 245 90 60 245 90 60 245 90 60 245 90 60 245 90 60 245 90 60 245 90 60 245 90 60 245 90 60 245 90 60 245 90 60 147 100 127 150 100 129 153 100 130 155 100 132 158 100 133 161 100 135 163 100 136 60 160 245 60 160 245 60 160 245 60 160 245 60 160 245 60 160 245 60 160 245 60 160 245 60 160 245 60 160 245 60 160 245 60 160 245 60 160 245 60 160 245 60 160 245 60 160 245 60 160 245 60 160 245 60 160 245 60 160 245 60 160 245 60 160 245 60 160 245 228 100 173 230 100 175 233 100 176 236 100 178 238 100 179 241 100 181 244 100 182 246 100 184 249 100 185 252 100 187 255 100 188
0 104 44 2 104 46 5 104 47 8 104 49 10 104 50 13 104 52 16 104 53 18 104 55 21 104 56 24 104 58 26 104 59 29 104 61 32 104 62 34 104 64 37 104 66 40 104 67 42 104 69 45 104 70 48 104 72 51 104 73 53 104 75 56 104 76 59 104 78 245 90 60 245 90 60 245 90 60 245 90 60 245 90 60 245 90 60 245 90 60 245 90 60 245 90 60 245 90 60 245 90 60 245 90 60 245 90 60 245 90 60 245 90 60 245 90 60 245 90 60 245 90 60 245 90 60 245 90 60 245 90 60 245 90 60 245 90 60 245 90 60 245 90 60 245 90 60 245 90 60 245 90 60 245 90 60 245 90 60 245 90 60 245 90 60 147 104 129 150 104 130 153 104 132 155 104 133 158 104 135 161 104 136 60 160 245 60 160 245 60 160 245 60 160 245 60 160 245 60 160 245 60 160 245 60 160 245 60 160 245 60 160 245 60 160 245 60 160 245 60 160 245 60 160 245 60 160 245 60 160 245 60 160 245 60 160 245 60 160 245 60 160 245 60 160 245 60 160 245 60 160 245 60 160 245 60 160 245 230 104 176 233 104 178 236 104 179 238 104 181 241 104 182 244 104 184 246 104 185 249 104 187 252 104 188 255 104 190
0 107 46 2 107 47 5 107 49 8 107 50 10 107 52 13 107 53 16 107 55 18 107 56 21 107 58 24 107 59 26 107 61 29 107 62 32 107 64 34 107 66 37 107 67 40 107 69 42 107 70 45 107 72 48 107 73 51 107 75 53 107 76 56 107 78 59 107 79 245 90 60 245 90 60 245 90 60 245 90 60 245 90 60 245 90 60 245 90 60 245 90 60 245 90 60 245 90 60 245 90 60 245 90 60 245 90 60 245 90 60 245 90 60 245 90 60 245 90 60 245 90 60 245 90 60 245 90 60 245 90 60 245 90 60 245 90 60 245 90 60 245 90 60 245 90 60 245 90 60 245 90 60 245 90 60 245 90 60 245 90 60 245 90 60 147 107 130 150 107 132 153 107 133 155 107 135 158 107 136 161 107 138 60 160 245 60 160 245 60 160 245 60 160 245 60 160 245 60 160 245 60 160 245 60 160 245 60 160 245 60 160 245 60 160 245 60 160 245 60 160 245 60 160 245 60 160 245 60 160 245 60 160 245 60 160 245 60 160 245 60 160 245 60 160 245 60 160 245 60 160 245 60 160 245 60 160 245 230 107 178 233 107 179 236 107 181 238 107 182 241 107 184 244 107 185 246 107 187 249 107 188 252 107 190 255 107 192
0 111 47 2 111 49 5 111 50 8 111 52 10 111 53 13 111 55 16 111 56 18 111 58 21 111 59 24 111 61 26 111 62 29 111 64 32 111 66 34 111 67 37 111 69 40 111 70 42 111 72 45 111 73 48 111 75 51 111 76 53 111 78 56 111 79 59 111 81 245 90 60 245 90 60 245 90 60 245 90 60 245 90 60 245 90 60 245 90 60 245 90 60 245 90 60 245 90 60 245 90 60 245 90 60 245 90 60 245 90 60 245 90 60 245 90 60 245 90 60 245 90 60 245 90 60 245 90 60 245 90 60 245 90 60 245 90 60 245 90 60 245 90 60 245 90 60 245 90 60 245 90 60 245 90 60 245 90 60 245 90 60 245 90 60 147 111 132 150 111 133 153 111 135 155 111 136 158 111 138 60 160 245 60 160 245 60 160 245 60 160 245 60 160 245 60 160 245 60 160 245 60 160 245 60 160 245 60 160 245 60 160 245 60 160 245 60 160 245 60 160 245 60 160 245 60 160 245 60 160 245 60 160 245 60 160 245 60 160 245 60 160 245 60 160 245 60 160 245 60 160 245 60 160 245 60 160 245 60 160 245 233 111 181 236 111 182 238 111 184 241 111 185 244 111 187 246 111 188 249 111 190 252 111 192 255 111 193
0 114 49 2 114 50 5 114 52 8 114 53 10 114 55 13 114 56 16 114 58 18 114 59 21 114 61 24 114 62 26 114 64 29 114 66 32 114 67 34 114 69 37 114 70 40 114 72 42 114 73 45 114 75 48 114 76 51 114 78 53 114 79 56 114 81 59 114 82 245 90 60 245 90 60 245 90 60 245 90 60 245 90 60 245 90 60 245 90 60 245 90 60 245 90 60 245 90 60 245 90 60 245 90 60 245 90 60 245 90 60 245 90 60 245 90 60 245 90 60 245 90 60 245 90 60 245 90 60 245 90 60 245 90 60 245 90 60 245 90 60 245 90 60 245 90 60 245 90 60 245 90 60 245 90 60 245 90 60 245 90 60 245 90 60 147 114 133 150 114 135 153 114 136 155 114 138 158 114 139 60 160 245 60 160 245 60 160 245 60 160 245 60 160 245 60 160 245 60 160 245 60 160 245 60 160 245 60 160 245 60 160 245 60 160 245 60 160 245 60 160 245 60 160 245 60 160 245 60 160 245 60 160 245 60 160 245 60 160 245 60 160 245 60 160 245 60 160 245 60 160 245 60 160 245 60 160 245 60 160 245 233 114 182 236 114 184 238 114 185 241 114 187 244 114 188 246 114 190 249 114 192 252 114 193 255 114 195
0 118 50 2 118 52 5 118 53 8 118 55 10 118 56 13 118 58 16 118 59 18 118 61 21 118 62 24 118 64 26 118 66 29 118 67 32 118 69 34 118 70 37 118 72 40 118 73 42 118 75 45 118 76 48 118 78 51 118 79 53 118 81 56 118 82 59 118 84 245 90 60 245 90 60 245 90 60 245 90 60 245 90 60 245 90 60 245 90 60 245 90 60 245 90 60 245 90 60 245 90 60 245 90 60 245 90 60 245 90 60 245 90 60 245 90 60 245 90 60 245 90 60 245 90 60 245 90 60 245 90 60 245 90 60 245 90 60 245 90 60 245 90 60 245 90 60 245 90 60 245 90 60 245 90 60 245 90 60 245 90 60 245 90 60 147 118 135 150 118 136 153 118 138 155 118 139 158 118 141 60 160 245 60 160 245 60 160 245 60 160 245 60 160 245 60 160 245 60 160 245 60 160 245 60 160 245 60 160 245 60 160 245 60 160 245 60 160 245 60 160 245 60 160 245 60 160 245 60 160 245 60 160 245 60 160 245 60 160 245 60 160 245 60 160 245 60 160 245 60 160 245 60 160 245 60 160 245 60 160 245 233 118 184 236 118 185 238 118 187 241 118 188 244 118 190 246 118 192 249 118 193 252 118 195 255 118 196
0 122 52 2 122 53 5 122 55 8 122 56 10 122 58 13 122 59 16 122 61 18 122 62 21 122 64 24 122 66 26 122 67 29 122 69 32 122 70 34 122 72 37 122 73 40 122 75 42 122 76 45 122 78 48 122 79 51 122 81 53 122 82 56 122 84 59 122 86 245 90 60 245 90 60 245 90 60 245 90 60 245 90 60 245 90 60 245 90 60 245 90 60 245 90 60 245 90 60 245 90 60 245 90 60 245 90 60 245 90 60 245 90 60 245 90 60 245 90 60 245 90 60 245 90 60 245 90 60 245 90 60 245 90 60 245 90 60 245 90 60 245 90 60 245 90 60 245 90 60 245 90 60 245 90 60 245 90 60 245 90 60 245 90 60 147 122 136 150 122 138 153 122 139 155 122 141 158 122 142 60 160 245 60 160 245 60 160 245 60 160 245 60 160 245 60 160 245 60 160 245 60 160 245 60 160 245 60 160 245 60 160 245 60 160 245 60 160 245 60 160 245 60 160 245 60 160 245 60 160 245 60 160 245 60 160 245 60 160 245 60 160 245 60 160 245 60 160 245 60 160 245 60 160 245 60 160 245 60 160 245 233 122 185 236 122 187 238 122 188 241 122 190 244 122 192 246 122 193 249 122 195 252 122 196 255 122 198
0 125 53 2 125 55 5 125 56 8 125 58 10 125 59 13 125 61 16 125 62 18 125 64 21 125 66 24 125 67 26 125 69 29 125 70 32 125 72 34 125 73 37 125 75 40 125 76 42 125 78 45 125 79 48 125 81 51 125 82 53 125 84 56 125 86 59 125 87 245 90 60 245 90 60 245 90 60 245 90 60 245 90 60 245 90 60 245 90 60 245 90 60 245 90 60 245 90 60 245 90 60 245 90 60 245 90 60 245 90 60 245 90 60 245 90 60 245 90 60 245 90 60 245 90 60 245 90 60 245 90 60 245 90 60 245 90 60 245 90 60 245 90 60 245 90 60 245 90 60 245 90 60 245 90 60 245 90 60 245 90 60 245 90 60 147 125 138 150 125 139 153 125 141 155 125 142 158 125 144 60 160 245 60 160 245 60 160 245 60 160 245 60 160 245 60 160 245 60 160 245 60 160 245 60 160 245 60 160 245 60 160 245 60 160 245 60 160 245 60 160 245 60 160 245 60 160 245 60 160 245 60 160 245 60 160 245 60 160 245 60 160 245 60 160 245 60 160 245 60 160 245 60 160 245 60 160 245 60 160 245 233 125 187 236 125 188 238 125 190 241 125 192 244 125 193 246 125 195 249 125 196 252 125 198 255 125 199
0 129 55 2 129 56 5 129 58 8 129 59 10 129 61 13 129 62 16 129 64 18 129 66 21 129 67 24 129 69 26 129 70 29 129 72 32 129 73 34 129 75 37 129 76 40 129 78 42 129 79 45 129 81 48 129 82 51 129 84 53 129 86 56 129 87 59 129 89 245 90 60 245 90 60 245 90 60 245 90 60 245 90 60 245 90 60 245 90 60 245 90 60 245 90 60 245 90 60 245 90 60 245 90 60 245 90 60 245 90 60 245 90 60 245 90 60 245 90 60 245 90 60 245 90 60 245 90 60 245 90 60 245 90 60 245 90 60 245 90 60 245 90 60 245 90 60 245 90 60 245 90 60 245 90 60 245 90 60 245 90 60 245 90 60 147 129 139 150 129 141 153 129 142 155 129 144 158 129 145 60 160 245 60 160 245 60 160 245 60 160 245 60 160 245 60 160 245 60 160 245 60 160 245 60 160 245 60 160 245 60 160 245 60 160 245 60 160 245 60 160 245 60 160 245 60 160 245 60 160 245 60 160 245 60 160 245 60 160 245 60 160 245 60 160 245 60 160 245 60 160 245 60 160 245 60 160 245 60 160 245 233 129 188 236 129 190 238 129 192 241 129 193 244 129 195 246 129 196 249 129 198 252 129 199 255 129 201
0 132 56 2 132 58 5 132 59 8 132 61 10 132 62 13 132 64 16 132 66 18 132 67 21 132 69 24 132 70 26 132 72 29 132 73 32 132 75 34 132 76 37 132 78 40 132 79 42 132 81 45 132 82 48 132 84 51 132 86 53 132 87 56 132 89 59 132 90 245 90 60 245 90 60 245 90 60 245 90 60 245 90 60 245 90 60 245 90 60 245 90 60 245 90 60 245 90 60 245 90 60 245 90 60 245 90 60 245 90 60 245 90 60 245 90 60 245 90 60 245 90 60 245 90 60 245 90 60 245 90 60 245 90 60 245 90 60 245 90 60 245 90 60 245 90 60 245 90 60 245 90 60 245 90 60 245 90 60 245 90 60 245 90 60 147 132 141 150 132 142 153 132 144 155 132 145 158 132 147 60 160 245 60 160 245 60 160 245 60 160 245 60 160 245 60 160 245 60 160 245 60 160 245 60 160 245 60 160 245 60 160 245 60 160 245 60 160 245 60 160 245 60 160 245 60 160 245 60 160 245 60 160 245 60 160 245 60 160 245 60 160 245 60 160 245 60 160 245 60 160 245 60 160 245 60 160 245 60 160 245 233 132 190 236 132 192 238 132 193 241 132 195 244 132 196 246 132 198 249 132 199 252 132 201 255 132 202
0 136 58 2 136 59 5 136 61 8 136 62 10 136 64 13 136 66 16 136 67 18 136 69 21 136 70 24 136 72 26 136 73 29 136 75 32 136 76 34 136 78 37 136 79 40 136 81 42 136 82 45 136 84 48 136 86 51 136 87 53 136 89 56 136 90 59 136 92 245 90 60 245 90 60 245 90 60 245 90 60 245 90 60 245 90 60 245 90 60 245 90 60 245 90 60 245 90 60 245 90 60 245 90 60 245 90 60 245 90 60 245 90 60 245 90 60 245 90 60 245 90 60 245 90 60 245 90 60 245 90 60 245 90 60 245 90 60 245 90 60 245 90 60 245 90 60 245 90 60 245 90 60 245 90 60 245 90 60 245 90 60 245 90 60 147 136 142 150 136 144 153 136 145 155 136 147 158 136 149 60 160 245 60 160 245 60 160 245 60 160 245 60 160 245 60 160 245 60 160 245 60 160 245 60 160 245 60 160 245 60 160 245 60 160 245 60 160 245 60 160 245 60 160 245 60 160 245 60 160 245 60 160 245 60 160 245 60 160 245 60 160 245 60 160 245 60 160 245 60 160 245 60 160 245 60 160 245 60 160 245 233 136 192 236 136 193 238 136 195 241 136 196 244 136 198 246 136 199 249 136 201 252 136 202 255 136 204
0 140 59 2 140 61 5 140 62 8 140 64 10 140 66 13 140 67 16 140 69 18 140 70 21 140 72 24 140 73 26 140 75 29 140 76 32 140 78 34 140 79 37 140 81 40 140 82 42 140 84 45 140 86 48 140 87 51 140 89 53 140 90 56 140 92 59 140 93 245 90 60 245 90 60 245 90 60 245 90 60 245 90 60 245 90 60 245 90 60 245 90 60 245 90 60 245 90 60 245 90 60 245 90 60 245 90 60 245 90 60 245 90 60 245 90 60 245 90 60 245 90 60 245 90 60 245 90 60 245 90 60 245 90 60 245 90 60 245 90 60 245 90 60 245 90 60 245 90 60 245 90 60 245 90 60 245 90 60 245 90 60 245 90 60 147 140 144 150 140 145 153 140 147 155 140 149 158 140 150 60 160 245 60 160 245 60 160 245 60 160 245 60 160 245 60 160 245 60 160 245 60 160 245 60 160 245 60 160 245 60 160 245 60 160 245 60 160 245 60 160 245 60 160 245 60 160 245 60 160 245 60 160 245 60 160 245 60 160 245 60 160 245 60 160 245 60 160 245 60 160 245 60 160 245 60 160 245 60 160 245 233 140 193 236 140 195 238 140 196 241 140 198 244 140 199 246 140 201 249 140 202 252 140 204 255 140 205
0 143 61 2 143 62 5 143 64 8 143 66 10 143 67 13 143 69 16 143 70 18 143 72 21 143 73 24 143 75 26 143 76 29 143 78 32 143 79 34 143 81 37 143 82 40 143 84 42 143 86 45 143 87 48 143 89 51 143 90 53 143 92 56 143 93 59 143 95 245 90 60 245 90 60 245 90 60 245 90 60 245 90 60 245 90 60 245 90 60 245 90 60 245 90 60 245 90 60 245 90 60 245 90 60 245 90 60 245 90 60 245 90 60 245 90 60 245 90 60 245 90 60 245 90 60 245 90 60 245 90 60 245 90 60 245 90 60 245 90 60 245 90 60 245 90 60 245 90 60 245 90 60 245 90 60 245 90 60 245 90 60 245 90 60 147 143 145 150 143 147 153 143 149 155 143 150 158 143 152 60 160 245 60 160 245 60 160 245 60 160 245 60 160 245 60 160 245 60 160 245 60 160 245 60 160 245 60 160 245 60 160 245 60 160 245 60 160 245 60 160 245 60 160 245 60 160 245 60 160 245 60 160 245 60 160 245 60 160 245 60 160 245 60 160 245 60 160 245 60 160 245 60 160 245 60 160 245 60 160 245 233 143 195 236 143 196 238 143 198 241 143 199 244 143 201 246 143 202 249 143 204 252 143 205 255 143 207
0 147 62 2 147 64 5 147 66 8 147 67 10 147 69 13 147 70 16 147 72 18 147 73 21 147 75 24 147 76 26 147 78 29 147 79 32 147 81 34 147 82 37 147 84 40 147 86 42 147 87 45 147 89 48 147 90 51 147 92 53 147 93 56 147 95 59 147 96 245 90 60 245 90 60 245 90 60 245 90 60 245 90 60 245 90 60 245 90 60 245 90 60 245 90 60 245 90 60 245 90 60 245 90 60 245 90 60 245 90 60 245 90 60 245 90 60 245 90 60 245 90 60 245 90 60 245 90 60 245 90 60 245 90 60 245 90 60 245 90 60 245 90 60 245 90 60 245 90 60 245 90 60 245 90 60 245 90 60 245 90 60 245 90 60 147 147 147 150 147 149 153 147 150 155 147 152 158 147 153 60 160 245 60 160 245 60 160 245 60 160 245 60 160 245 60 160 245 60 160 245 60 160 245 60 160 245 60 160 245 60 160 245 60 160 245 60 160 245 60 160 245 60 160 245 60 160 245 60 160 245 60 160 245 60 160 245 60 160 245 60 160 245 60 160 245 60 160 245 60 160 245 60 160 245 60 160 245 60 160 245 233 147 196 236 147 198 238 147 199 241 147 201 244 147 202 246 147 204 249 147 205 252 147 207 255 147 208
0 150 64 2 150 66 5 150 67 8 150 69 10 150 70 13 150 72 16 150 73 18 150 75 21 150 76 24 150 78 26 150 79 29 150 81 32 150 82 34 150 84 37 150 86 40 150 87 42 150 89 45 150 90 48 150 92 51 150 93 53 150 95 56 150 96 59 150 98 245 90 60 245 90 60 245 90 60 245 90 60 245 90 60 245 90 60 245 90 60 245 90 60 245 90 60 245 90 60 245 90 60 245 90 60 245 90 60 245 90 60 245 90 60 245 90 60 245 90 60 245 90 60 245 90 60 245 90 60 245 90 60 245 90 60 245 90 60 245 90 60 245 90 60 245 90 60 245 90 60 245 90 60 245 90 60 245 90 60 245 90 60 245 90 60 147 150 149 150 150 150 153 150 152 155 150 153 158 150 155 161 150 156 60 160 245 60 160 245 60 160 245 60 160 245 60 160 245 60 160 245 60 160 245 60 160 245 60 160 245 60 160 245 60 160 245 60 160 245 60 160 245 60 160 245 60 160 245 60 160 245 60 160 245 60 160 245 60 160 245 60 160 245 60 160 245 60 160 245 60 160 245 60 160 245 60 160 245 230 150 196 233 150 198 236 150 199 238 150 201 241 150 202 244 150 204 246 150 205 249 150 207 252 150 208 255 150 210
0 154 66 2 154 67 5 154 69 8 154 70 10 154 72 13 154 73 16 154 75 18 154 76 21 154 78 24 154 79 26 154 81 29 154 82 32 154 84 34 154 86 37 154 87 40 154 89 42 154 90 45 154 92 48 154 93 51 154 95 53 154 96 56 154 98 59 154 99 245 90 60 245 90 60 245 90 60 245 90 60 245 90 60 245 90 60 245 90 60 245 90 60 245 90 60 245 90 60 245 90 60 245 90 60 245 90 60 245 90 60 245 90 60 245 90 60 245 90 60 245 90 60 245 90 60 245 90 60 245 90 60 245 90 60 245 90 60 245 90 60 245 90 60 245 90 60 245 90 60 245 90 60 245 90 60 245 90 60 245 90 60 245 90 60 147 154 150 150 154 152 153 154 153 155 154 155 158 154 156 161 154 158 60 160 245 60 160 245 60 160 245 60 160 245 60 160 245 60 160 245 60 160 245 60 160 245 60 160 245 60 160 245 60 160 245 60 160 245 60 160 245 60 160 245 60 160 245 60 160 245 60 160 245 60 160 245 60 160 245 60 160 245 60 160 245 60 160 245 60 160 245 60 160 245 60 160 245 230 154 198 233 154 199 236 154 201 238 154 202 241 154 204 244 154 205 246 154 207 249 154 208 252 154 210 255 154 211
0 158 67 2 158 69 5 158 70 8 158 72 10 158 73 13 158 75 16 158 76 18 158 78 21 158 79 24 158 81 26 158 82 29 158 84 32 158 86 34 158 87 37 158 89 40 158 90 42 158 92 45 158 93 48 158 95 51 158 96 53 158 98 56 158 99 59 158 101 245 90 60 245 90 60 245 90 60 245 90 60 245 90 60 245 90 60 245 90 60 245 90 60 245 90 60 245 90 60 245 90 60 245 90 60 245 90 60 245 90 60 245 90 60 245 90 60 245 90 60 245 90 60 245 90 60 245 90 60 245 90 60 245 90 60 245 90 60 245 90 60 245 90 60 245 90 60 245 90 60 245 90 60 245 90 60 245 90 60 245 90 60 245 90 60 147 158 152 150 158 153 153 158 155 155 158 156 158 158 158 161 158 159 163 158 161 60 160 245 60 160 245 60 160 245 60 160 245 60 160 245 60 160 245 60 160 245 60 160 245 60 160 245 60 160 245 60 160 245 60 160 245 60 160 245 60 160 245 60 160 245 60 160 245 60 160 245 60 160 245 60 160 245 60 160 245 60 160 245 60 160 245 60 160 245 228 158 198 230 158 199 233 158 201 236 158 202 238 158 204 241 158 205 244 158 207 246 158 208 249 158 210 252 158 211 255 158 213
0 161 69 2 161 70 5 161 72 8 161 73 10 161 75 13 161 76 16 161 78 18 161 79 21 161 81 24 161 82 26 161 84 29 161 86 32 161 87 34 161 89 37 161 90 40 161 92 42 161 93 45 161 95 48 161 96 51 161 98 53 161 99 56 161 101 59 161 102 245 90 60 245 90 60 245 90 60 245 90 60 245 90 60 245 90 60 245 90 60 245 90 60 245 90 60 245 90 60 245 90 60 245 90 60 245 90 60 245 90 60 245 90 60 245 90 60 245 90 60 245 90 60 245 90 60 245 90 60 245 90 60 245 90 60 245 90 60 245 90 60 245 90 60 245 90 60 245 90 60 245 90 60 245 90 60 245 90 60 245 90 60 245 90 60 147 161 153 150 161 155 153 161 156 155 161 158 158 161 159 161 161 161 163 161 162 166 161 164 60 160 245 60 160 245 60 160 245 60 160 245 60 160 245 60 160 245 60 160 245 60 160 245 60 160 245 60 160 245 60 160 245 60 160 245 60 160 245 60 160 245 60 160 245 60 160 245 60 160 245 60 160 245 60 160 245 60 160 245 60 160 245 225 161 198 228 161 199 230 161 201 233 161 202 236 161 204 238 161 205 241 161 207 244 161 208 246 161 210 249 161 211 252 161 213 255 161 215
0 165 70 2 165 72 5 165 73 8 165 75 10 165 76 13 165 78 16 165 79 18 165 81 21 165 82 24 165 84 26 165 86 29 165 87 32 165 89 34 165 90 37 165 92 40 165 93 42 165 95 45 165 96 48 165 98 51 165 99 53 165 101 56 165 102 59 165 104 245 90 60 245 90 60 245 90 60 245 90 60 245 90 60 245 90 60 245 90 60 245 90 60 245 90 60 245 90 60 245 90 60 245 90 60 245 90 60 245 90 60 245 90 60 245 90 60 245 90 60 245 90 60 245 90 60 245 90 60 245 90 60 245 90 60 245 90 60 245 90 60 245 90 60 245 90 60 245 90 60 245 90 60 245 90 60 245 90 60 245 90 60 245 90 60 147 165 155 150 165 156 153 165 158 155 165 159 158 165 161 161 165 162 163 165 164 166 165 165 169 165 167 60 160 245 60 160 245 60 160 245 60 160 245 60 160 245 60 160 245 60 160 245 60 160 245 60 160 245 60 160 245 60 160 245 60 160 245 60 160 245 60 160 245 60 160 245 60 160 245 60 160 245 60 160 245 60 160 245 222 165 198 225 165 199 228 165 201 230 165 202 233 165 204 236 165 205 238 165 207 241 165 208 244 165 210 246 165 211 249 165 213 252 165 215 255 165 216
0 168 72 2 168 73 5 168 75 8 168 76 10 168 78 13 168 79 16 168 81 18 168 82 21 168 84 24 168 86 26 168 87 29 168 89 32 168 90 34 168 92 37 168 93 40 168 95 42 168 96 45 168 98 48 168 99 51 168 101 53 168 102 56 168 104 59 168 105 245 90 60 245 90 60 245 90 60 245 90 60 245 90 60 245 90 60 245 90 60 245 90 60 245 90 60 245 90 60 245 90 60 245 90 60 245 90 60 245 90 60 245 90 60 245 90 60 245 90 60 245 90 60 245 90 60 245 90 60 245 90 60 245 90 60 245 90 60 245 90 60 245 90 60 245 90 60 245 90 60 245 90 60 245 90 60 245 90 60 245 90 60 245 90 60 147 168 156 150 168 158 153 168 159 155 168 161 158 168 162 161 168 164 163 168 165 166 168 167 169 168 168 171 168 170 60 160 245 60 160 245 60 160 245 60 160 245 60 160 245 60 160 245 60 160 245 60 160 245 60 160 245 60 160 245 60 160 245 60 160 245 60 160 245 60 160 245 60 160 245 60 160 245 60 160 245 220 168 198 222 168 199 225 168 201 228 168 202 230 168 204 233 168 205 236 168 207 238 168 208 241 168 210 244 168 211 246 168 213 249 168 215 252 168 216 255 168 218
0 172 73 2 172 75 5 172 76 8 172 78 10 172 79 13 172 81 16 172 82 18 172 84 21 172 86 24 172 87 26 172 89 29 172 90 32 172 92 34 172 93 37 172 95 40 172 96 42 172 98 45 172 99 48 172 101 51 172 102 53 172 104 56 172 105 59 172 107 245 90 60 245 90 60 245 90 60 245 90 60 245 90 60 245 90 60 245 90 60 245 90 60 245 90 60 245 90 60 245 90 60 245 90 60 245 90 60 245 90 60 245 90 60 245 90 60 245 90 60 245 90 60 245 90 60 245 90 60 245 90 60 245 90 60 245 90 60 245 90 60 245 90 60 245 90 60 245 90 60 245 90 60 245 90 60 245 90 60 245 90 60 245 90 60 147 172 158 150 172 159 153 172 161 155 172 162 158 172 164 161 172 165 163 172 167 166 172 168 169 172 170 171 172 172 174 172 173 60 160 245 60 160 245 60 160 245 60 160 245 60 160 245 60 160 245 60 160 245 60 160 245 60 160 245 60 160 245 60 160 245 60 160 245 60 160 245 60 160 245 60 160 245 217 172 198 220 172 199 222 172 201 225 172 202 228 172 204 230 172 205 233 172 207 236 172 208 238 172 210 241 172 211 244 172 213 246 172 215 249 172 216 252 172 218 255 172 219
0 175 75 2 175 76 5 175 78 8 175 79 10 175 81 13 175 82 16 175 84 18 175 86 21 175 87 24 175 89 26 175 90 29 175 92 32 175 93 34 175 95 37 175 96 40 175 98 42 175 99 45 175 101 48 175 102 51 175 104 53 175 105 56 175 107 59 175 109 245 90 60 245 90 60 245 90 60 245 90 60 245 90 60 245 90 60 245 90 60 245 90 60 245 90 60 245 90 60 245 90 60 245 90 60 245 90 60 245 90 60 245 90 60 245 90 60 245 90 60 245 90 60 245 90 60 245 90 60 245 90 60 245 90 60 245 90 60 245 90 60 245 90 60 245 90 60 245 90 60 245 90 60 245 90 60 245 90 60 245 90 60 245 90 60 147 175 159 150 175 161 153 175 162 155 175 164 158 175 165 161 175 167 163 175 168 166 175 170 169 175 172 171 175 173 174 175 175 177 175 176 179 175 178 60 160 245 60 160 245 60 160 245 60 160 245 60 160 245 60 160 245 60 160 245 60 160 245 60 160 245 60 160 245 60 160 245 212 175 196 214 175 198 217 175 199 220 175 201 222 175 202 225 175 204 228 175 205 230 175 207 233 175 208 236 175 210 238 175 211 241 175 213 244 175 215 246 175 216 249 175 218 252 175 219 255 175 221
0 179 76 2 179 78 5 179 79 8 179 81 10 179 82 13 179 84 16 179 86 18 179 87 21 179 89 24 179 90 26 179 92 29 179 93 32 179 95 34 179 96 37 179 98 40 179 99 42 179 101 45 179 102 48 179 104 51 179 105 53 179 107 56 179 109 59 179 110 61 179 112 64 179 113 67 179 115 69 179 116 72 179 118 75 179 119 77 179 121 80 179 122 83 179 124 85 179 125 88 179 127 91 179 129 93 179 130 96 179 132 99 179 133 102 179 135 104 179 136 107 179 138 110 179 139 112 179 141 115 179 142 118 179 144 120 179 145 123 179 147 126 179 149 128 179 150 131 179 152 134 179 153 136 179 155 139 179 156 142 179 158 144 179 159 147 179 161 150 179 162 153 179 164 155 179 165 158 179 167 161 179 168 163 179 170 166 179 172 169 179 173 171 179 175 174 179 176 177 179 178 179 179 179 182 179 181 185 179 182 187 179 184 190 179 185 193 179 187 195 179 188 198 179 190 201 179 192 204 179 193 206 179 195 209 179 196 212 179 198 214 179 199 217 179 201 220 179 202 222 179 204 225 179 205 228 179 207 230 179 208 233 179 210 236 179 211 238 179 213 241 179 215 244 179 216 246 179 218 249 179 219 252 179 221 255 179 222
0 183 78 2 183 79 5 183 81 8 183 82 10 183 84 13 183 86 16 183 87 18 183 89 21 183 90 24 183 92 26 183 93 29 183 95 32 183 96 34 183 98 37 183 99 40 183 101 42 183 102 45 183 104 48 183 105 51 183 107 53 183 109 56 183 110 59 183 112 61 183 113 64 183 115 67 183 116 69 183 118 72 183 119 75 183 121 77 183 122 80 183 124 83 183 125 85 183 127 88 183 129 91 183 130 93 183 132 96 183 133 99 183 135 102 183 136 104 183 138 107 183 139 110 183 141 112 183 142 115 183 144 118 183 145 120 183 147 123 183 149 126 183 150 128 183 152 131 183 153 134 183 155 136 183 156 139 183 158 142 183 159 144 183 161 147 183 162 150 183 164 153 183 165 155 183 167 158 183 168 161 183 170 163 183 172 166 183 173 169 183 175 171 183 176 174 183 178 177 183 179 179 183 181 182 183 182 185 183 184 187 183 185 190 183 187 193 183 188 195 183 190 198 183 192 201 183 193 204 183 195 206 183 196 209 183 198 212 183 199 214 183 201 217 183 202 220 183 204 222 183 205 225 183 207 228 183 208 230 183 210 233 183 211 236 183 213 238 183 215 241 183 216 244 183 218 246 183 219 249 183 221 252 183 222 255 183 224
0 186 79 2 186 81 5 186 82 8 186 84 10 186 86 13 186 87 16 186 89 18 186 90 21 186 92 24 186 93 26 186 95 29 186 96 32 186 98 34 186 99 37 186 101 40 186 102 42 186 104 45 186 105 48 186 107 51 186 109 53 186 110 56 186 112 59 186 113 61 186 115 64 186 116 67 186 118 69 186 119 72 186 121 75 186 122 77 186 124 80 186 125 83 186 127 85 186 129 88 186 130 91 186 132 93 186 133 96 186 135 99 186 136 102 186 138 104 186 139 107 186 141 110 186 142 112 186 144 115 186 145 118 186 147 120 186 149 123 186 150 126 186 152 128 186 153 131 186 155 134 186 156 136 186 158 139 186 159 142 186 161 144 186 162 147 186 164 150 186 165 153 186 167 155 186 168 158 186 170 161 186 172 163 186 173 166 186 175 169 186 176 171 186 178 174 186 179 177 186 181 179 186 182 182 186 184 185 186 185 187 186 187 190 186 188 193 186 190 195 186 192 198 186 193 201 186 195 204 186 196 206 186 198 209 186 199 212 186 201 214 186 202 217 186 204 220 186 205 222 186 207 225 186 208 228 186 210 230 186 211 233 186 213 236 186 215 238 186 216 241 186 218 244 186 219 246 186 221 249 186 222 252 186 224 255 186 225
0 190 81 2 190 82 5 190 84 8 190 86 10 190 87 13 190 89 16 190 90 18 190 92 21 190 93 24 190 95 26 190 96 29 190 98 32 190 99 34 190 101 37 190 102 40 190 104 42 190 105 45 190 107 48 190 109 51 190 110 53 190 112 56 190 113 59 190 115 61 190 116 64 190 118 67 190 119 69 190 121 72 190 122 75 190 124 77 190 125 80 190 127 83 190 129 85 190 130 88 190 132 91 190 133 93 190 135 96 190 136 99 190 138 102 190 139 104 190 141 107 190 142 110 190 144 112 190 145 115 190 147 118 190 149 120 190 150 123 190 152 126 190 153 128 190 155 131 190 156 134 190 158 136 190 159 139 190 161 142 190 162 144 190 164 147 190 165 150 190 167 153 190 168 155 190 170 158 190 172 161 190 173 163 190 175 166 190 176 169 190 178 171 190 179 174 190 181 177 190 182 179 190 184 182 190 185 185 190 187 187 190 188 190 190 190 193 190 192 195 190 193 198 190 195 201 190 196 204 190 198 206 190 199 209 190 201 212 190 202 214 190 204 217 190 205 220 190 207 222 190 208 225 190 210 228 190 211 230 190 213 233 190 215 236 190 216 238 190 218 241 190 219 244 190 221 246 190 222 249 190 224 252 190 225 255 190 227
0 193 82 2 193 84 5 193 86 8 193 87 10 193 89 13 193 90 16 193 92 18 193 93 21 193 95 24 193 96 26 193 98 29 193 99 32 193 101 34 193 102 37 193 104 40 193 105 42 193 107 45 193 109 48 193 110 51 193 112 53 193 113 56 193 115 59 193 116 61 193 118 64 193 119 67 193 121 69 193 122 72 193 124 75 193 125 77 193 127 80 193 129 83 193 130 85 193 132 88 193 133 91 193 135 93 193 136 96 193 138 99 193 139 102 193 141 104 193 142 107 193 144 110 193 145 112 193 147 115 193 149 118 193 150 120 193 152 123 193 153 126 193 155 128 193 156 131 193 158 134 193 159 136 193 161 139 193 162 142 193 164 144 193 165 147 193 167 150 193 168 153 193 170 155 193 172 158 193 173 161 193 175 163 193 176 166 193 178 169 193 179 171 193 181 174 193 182 177 193 184 179 193 185 182 193 187 185 193 188 187 193 190 190 193 192 193 193 193 195 193 195 198 193 196 201 193 198 204 193 199 206 193 201 209 193 202 212 193 204 214 193 205 217 193 207 220 193 208 222 193 210 225 193 211 228 193 213 230 193 215 233 193 216 236 193 218 238 193 219 241 193 221 244 193 222 246 193 224 249 193 225 252 193 227 255 193 228
0 197 84 2 197 86 5 197 87 8 197 89 10 197 90 13 197 92 16 197 93 18 197 95 21 197 96 24 197 98 26 197 99 29 197 101 32 197 102 34 197 104 37 197 105 40 197 107 42 197 109 45 197 110 48 197 112 51 197 113 53 197 115 56 197 116 59 197 118 61 197 119 64 197 121 67 197 122 69 197 124 72 197 125 75 197 127 77 197 129 80 197 130 83 197 132 85 197 133 88 197 135 91 197 136 93 197 138 96 197 139 99 197 141 102 197 142 104 197 144 107 197 145 110 197 147 112 197 149 115 197 150 118 197 152 120 197 153 123 197 155 126 197 156 128 197 158 131 197 159 134 197 161 136 197 162 139 197 164 142 197 165 144 197 167 147 197 168 150 197 170 153 197 172 155 197 173 158 197 175 161 197 176 163 197 178 166 197 179 169 197 181 171 197 182 174 197 184 177 197 185 179 197 187 182 197 188 185 197 190 187 197 192 190 197 193 193 197 195 195 197 196 198 197 198 201 197 199 204 197 201 206 197 202 209 197 204 212 197 205 214 197 207 217 197 208 220 197 210 222 197 211 225 197 213 228 197 215 230 197 216 233 197 218 236 197 219 238 197 221 241 197 222 244 197 224 246 197 225 249 197 227 252 197 228 255 197 230
0 201 86 2 201 87 5 201 89 8 201 90 10 201 92 13 201 93 16 201 95 18 201 96 21 201 98 24 201 99 26 201 101 29 201 102 32 201 104 34 201 105 37 201 107 40 201 109 42 201 110 45 201 112 48 201 113 51 201 115 53 201 116 56 201 118 59 201 119 61 201 121 64 201 122 67 201 124 69 201 125 72 201 127 75 201 129 77 201 130 80 201 132 83 201 133 85 201 135 88 201 136 91 201 138 93 201 139 96 201 141 99 201 142 102 201 144 104 201 145 107 201 147 110 201 149 112 201 150 115 201 152 118 201 153 120 201 155 123 201 156 126 201 158 128 201 159 131 201 161 134 201 162 136 201 164 139 201 165 142 201 167 144 201 168 147 201 170 150 201 172 153 201 173 155 201 175 158 201 176 161 201 178 163 201 179 166 201 181 169 201 182 171 201 184 174 201 185 177 201 187 179 201 188 182 201 190 185 201 192 187 201 193 190 201 195 193 201 196 195 201 198 198 201 199 201 201 201 204 201 202 206 201 204 209 201 205 212 201 207 214 201 208 217 201 210 220 201 211 222 201 213 225 201 215 228 201 216 230 201 218 233 201 219 236 201 221 238 201 222 241 201 224 244 201 225 246 201 227 249 201 228 252 201 230 255 201 231
0 204 87 2 204 89 5 204 90 8 204 92 10 204 93 13 204 95 16 204 96 18 204 98 21 204 99 24 204 101 26 204 102 29 204 104 32 204 105 34 204 107 37 204 109 40 204 110 42 204 112 45 204 113 48 204 115 51 204 116 53 204 118 56 204 119 59 204 121 61 204 122 64 204 124 67 204 125 69 204 127 72 204 129 75 204 130 77 204 132 80 204 133 83 204 135 85 204 136 88 204 138 91 204 139 93 204 141 96 204 142 99 204 144 102 204 145 104 204 147 107 204 149 110 204 150 112 204 152 115 204 153 118 204 155 120 204 156 123 204 158 126 204 159 128 204 161 131 204 162 134 204 164 136 204 165 139 204 167 142 204 168 144 204 170 147 204 172 150 204 173 153 204 175 155 204 176 158 204 178 161 204 179 163 204 181 166 204 182 169 204 184 171 204 185 174 204 187 177 204 188 179 204 190 182 204 192 185 204 193 187 204 195 190 204 196 193 204 198 195 204 199 198 204 201 201 204 202 204 204 204 206 204 205 209 204 207 212 204 208 214 204 210 217 204 211 220 204 213 222 204 215 225 204 216 228 204 218 230 204 219 233 204 221 236 204 222 238 204 224 241 204 225 244 204 227 246 204 228 249 204 230 252 204 231 255 204 233
0 208 89 2 208 90 5 208 92 8 208 93 10 208 95 13 208 96 16 208 98 18 208 99 21 208 101 24 208 102 26 208 104 29 208 105 32 208 107 34 208 109 37 208 110 40 208 112 42 208 113 45 208 115 48 208 116 51 208 118 53 208 119 56 208 121 59 208 122 61 208 124 64 208 125 67 208 127 69 208 129 72 208 130 75 208 132 77 208 133 80 208 135 83 208 136 85 208 138 88 208 139 91 208 141 93 208 142 96 208 144 99 208 145 102 208 147 104 208 149 107 208 150 110 208 152 112 208 153 115 208 155 118 208 156 120 208 158 123 208 159 126 208 161 128 208 162 131 208 164 134 208 165 136 208 167 139 208 168 142 208 170 144 208 172 147 208 173 150 208 175 153 208 176 155 208 178 158 208 179 161 208 181 163 208 182 166 208 184 169 208 185 171 208 187 174 208 188 177 208 190 179 208 192 182 208 193 185 208 195 187 208 196 190 208 198 193 208 199 195 208 201 198 208 202 201 208 204 204 208 205 206 208 207 209 208 208 212 208 210 214 208 211 217 208 213 220 208 215 222 208 216 225 208 218 228 208 219 230 208 221 233 208 222 236 208 224 238 208 225 241 208 227 244 208 228 246 208 230 249 208 231 252 208 233 255 208 235
0 211 90 2 211 92 5 211 93 8 211 95 10 211 96 13 211 98 16 211 99 18 211 101 21 211 102 24 211 104 26 211 105 29 211 107 32 211 109 34 211 110 37 211 112 40 211 113 42 211 115 45 211 116 48 211 118 51 211 119 53 211 121 56 211 122 59 211 124 61 211 125 64 211 127 67 211 129 69 211 130 72 211 132 75 211 133 77 211 135 80 211 136 83 211 138 85 211 139 88 211 141 91 211 142 93 211 144 96 211 145 99 211 147 102 211 149 104 211 150 107 211 152 110 211 153 112 211 155 115 211 156 118 211 158 120 211 159 123 211 161 126 211 162 128 211 164 131 211 165 134 211 167 136 211 168 139 211 170 142 211 172 144 211 173 147 211 175 150 211 176 153 211 178 155 211 179 158 211 181 161 211 182 163 211 184 166 211 185 169 211 187 171 211 188 174 211 190 177 211 192 179 211 193 182 211 195 185 211 196 187 211 198 190 211 199 193 211 201 195 211 202 198 211 204 201 211 205 204 211 207 206 211 208 209 211 210 212 211 211 214 211 213 217 211 215 220 211 216 222 211 218 225 211 219 228 211 221 230 211 222 233 211 224 236 211 225 238 211 227 241 211 228 244 211 230 246 211 231 249 211 233 252 211 235 255 211 236
0 215 92 2 215 93 5 215 95 8 215 96 10 215 98 13 215 99 16 215 101 18 215 102 21 215 104 24 215 105 26 215 107 29 215 109 32 215 110 34 215 112 37 215 113 40 215 115 42 215 116 45 215 118 48 215 119 51 215 121 53 215 122 56 215 124 59 215 125 61 215 127 64 215 129 67 215 130 69 215 132 72 215 133 75 215 135 77 215 136 80 215 138 83 215 139 85 215 141 88 215 142 91 215 144 93 215 145 96 215 147 99 215 149 102 215 150 104 215 152 107 215 153 110 215 155 112 215 156 115 215 158 118 215 159 120 215 161 123 215 162 126 215 164 128 215 165 131 215 167 134 215 168 136 215 170 139 215 172 142 215 173 144 215 175 147 215 176 150 215 178 153 215 179 155 215 181 158 215 182 161 215 184 163 215 185 166 215 187 169 215 188 171 215 190 174 215 192 177 215 193 179 215 195 182 215 196 185 215 198 187 215 199 190 215 201 193 215 202 195 215 204 198 215 205 201 215 207 204 215 208 206 215 210 209 215 211 212 215 213 214 215 215 217 215 216 220 215 218 222 215 219 225 215 221 228 215 222 230 215 224 233 215 225 236 215 227 238 215 228 241 215 230 244 215 231 246 215 233 249 215 235 252 215 236 255 215 238
0 219 93 2 219 95 5 219 96 8 219 98 10 219 99 13 219 101 16 219 102 18 219 104 21 219 105 24 219 107 26 219 109 29 219 110 32 219 112 34 219 113 37 219 115 40 219 116 42 219 118 45 219 119 48 219 121 51 219 122 53 219 124 56 219 125 59 219 127 61 219 129 64 219 130 67 219 132 69 219 133 72 219 135 75 219 136 77 219 138 80 219 139 83 219 141 85 219 142 88 219 144 91 219 145 93 219 147 96 219 149 99 219 150 102 219 152 104 219 153 107 219 155 110 219 156 112 219 158 115 219 159 118 219 161 120 219 162 123 219 164 126 219 165 128 219 167 131 219 168 134 219 170 136 219 172 139 219 173 142 219 175 144 219 176 147 219 178 150 219 179 153 219 181 155 219 182 158 219 184 161 219 185 163 219 187 166 219 188 169 219 190 171 219 192 174 219 193 177 219 195 179 219 196 182 219 198 185 219 199 187 219 201 190 219 202 193 219 204 195 219 205 198 219 207 201 219 208 204 219 210 206 219 211 209 219 213 212 219 215 214 219 216 217 219 218 220 219 219 222 219 221 225 219 222 228 219 224 230 219 225 233 219 227 236 219 228 238 219 230 241 219 231 244 219 233 246 219 235 249 219 236 252 219 238 255 219 239
0 222 95 2 222 96 5 222 98 8 222 99 10 222 101 13 222 102 16 222 104 18 222 105 21 222 107 24 222 109 26 222 110 29 222 112 32 222 113 34 222 115 37 222 116 40 222 118 42 222 119 45 222 121 48 222 122 51 222 124 53 222 125 56 222 127 59 222 129 61 222 130 64 222 132 67 222 133 69 222 135 72 222 136 75 222 138 77 222 139 80 222 141 83 222 142 85 222 144 88 222 145 91 222 147 93 222 149 96 222 150 99 222 152 102 222 153 104 222 155 107 222 156 110 222 158 112 222 159 115 222 161 118 222 162 120 222 164 123 222 165 126 222 167 128 222 168 131 222 170 134 222 172 136 222 173 139 222 175 142 222 176 144 222 178 147 222 179 150 222 181 153 222 182 155 222 184 158 222 185 161 222 187 163 222 188 166 222 190 169 222 192 171 222 193 174 222 195 177 222 196 179 222 198 182 222 199 185 222 201 187 222 202 190 222 204 193 222 205 195 222 207 198 222 208 201 222 210 204 222 211 206 222 213 209 222 215 212 222 216 214 222 218 217 222 219 220 222 221 222 222 222 225 222 224 228 222 225 230 222 227 233 222 228 236 222 230 238 222 231 241 222 233 244 222 235 246 222 236 249 222 238 252 222 239 255 222 241
0 226 96 2 226 98 5 226 99 8 226 101 10 226 102 13 226 104 16 226 105 18 226 107 21 226 109 24 226 110 26 226 112 29 226 113 32 226 115 34 226 116 37 226 118 40 226 119 42 226 121 45 226 122 48 226 124 51 226 125 53 226 127 56 226 129 59 226 130 61 226 132 64 226 133 67 226 135 69 226 136 72 226 138 75 226 139 77 226 141 80 226 142 83 226 144 85 226 145 88 226 147 91 226 149 93 226 150 96 226 152 99 226 153 102 226 155 104 226 156 107 226 158 110 226 159 112 226 161 115 226 162 118 226 164 120 226 165 123 226 167 126 226 168 128 226 170 131 226 172 134 226 173 136 226 175 139 226 176 142 226 178 144 226 179 147 226 181 150 226 182 153 226 184 155 226 185 158 226 187 161 226 188 163 226 190 166 226 192 169 226 193 171 226 195 174 226 196 177 226 198 179 226 199 182 226 201 185 226 202 187 226 204 190 226 205 193 226 207 195 226 208 198 226 210 201 226 211 204 226 213 206 226 215 209 226 216 212 226 218 214 226 219 217 226 221 220 226 222 222 226 224 225 226 225 228 226 227 230 226 228 233 226 230 236 226 231 238 226 233 241 226 235 244 226 236 246 226 238 249 226 239 252 226 241 255 226 242
0 229 98 2 229 99 5 229 101 8 229 102 10 229 104 13 229 105 16 229 107 18 229 109 21 229 110 24 229 112 26 229 113 29 229 115 32 229 116 34 229 118 37 229 119 40 229 121 42 229 122 45 229 124 48 229 125 51 229 127 53 229 129 56 229 130 59 229 132 61 229 133 64 229 135 67 229 136 69 229 138 72 229 139 75 229 141 77 229 142 80 229 144 83 229 145 85 229 147 88 229 149 91 229 150 93 229 152 96 229 153 99 229 155 102 229 156 104 229 158 107 229 159 110 229 161 112 229 162 115 229 164 118 229 165 120 229 167 123 229 168 126 229 170 128 229 172 131 229 173 134 229 175 136 229 176 139 229 178 142 229 179 144 229 181 147 229 182 150 229 184 153 229 185 155 229 187 158 229 188 161 229 190 163 229 192 166 229 193 169 229 195 171 229 196 174 229 198 177 229 199 179 229 201 182 229 202 185 229 204 187 229 205 190 229 207 193 229 208 195 229 210 198 229 211 201 229 213 204 229 215 206 229 216 209 229 218 212 229 219 214 229 221 217 229 222 220 229 224 222 229 225 225 229 227 228 229 228 230 229 230 233 229 231 236 229 233 238 229 235 241 229 236 244 229 238 246 229 239 249 229 241 252 229 242 255 229 244
0 233 99 2 233 101 5 233 102 8 233 104 10 233 105 13 233 107 16 233 109 18 233 110 21 233 112 24 233 113 26 233 115 29 233 116 32 233 118 34 233 119 37 233 121 40 233 122 42 233 124 45 233 125 48 233 127 51 233 129 53 233 130 56 233 132 59 233 133 61 233 135 64 233 136 67 233 138 69 233 139 72 233 141 75 233 142 77 233 144 80 233 145 83 233 147 85 233 149 88 233 150 91 233 152 93 233 153 96 233 155 99 233 156 102 233 158 104 233 159 107 233 161 110 233 162 112 233 164 115 233 165 118 233 167 120 233 168 123 233 170 126 233 172 128 233 173 131 233 175 134 233 176 136 233 178 139 233 179 142 233 181 144 233 182 147 233 184 150 233 185 153 233 187 155 233 188 158 233 190 161 233 192 163 233 193 166 233 195 169 233 196 171 233 198 174 233 199 177 233 201 179 233 202 182 233 204 185 233 205 187 233 207 190 233 208 193 233 210 195 233 211 198 233 213 201 233 215 204 233 216 206 233 218 209 233 219 212 233 221 214 233 222 217 233 224 220 233 225 222 233 227 225 233 228 228 233 230 230 233 231 233 233 233 236 233 235 238 233 236 241 233 238 244 233 239 246 233 241 249 233 242 252 233 244 255 233 245
0 237 101 2 237 102 5 237 104 8 237 105 10 237 107 13 237 109 16 237 110 18 237 112 21 237 113 24 237 115 26 237 116 29 237 118 32 237 119 34 237 121 37 237 122 40 237 124 42 237 125 45 237 127 48 237 129 51 237 130 53 237 132 56 237 133 59 237 135 61 237 136 64 237 138 67 237 139 69 237 141 72 237 142 75 237 144 77 237 145 80 237 147 83 237 149 85 237 150 88 237 152 91 237 153 93 237 155 96 237 156 99 237 158 102 237 159 104 237 161 107 237 162 110 237 164 112 237 165 115 237 167 118 237 168 120 237 170 123 237 172 126 237 173 128 237 175 131 237 176 134 237 178 136 237 179 139 237 181 142 237 182 144 237 184 147 237 185 150 237 187 153 237 188 155 237 190 158 237 192 161 237 193 163 237 195 166 237 196 169 237 198 171 237 199 174 237 201 177 237 202 179 237 204 182 237 205 185 237 207 187 237 208 190 237 210 193 237 211 195 237 213 198 237 215 201 237 216 204 237 218 206 237 219 209 237 221 212 237 222 214 237 224 217 237 225 220 237 227 222 237 228 225 237 230 228 237 231 230 237 233 233 237 235 236 237 236 238 237 238 241 237 239 244 237 241 246 237 242 249 237 244 252 237 245 255 237 247
0 240 102 2 240 104 5 240 105 8 240 107 10 240 109 13 240 110 16 240 112 18 240 113 21 240 115 24 240 116 26 240 118 29 240 119 32 240 121 34 240 122 37 240 124 40 240 125 42 240 127 45 240 129 48 240 130 51 240 132 53 240 133 56 240 135 59 240 136 61 240 138 64 240 139 67 240 141 69 240 142 72 240 144 75 240 145 77 240 147 80 240 149 83 240 150 85 240 152 88 240 153 91 240 155 93 240 156 96 240 158 99 240 159 102 240 161 104 240 162 107 240 164 110 240 165 112 240 167 115 240 168 118 240 170 120 240 172 123 240 173 126 240 175 128 240 176 131 240 178 134 240 179 136 240 181 139 240 182 142 240 184 144 240 185 147 240 187 150 240 188 153 240 190 155 240 192 158 240 193 161 240 195 163 240 196 166 240 198 169 240 199 171 240 201 174 240 202 177 240 204 179 240 205 182 240 207 185 240 208 187 240 210 190 240 211 193 240 213 195 240 215 198 240 216 201 240 218 204 240 219 206 240 221 209 240 222 212 240 224 214 240 225 217 240 227 220 240 228 222 240 230 225 240 231 228 240 233 230 240 235 233 240 236 236 240 238 238 240 239 241 240 241 244 240 242 246 240 244 249 240 245 252 240 247 255 240 248
0 244 104 2 244 105 5 244 107 8 244 109 10 244 110 13 244 112 16 244 113 18 244 115 21 244 116 24 244 118 26 244 119 29 244 121 32 244 122 34 244 124 37 244 125 40 244 127 42 244 129 45 244 130 48 244 132 51 244 133 53 244 135 56 244 136 59 244 138 61 244 139 64 244 141 67 244 142 69 244 144 72 244 145 75 244 147 77 244 149 80 244 150 83 244 152 85 244 153 88 244 155 91 244 156 93 244 158 96 244 159 99 244 161 102 244 162 104 244 164 107 244 165 110 244 167 112 244 168 115 244 170 118 244 172 120 244 173 123 244 175 126 244 176 128 244 178 131 244 179 134 244 181 136 244 182 139 244 184 142 244 185 144 244 187 147 244 188 150 244 190 153 244 192 155 244 193 158 244 195 161 244 196 163 244 198 166 244 199 169 244 201 171 244 202 174 244 204 177 244 205 179 244 207 182 244 208 185 244 210 187 244 211 190 244 213 193 244 215 195 244 216 198 244 218 201 244 219 204 244 221 206 244 222 209 244 224 212 244 225 214 244 227 217 244 228 220 244 230 222 244 231 225 244 233 228 244 235 230 244 236 233 244 238 236 244 239 238 244 241 241 244 242 244 244 244 246 244 245 249 244 247 252 244 248 255 244 250
0 247 105 2 247 107 5 247 109 8 247 110 10 247 112 13 247 113 16 247 115 18 247 116 21 247 118 24 247 119 26 247 121 29 247 122 32 247 124 34 247 125 37 247 127 40 247 129 42 247 130 45 247 132 48 247 133 51 247 135 53 247 136 56 247 138 59 247 139 61 247 141 64 247 142 67 247 144 69 247 145 72 247 147 75 247 149 77 247 150 80 247 152 83 247 153 85 247 155 88 247 156 91 247 158 93 247 159 96 247 161 99 247 162 102 247 164 104 247 165 107 247 167 110 247 168 112 247 170 115 247 172 118 247 173 120 247 175 123 247 176 126 247 178 128 247 179 131 247 181 134 247 182 136 247 184 139 247 185 142 247 187 144 247 188 147 247 190 150 247 192 153 247 193 155 247 195 158 247 196 161 247 198 163 247 199 166 247 201 169 247 202 171 247 204 174 247 205 177 247 207 179 247 208 182 247 210 185 247 211 187 247 213 190 247 215 193 247 216 195 247 218 198 247 219 201 247 221 204 247 222 206 247 224 209 247 225 212 247 227 214 247 228 217 247 230 220 247 231 222 247 233 225 247 235 228 247 236 230 247 238 233 247 239 236 247 241 238 247 242 241 247 244 244 247 245 246 247 247 249 247 248 252 247 250 255 247 251
0 251 107 2 251 109 5 251 110 8 251 112 10 251 113 13 251 115 16 251 116 18 251 118 21 251 119 24 251 121 26 251 122 29 251 124 32 251 125 34 251 127 37 251 129 40 251 130 42 251 132 45 251 133 48 251 135 51 251 136 53 251 138 56 251 139 59 251 141 61 251 142 64 251 144 67 251 145 69 251 147 72 251 149 75 251 150 77 251 152 80 251 153 83 251 155 85 251 156 88 251 158 91 251 159 93 251 161 96 251 162 99 251 164 102 251 165 104 251 167 107 251 168 110 251 170 112 251 172 115 251 173 118 251 175 120 251 176 123 251 178 126 251 179 128 251 181 131 251 182 134 251 184 136 251 185 139 251 187 142 251 188 144 251 190 147 251 192 150 251 193 153 251 195 155 251 196 158 251 198 161 251 199 163 251 201 166 251 202 169 251 204 171 251 205 174 251 207 177 251 208 179 251 210 182 251 211 185 251 213 187 251 215 190 251 216 193 251 218 195 251 219 198 251 221 201 251 222 204 251 224 206 251 225 209 251 227 212 251 228 214 251 230 217 251 231 220 251 233 222 251 235 225 251 236 228 251 238 230 251 239 233 251 241 236 251 242 238 251 244 241 251 245 244 251 247 246 251 248 249 251 250 252 251 251 255 251 253
0 255 109 2 255 110 5 255 112 8 255 113 10 255 115 13 255 116 16 255 118 18 255 119 21 255 121 24 255 122 26 255 124 29 255 125 32 255 127 34 255 129 37 255 130 40 255 132 42 255 133 45 255 135 48 255 136 51 255 138 53 255 139 56 255 141 59 255 142 61 255 144 64 255 145 67 255 147 69 255 149 72 255 150 75 255 152 77 255 153 80 255 155 83 255 156 85 255 158 88 255 159 91 255 161 93 255 162 96 255 164 99 255 165 102 255 167 104 255 168 107 255 170 110 255 172 112 255 173 115 255 175 118 255 176 120 255 178 123 255 179 126 255 181 128 255 182 131 255 184 134 255 185 136 255 187 139 255 188 142 255 190 144 255 192 147 255 193 150 255 195 153 255 196 155 255 198 158 255 199 161 255 201 163 255 202 166 255 204 169 255 205 171 255 207 174 255 208 177 255 210 179 255 211 182 255 213 185 255 215 187 255 216 190 255 218 193 255 219 195 255 221 198 255 222 201 255 224 204 255 225 206 255 227 209 255 228 212 255 230 214 255 231 217 255 233 220 255 235 222 255 236 225 255 238 228 255 239 230 255 241 233 255 242 236 255 244 238 255 245 241 255 247 244 255 248 246 255 250 249 255 251 252 255 253 255 255 255
